!!!!SEGMENT: pl-sa--55-a-i-55--003_wanski-jan--missa-solemnissima-gloria.krn
!!!cenid: 18xx:341
!!!COM: Wański, Jan
!!!COM-rismid: pe30003295
!!!CDT: ~1800-1888/04
!!!CNT: Polish
!!!OPR: Missa Solemnissima
!!!OTL: Gloria
!!!OMV: 003
!!!PDT: 1830
!!!AGN: Sacred; Mass
!!!SMS-siglum: PL-SA
!!!SMS-shelfmark: 55/A I 55
!!!SMS-shelfwork: 001-003 M
!!!SMS-variant:
!!!SMS-altvar:
!!!NIFC-rismid: 1001035335
!!!URL-scan: http://bc.bdsandomierz.pl/dlibra/publication/1331/edition/1299/content
!!!ONB-nifc: UWAGA: części Mszy: Kyrie, Christe, Gloria, Credo, Sanctus, Pleni Sunt, Benedictus, Agnus Dei
**kern	**fba	**kern	**dynam	**kern	**kern	**dynam	**kern	**text	**kern	**text	**kern	**text	**kern	**text	**kern	**kern
*part9	*part9	*part9	*part 9	*part8	*part7	*part7	*part6	*part6	*part5	*part5	*part4	*part4	*part3	*part3	*part2	*part1
*staff10	*	*staff9	*	*staff8	*staff7	*	*staff6	*staff6	*staff5	*staff5	*staff4	*staff4	*staff3	*staff3	*staff2	*staff1
*Iorgan	*	*Iempty	*	*Ivioln	*Ivioln	*	*Ibass	*	*Itenor	*	*Ialto	*	*Ivox	*	*Iempty	*Iempty
*I"Organo	*	*	*	*I"Violino Secundo.	*I"Violino Primo.	*	*I"Basso.	*	*I"Tenore.	*	*I"Alto.	*	*I"Canto.	*	*I"Cornu Secundo. in C.	*I"Cornu Primo in C.
*I'org	*	*	*	*I'vl 2	*I'vl 1	*	*I'B	*	*I'T	*	*I'A	*	*I'S	*	*I'cor 2 in C	*I'cor 1 in C
*clefF4	*	*clefC1	*	*clefG2	*clefG2	*	*clefF4	*	*clefC4	*	*clefC3	*	*clefC1	*	*clefG2	*clefG2
*	*	*	*	*	*	*	*	*	*	*	*	*	*	*	*Trd0c0	*Trd0c0
*k[]	*	*k[]	*	*k[]	*k[]	*	*k[]	*	*k[]	*	*k[]	*	*k[]	*	*k[]	*k[]
*C:	*	*C:	*	*C:	*C:	*	*C:	*	*C:	*	*C:	*	*C:	*	*C:	*C:
*M4/4	*	*M4/4	*	*M4/4	*M4/4	*	*M4/4	*	*M4/4	*	*M4/4	*	*M4/4	*	*M4/4	*M4/4
*met(c)	*	*met(c)	*	*met(c)	*met(c)	*	*met(c)	*	*met(c)	*	*met(c)	*	*met(c)	*	*met(c)	*met(c)
=1	=1	=1	=1	=1	=1	=1	=1	=1	=1	=1	=1	=1	=1	=1	=1	=1
!LO:TX:a:i:t=All(egr)o. moderato	!	!	!	!LO:TX:a:t=P:problem:wszystkie caudy z prawej strony	!LO:TX:a:t=P:problem:wszystkie caudy z prawej strony	!	!LO:TX:a:i:t=Gloria	!	!LO:TX:a:B:i:t=Gloria	!	!LO:TX:a:t=P:problem: wszystkie caudy z prawej strony	!	!LO:TX:a:i:t=Gloria	!	!LO:TX:a:t=P:problem: wszystkie caudy z prawej strony	!LO:TX:a::t=All(egr)o.
!LO:TX:a:i:t=Tutti.	!	!	!	!LO:TX:a:i:B:t=All(egr)o. moderato.	!LO:TX:a:i:t=All(egr)o Moderato.	!	!LO:TX:a:t=all(egr)o.	!	!LO:TX:a:i:t=All(egr)o.	!	!LO:TX:a:i:t=all(egr)o.	!	!LO:TX:a:i:B:t=All(egr)o.	!	!LO:TX:a:i:t=All(egr)o.	!LO:TX:a:t=P:problem:wszystkie caudy z prawej strony
!LO:TX:a:i:t=Gloria	!	!LO:TX:a:t=P:problem: na przestrzeni taktów 1-27 brak górnej pięciolinii w źródle	!	!LO:TX:a:t=P:problem:nazwa części na pięciolinii przed kluczem	!LO:TX:a:t=P:problem:nazwa części na pięciolinii przed kluczem	!	!LO:TX:a:t=P:problem:nazwa części na pięciolinii przed kluczem	!	!LO:TX:a:t=P:problem:nazwa części na pięciolinii przed kluczem	!	!LO:TX:a:i:t=Gloria	!	!LO:TX:a:t=P:problem: nazwa części na pięciolinii przed kluczem	!	!LO:TX:a:t=P:problem: nazwa części na pięciolinii przed kluczem	!LO:TX:a:t=P:problem: nazwa części na pięciolinii przed kluczem
!LO:TX:b:t=P:problem: nazwa części na pięciolinii przed kluczem	!	!	!	!LO:TX:a:i:t=Gloria	!LO:TX:a:i:t=Gloria	!	!LO:TX:a:t=P:problem: wszystkie caudy z prwej strony	!	!LO:TX:a:t=P:problem: wszystkie caudy z prwej strony	!	!LO:TX:a:t=P:problem:nazwa części na pięciolinii przed kluczem	!	!LO:TX:a:t=P:problem: wszystkie caudy z prwej strony	!	!LO:TX:a:i:t=Gloria	!LO:TX:a:i:t=Gloria
!LO:TX:b:t=P:problem: "Tutti." po odstępie za określeniem tempa	!	!	!	!	!	!	!	!	!	!	!	!	!	!	!	!
!LO:TX:b:t=P:problem:wszystkie caudy z prawej strony	!	!	!	!	!	!	!	!	!	!	!	!	!	!	!	!
8C/L	8 5 3	1ryy	.	4.e/	4.cc\	.	4.C/	Et	4.G/	Et	4.e\	Et	4.cc\	Et	4e/	4cc\
8C/	.	.	.	.	.	.	.	.	.	.	.	.	.	.	.	.
8C/	.	.	.	.	.	.	.	.	.	.	.	.	.	.	4r	4r
8C/J	.	.	.	8e/	8cc\	.	8c\	in	8G/	in	8e\	in	8cc\	in	.	.
*tremolo	*	*	*	*	*	*	*	*	*	*	*	*	*	*	*	*
8C/L	.	.	.	8f/L	8dd\L	.	4c\	ter-	4G/	ter-	8f\L	ter-	8dd\L	ter-	2r	2r
8C/	.	.	.	8e/J	8cc\J	.	.	.	.	.	8e\J	.	8cc\J	.	.	.
8C/	.	.	.	4e/	4cc\	.	4c\	-ra	4G/	-ra	4e\	-ra	4cc\	-ra	.	.
8C/J	.	.	.	.	.	.	.	.	.	.	.	.	.	.	.	.
=2	=2	=2	=2	=2	=2	=2	=2	=2	=2	=2	=2	=2	=2	=2	=2	=2
8C/L	.	1ryy	.	4.cc\	4.ee\	.	4.C/	pax	4c\	pax	4.g\	pax	4.ee\	pax	4cc\	4ee\
8C/	.	.	.	.	.	.	.	.	.	.	.	.	.	.	.	.
8C/	.	.	.	.	.	.	.	.	8c\	ho-	.	.	.	.	4r	4r
8C/J	.	.	.	8cc\	8ee\	.	8c\	ho-	8d\	-mi-	8g\	ho-	8ee\	ho-	.	.
8C/L	.	.	.	8dd\L	8ff\L	.	8c\	-mi-	4c\	-ni-	8g\L	-mi-	8ff\	-mi-	2r	2r
8C/	.	.	.	8cc\J	8ee\J	.	8c\	-ni-	.	.	8g\J	-ni-	8ee\	-ni-	.	.
8C/	.	.	.	4cc\	4ee\	.	4c\	-bus	4c\	-bus	4g\	-bus	4ee\	-bus	.	.
8C/J	.	.	.	.	.	.	.	.	.	.	.	.	.	.	.	.
=3	=3	=3	=3	=3	=3	=3	=3	=3	=3	=3	=3	=3	=3	=3	=3	=3
8C/L	.	1ryy	.	4.ee\	4.gg\	.	4.C/	bo-	4.c\	bo-	4.e\	bo-	4.gg\	bo-	4ee\	4gg\
8C/	.	.	.	.	.	.	.	.	.	.	.	.	.	.	.	.
8C/	.	.	.	.	.	.	.	.	.	.	.	.	.	.	4r	4r
8C/J	.	.	.	8ee\	8gg\	.	8C/	-ne	8d\	.	8e\	.	8gg\	-ne	.	.
8C/L	.	.	.	8ff\L	(>8aa\L	.	4c\	vo-	4G/	-ne	8f\L	-ne	8aa\L	bo-	2r	2r
8C/	.	.	.	8ee\J	8gg\J)	.	.	.	.	.	8e\J	.	8gg\J	.	.	.
8C/	.	.	.	4ee\	4gg\	.	4c\	-lun-	4c\	.	4e\	.	4gg\	-ne	.	.
8C/J	.	.	.	.	.	.	.	.	.	.	.	.	.	.	.	.
=4	=4	=4	=4	=4	=4	=4	=4	=4	=4	=4	=4	=4	=4	=4	=4	=4
8C/L	.	1ryy	.	4ee\	8gg\L	.	4c\	-ta-	4e\	vo-	4g\	vo-	4gg\	vo-	2r	2r
8C/	.	.	.	.	8ccc\	.	.	.	.	.	.	.	.	.	.	.
8C/	.	.	.	8cc\L	8ee\	.	4C/	.	4e\	-lun-	4g\	-lun-	8ee\L	-lun-	.	.
8C/J	.	.	.	8ee\J	8gg\J	.	.	.	.	.	.	.	8gg\J	.	.	.
*Xtremolo	*	*	*	*	*	*	*2\right	*	*2\right	*	*2\right	*	*	*	*	*
!LO:TX:a:t=P:problem: mixed beam	!	!	!	!	!	!	!	!	!	!	!	!	!	!	!	!
8G\L	X 8 6	.	.	4ee\	4gg\	.	2G\	.	2B\	-ta-	2g\	-ta-	4gg\	-ta-	4ee\	4gg\
8G\	.	.	.	.	.	.	.	.	.	.	.	.	.	.	.	.
8GG/	X 7 5	.	.	(>8.dd\L	8.ffT>\L	.	.	.	.	.	.	.	4ff\	.	4dd\	4ff\
8GG/J	.	.	.	.	.	.	.	.	.	.	.	.	.	.	.	.
.	.	.	.	32cc\LL	32ee\LL	.	.	.	.	.	.	.	.	.	.	.
.	.	.	.	32dd\JJJ)	32ff\JJJ	.	.	.	.	.	.	.	.	.	.	.
=5	=5	=5	=5	=5	=5	=5	=5	=5	=5	=5	=5	=5	=5	=5	=5	=5
4C/	.	1ryy	.	8cc\L	8ee\L	.	4C/	-tis	4c\	-tis	4g\	-tis	4ee\	-tis	4cc\	4ee\
.	.	.	.	8g\	8ee\	.	.	.	.	.	.	.	.	.	.	.
4r	.	.	.	8f\	8dd\	.	4r	.	4r	.	4r	.	4r	.	4r	4r
.	.	.	.	8e\J	8cc\J	.	.	.	.	.	.	.	.	.	.	.
2r	.	.	.	8d/L	8b\L	.	2r	.	2r	.	2r	.	2r	.	2r	2r
.	.	.	.	8e/	8cc\	.	.	.	.	.	.	.	.	.	.	.
.	.	.	.	8f/	8dd\	.	.	.	.	.	.	.	.	.	.	.
.	.	.	.	8e/J	8cc\J	.	.	.	.	.	.	.	.	.	.	.
=6	=6	=6	=6	=6	=6	=6	=6	=6	=6	=6	=6	=6	=6	=6	=6	=6
*	*	*	*	*	*	*	*	*	*	*	*	*	*2\right	*	*	*
!	!	!	!LO:DY:b=2:rj	!	!	!LO:DY:b	!	!	!LO:TX:a:t=2	!	!	!	!	!	!LO:TX:a:t=2	!LO:TX:a:t=2
!	!	!	!LO:HP:b:t=p.	!	!	!LO:HP:b:i:t=p.	!	!	!LO:N:vis=0	!	!	!	!	!	!LO:N:vis=0	!LO:N:vis=0
8C/L	.	1ryy	p	4.e/	4.g/	p	2C/	Lau-	0r	.	2e\	Lau-	2g\	Lau-	0r	0r
8C/	.	.	.	.	.	.	.	.	.	.	.	.	.	.	.	.
8C/	.	.	.	.	.	.	.	.	.	.	.	.	.	.	.	.
8C/J	.	.	.	8e/	8g/	.	.	.	.	.	.	.	.	.	.	.
!	!	!	!	!	!	!	!	!	!	!	!	!	!LO:LB:g=original	!	!	!
8C/L	X 6 4	.	.	8f/L	8a/L	.	8C/L	-da-	.	.	8f\L	-da-	8a\L	-da-	.	.
8C/	.	.	.	8e/J	8g/J	.	8C/J	.	.	.	8e\J	.	8g\J	-mus	.	.
8C/	X 5: 3:	.	.	4e/	4g/	.	4C/	-mus	.	.	4e\	-mus	4g\	Te	.	.
8C/J	.	.	.	.	.	.	.	.	.	.	.	.	.	.	.	.
!	!	!	!	!	!LO:LB:g=original	!	!	!	!	!	!	!	!	!	!	!
=7	=7	=7	=7	=7	=7	=7	=7	=7	=7	=7	=7	=7	=7	=7	=7	=7
*tremolo	*	*	*	*	*	*	*	*	*	*	*	*	*	*	*	*
8C/L	.	1ryy	.	4e/	8g/L	.	4C/	be-	.	.	4e\	be-	4g/	be-	.	.
8C/	.	.	.	.	8cc/	.	.	.	.	.	.	.	.	.	.	.
8C/	.	.	.	8c/L	8e/	.	4C/	-ne-	.	.	8c\L	-ne-	8e/L	-ne-	.	.
8C/J	.	.	.	8e/J	8g/J	.	.	.	.	.	8e\J	.	8g/J	.	.	.
*Xtremolo	*	*	*	*	*	*	*	*	*	*	*	*	*	*	*	*
!LO:TX:a:t=P:problem: mixed beam	!	!	!	!	!	!	!LO:LB:g=original	!	!	!	!	!	!	!	!	!
8G\L	X 8 6	.	.	4e/	4g/	.	4G\	-di-	.	.	4e\	-di-	4g/	-di-	.	.
8G\	.	.	.	.	.	.	.	.	.	.	.	.	.	.	.	.
8GG/	X 7 6	.	.	8.d/L	8.f/L	.	8G\L	-ci-	.	.	8d\	-ci-	8f/L	-ci-	.	.
8GG/J	.	.	.	.	.	.	8G\J	-mus	.	.	8d\	-mus	8f/J	-mus	.	.
.	.	.	.	32c/LL	32e/LL	.	.	.	.	.	.	.	.	.	.	.
.	.	.	.	32d/JJJ	32f/JJJ	.	.	.	.	.	.	.	.	.	.	.
!LO:LB:g=original	!	!	!	!	!	!	!	!	!LO:LB:g=original	!	!	!	!	!	!	!
=8	=8	=8	=8	=8	=8	=8	=8	=8	=8	=8	=8	=8	=8	=8	=8	=8
!LO:TX:a:i:t=Tut(ti).	!	!	!	!	!	!LO:DY:b	!	!	!	!	!	!	!	!	!	!
8C/L	.	1ryy	.	4c/	4e/	f	4C/	a-	4r	.	4c\	Te	4e/	Te	4r	4r
8GG/	.	.	.	.	.	.	.	.	.	.	.	.	.	.	.	.
!	!	!	!	!LO:LB:g=original	!	!	!	!	!	!	!	!	!	!	!	!
8C/	.	.	.	16e/LL	(>16cc\LL	.	8c\L	-do-	8G/	a-	8e\	a-	8cc\	a-	4e/	4cc\
.	.	.	.	16d/	16b\	.	.	.	.	.	.	.	.	.	.	.
8GG/J	.	.	.	16e/	16cc\	.	8G\J	.	8G/	-do-	8e\	-do-	8cc\	-do-	.	.
.	.	.	.	16f/JJ	16dd\JJ)	.	.	.	.	.	.	.	.	.	.	.
!	!	!	!	!	!	!	!	!	!	!	!LO:LB:g=original	!	!	!	!	!
*	*	*	*	*tremolo	*	*	*	*	*	*	*	*	*	*	*	*
8C/L	.	.	.	16e/LL	16cc\LL	.	8c\L	-ra-	4G/	-ra-	4e\	-ra-	4cc\	-ra-	4e/	4cc\
.	.	.	.	16e/	16cc\	.	.	.	.	.	.	.	.	.	.	.
8GG/	.	.	.	16e/	16cc\	.	8G\J	.	.	.	.	.	.	.	.	.
.	.	.	.	16e/JJ	16cc\JJ	.	.	.	.	.	.	.	.	.	.	.
8BB/	X 6	.	.	16g/LL	16dd\LL	.	8B\L	-mus	4B/	-mus	4g\	-mus	4dd\	-mus	4g/	4dd\
.	.	.	.	16g/	16dd\	.	.	.	.	.	.	.	.	.	.	.
8GG/J	.	.	.	16g/	16dd\	.	8G\J	.	.	.	.	.	.	.	.	.
.	.	.	.	16g/JJ	16dd\JJ	.	.	.	.	.	.	.	.	.	.	.
*	*	*	*	*Xtremolo	*	*	*	*	*	*	*	*	*	*	*	*
=9	=9	=9	=9	=9	=9	=9	=9	=9	=9	=9	=9	=9	=9	=9	=9	=9
8C/L	.	1ryy	.	4cc\	4cc\ 4ee	.	8c\	Te	8c\	Te	8g\	Te	8ee\	Te	4cc\	4ee\
8GG/	.	.	.	.	.	.	8c\	glo-	8c\	glo-	8g\	glo-	8ee\	glo-	.	.
*	*	*	*	*	*	*	*	*	*	*	*	*	*	*	*2\right	*2\right
8C/	.	.	.	16cc\LL	16ee\LL	.	8c\	-ri-	8c\	-ri-	8g\	-ri-	8ee\	-ri-	2cc\	2ee\
.	.	.	.	16b\	16dd\	.	.	.	.	.	.	.	.	.	.	.
8GG/J	.	.	.	16cc\	16ee\	.	8c\	-fi-	8c\	-fi-	8g\	-fi-	8ee\	-fi-	.	.
.	.	.	.	16dd\JJ	16ff\JJ	.	.	.	.	.	.	.	.	.	.	.
*	*	*	*	*tremolo	*	*	*	*	*	*	*	*	*	*	*	*
8C/L	.	.	.	16cc\LL	16ee\LL	.	8c\L	-ca-	4c\	-ca-	4g\	-ca-	4ee\	-ca-	.	.
.	.	.	.	16cc\	16ee\	.	.	.	.	.	.	.	.	.	.	.
8GG/	.	.	.	16cc\	16ee\	.	8G\	.	.	.	.	.	.	.	.	.
.	.	.	.	16cc\JJ	16ee\JJ	.	.	.	.	.	.	.	.	.	.	.
8BB/	X 6	.	.	16dd\LL	16ff\LL	.	8B\	-mus	4d\	-mus	4g\	-mus	4ff\	-mus	4dd\	4ff\
.	.	.	.	16dd\	16ff\	.	.	.	.	.	.	.	.	.	.	.
8GG/J	.	.	.	16dd\	16ff\	.	8G\J	.	.	.	.	.	.	.	.	.
.	.	.	.	16dd\JJ	16ff\JJ	.	.	.	.	.	.	.	.	.	.	.
*	*	*	*	*Xtremolo	*	*	*	*	*	*	*	*	*	*	*	*
=10	=10	=10	=10	=10	=10	=10	=10	=10	=10	=10	=10	=10	=10	=10	=10	=10
8C/L	.	1ryy	.	4ee\	4gg\	.	8c\	Te	8e\	Te	8b\	Te	8gg\	Te-	2ee\	2gg\
8C/	.	.	.	.	.	.	8c\	glo-	8e\	glo-	8b\	glo-	8gg\	.	.	.
8C/	.	.	.	4ee\	8ccc\L	.	8c\	-ri-	8e\	-ri-	8b\	-ri-	8gg\	-a-	.	.
8C/J	X 6	.	.	.	8gg\J	.	8c\	-fi-	8e\	-fi-	8b\	-fi-	8gg\	-do-	.	.
*	*	*	*	*tremolo	*	*	*	*	*	*	*	*	*	*	*	*
8BB/L	X 5	.	.	16dd\LL	16ff\LL	.	4B\	-ca-	4d\	-ca-	4a\	-ca-	4ff\	-ra-	4dd\	4ff\
.	.	.	.	16dd\	16ff\	.	.	.	.	.	.	.	.	.	.	.
8BB/	.	.	.	16dd\	16ff\	.	.	.	.	.	.	.	.	.	.	.
.	.	.	.	16dd\JJ	16ff\JJ	.	.	.	.	.	.	.	.	.	.	.
8C/	.	.	.	16cc\LL	16ee\LL	.	4c\	-mus	4c\	-mus	4g\	-mus	4ee\	-mus	4cc\	4ee\
.	.	.	.	16cc\	16ee\	.	.	.	.	.	.	.	.	.	.	.
8C/J	.	.	.	16cc\	16ee\	.	.	.	.	.	.	.	.	.	.	.
.	.	.	.	16cc\JJ	16ee\JJ	.	.	.	.	.	.	.	.	.	.	.
*	*	*	*	*Xtremolo	*	*	*	*	*	*	*	*	*	*	*	*
!	!	!	!	!	!	!	!	!	!	!	!	!	!	!	!LO:LB:g=original	!LO:LB:g=original
=11	=11	=11	=11	=11	=11	=11	=11	=11	=11	=11	=11	=11	=11	=11	=11	=11
4G\	.	1ryy	.	4b\	4dd\	.	8G\L	Te	8B\	Te	8g\	Te	8dd\	Te	4g/	4dd\
.	.	.	.	.	.	.	8G\J	glo-	8B\	glo-	8g\	glo-	8dd\	glo-	.	.
8C/L	.	.	.	8.g/L	8.ee\L	.	8C/L	-ri-	8c\	-ri-	8g\	-ri-	8ee\	-ri-	4r	4r
8C/J	X 6	.	.	.	.	.	8C/J	-fi-	8c\	-fi-	8g\	-fi-	8ee\	-fi-	.	.
.	.	.	.	32f/LL	32dd\LL	.	.	.	.	.	.	.	.	.	.	.
.	.	.	.	32g/JJJ	32ee\JJJ	.	.	.	.	.	.	.	.	.	.	.
*	*	*	*	*tremolo	*	*	*	*	*	*	*	*	*	*	*	*
8BB/L	X 5	.	.	16f/LL	16dd\LL	.	4BB/	-ca-	4G/	-ca-	4f\	-ca-	4dd\	-ca-	2r	2r
.	.	.	.	16f/	16dd\	.	.	.	.	.	.	.	.	.	.	.
8BB/	.	.	.	16f/	16dd\	.	.	.	.	.	.	.	.	.	.	.
.	.	.	.	16f/JJ	16dd\JJ	.	.	.	.	.	.	.	.	.	.	.
8C/	.	.	.	16e/LL	16cc\LL	.	4C/	-mus	4G/	-mus	4e\	-mus	4cc\	-mus	.	.
.	.	.	.	16e/	16cc\	.	.	.	.	.	.	.	.	.	.	.
8C/J	.	.	.	16e/	16cc\	.	.	.	.	.	.	.	.	.	.	.
.	.	.	.	16e/JJ	16cc\JJ	.	.	.	.	.	.	.	.	.	.	.
*	*	*	*	*Xtremolo	*	*	*	*	*	*	*	*	*	*	*	*
!	!	!	!	!	!	!	!	!	!	!	!	!	!LO:LB:g=original	!	!	!
=12	=12	=12	=12	=12	=12	=12	=12	=12	=12	=12	=12	=12	=12	=12	=12	=12
!LO:TX:a:t=P:problem: mixed beam	!	!	!	!	!	!	!	!	!	!	!	!	!	!	!	!
8GG/L	.	1ryy	.	4d/	4G/ 4d 4b 4gg	.	4G\	Te	4d\	Te	4g\	.	4b\	Te	4g/	4dd\
8G\	.	.	.	.	.	.	.	.	.	.	.	.	.	.	.	.
8D\	.	.	.	4G/ 4d 4b	4G/ 4d 4b 4gg	.	4r	.	4r	.	4r	.	4r	.	4g/	4dd\
8BB\J	.	.	.	.	.	.	.	.	.	.	.	.	.	.	.	.
4GG/	.	.	.	4G/ 4d 4b	4G/ 4d 4b 4gg	.	2r	.	2r	.	2r	.	2r	.	4g/	4dd\
4r	.	.	.	4r	4r	.	.	.	.	.	.	.	.	.	4r	4r
!	!	!	!	!	!LO:LB:g=original	!	!	!	!	!	!	!	!	!	!	!
=13	=13	=13	=13	=13	=13	=13	=13	=13	=13	=13	=13	=13	=13	=13	=13	=13
*	*	*	*	*2\right	*2\right	*	*	*	*	*	*	*	*	*	*	*
!	!	!	!LO:HP:b:t=p.	!	!	!LO:HP:b:i:t=p.	!	!	!	!	!	!	!	!	!	!LO:SIC:s=5 (ilczba nad pauzą wielotaktową)
!	!	!	!	!	!	!LO:DY:b	!LO:TX:a:t=5	!	!LO:TX:a:t=5	!	!	!	!	!	!LO:TX:a:t=5.	!LO:TX:a:t=6
!	!	!	!LO:DY:b=2:rj	!	!	!	!LO:N:vis=00	!	!LO:N:vis=00	!	!	!	!	!	!LO:N:vis=00	!LO:N:vis=00
[<1GG 1G	.	1ryy	p	2b\	2gg\	p	00r	.	00r	.	2b\	Gra-	2gg\	gra-	00r	00r
.	.	.	.	4b\	4dd\	.	.	.	.	.	4b\	-ti-	4dd\	-ti-	.	.
.	.	.	.	4b\	4dd\	.	.	.	.	.	4b\	-as	4dd\	-as	.	.
=14	=14	=14	=14	=14	=14	=14	=14	=14	=14	=14	=14	=14	=14	=14	=14	=14
1GG_ 1G	.	1ryy	.	2d/	2b\	.	.	.	.	.	2d\	a-	2b\	a-	.	.
.	.	.	.	4c/	(<4a/	.	.	.	.	.	4c\	-gi-	4a\	-gi-	.	.
.	.	.	.	4B/	4g/)	.	.	.	.	.	4B\	-mus	4g\	-mus	.	.
=15	=15	=15	=15	=15	=15	=15	=15	=15	=15	=15	=15	=15	=15	=15	=15	=15
1GG_ 1G	.	1ryy	.	8c/L	(<8a/L	.	.	.	.	.	8c/L	Ti-	8a\L	Ti-	.	.
.	.	.	.	8d/	8b/)	.	.	.	.	.	8d/J	.	8b\J	.	.	.
.	.	.	.	8B/	8g'</	.	.	.	.	.	4B/	-bi	4g\	-bi	.	.
.	.	.	.	8B/J	8g'</J	.	.	.	.	.	.	.	.	.	.	.
.	.	.	.	8c/L	(<8a/L	.	.	.	.	.	8c/L	prop-	8a\L	Ti-	.	.
.	.	.	.	8d/	8b/)	.	.	.	.	.	8d/J	.	8b\J	.	.	.
.	.	.	.	8B/	8g'</	.	.	.	.	.	4B/	-ter	4g\	-bi	.	.
.	.	.	.	8B/J	8g'</J	.	.	.	.	.	.	.	.	.	.	.
=16	=16	=16	=16	=16	=16	=16	=16	=16	=16	=16	=16	=16	=16	=16	=16	=16
1GG] 1G	.	1ryy	.	8c/L	(<8a/L	.	.	.	.	.	8c/L	mag-	8a\L	prop-	.	.
.	.	.	.	8d/	8b/)	.	.	.	.	.	8d/J	.	8b\J	.	.	.
.	.	.	.	8B/	8g'</	.	.	.	.	.	4B/	-nam	4g\	-ter-	.	.
.	.	.	.	8B/J	8g'</J	.	.	.	.	.	.	.	.	.	.	.
.	.	.	.	8c/L	(<8a/L	.	.	.	.	.	8c/L	glo-	8a\L	-mag-	.	.
.	.	.	.	8d/	8b/)	.	.	.	.	.	8d/J	-ri-	8b\J	.	.	.
.	.	.	.	8B/	8g'</	.	.	.	.	.	4B/	-am	4g\	-nam	.	.
.	.	.	.	8B/J	8g'</J	.	.	.	.	.	.	.	.	.	.	.
!LO:LB:g=original	!	!	!	!LO:LB:g=original	!	!	!	!	!	!	!	!	!	!	!	!
=17	=17	=17	=17	=17	=17	=17	=17	=17	=17	=17	=17	=17	=17	=17	=17	=17
4GG/	.	1ryy	.	8c/L	8a/L	.	1r	.	1r	.	8c/L	Tu-	8a\L	glo-	1r	1r
.	.	.	.	8d/J	8b/J	.	.	.	.	.	8d/J	.	8b\J	-ri-	.	.
8G\L|	.	.	.	4B/	4g/	.	.	.	.	.	4B/	-am	4g\	-am	.	.
8A\J|	.	.	.	.	.	.	.	.	.	.	.	.	.	.	.	.
8G\L|	.	.	.	2r	2r	.	.	.	.	.	2r	.	2r	.	.	.
8F\|	.	.	.	.	.	.	.	.	.	.	.	.	.	.	.	.
8E\|	.	.	.	.	.	.	.	.	.	.	.	.	.	.	.	.
8D\J|	.	.	.	.	.	.	.	.	.	.	.	.	.	.	.	.
!	!	!	!	!	!	!	!LO:LB:g=original	!	!	!	!LO:LB:g=original	!	!	!	!	!
=18	=18	=18	=18	=18	=18	=18	=18	=18	=18	=18	=18	=18	=18	=18	=18	=18
*8ba	*	*	*	*	*	*	*	*	*	*	*	*	*	*	*	*
[>1CC	.	1ryy	.	2ee\	2ccc\	.	2c\	Do-	2e\	Do-	2g\	Do-	2gg\	Do-	1ee	1gg
.	.	.	.	4ee\	4gg\	.	4c\	-mi-	4e\	-mi-	4g\	-mi-	4gg\	-mi-	.	.
.	.	.	.	4ee\	4gg\	.	4c\	-ne	4e\	-ne	4g\	-ne	4gg\	-ne	.	.
=19	=19	=19	=19	=19	=19	=19	=19	=19	=19	=19	=19	=19	=19	=19	=19	=19
1CC_>	.	1ryy	.	2g/	2ee\	.	2C/	DE-	2e\	DE-	2g\	De-	2ee\	De-	2cc\	2ee\
.	.	.	.	4f/	4dd\	.	2C/	-US	4c\	.	4f\	.	4dd\	.	2r	2r
.	.	.	.	4e/	4cc\	.	.	.	4c\	-US	4e\	-us	4cc\	-us	.	.
!	!	!	!	!	!	!	!	!	!LO:LB:g=original	!	!	!	!LO:LB:g=original	!	!	!
=20	=20	=20	=20	=20	=20	=20	=20	=20	=20	=20	=20	=20	=20	=20	=20	=20
!	!	!	!	!	!	!	!	!	!	!	!	!	!	!	!LO:TX:a:t=2	!LO:TX:a:t=2
!	!	!	!	!	!	!	!	!	!	!	!	!	!	!	!LO:N:vis=0	!LO:N:vis=0
1CC_>	.	1ryy	.	8f/L	(>8dd\L	.	4C/	Rex	4G/	Rex	8f\L	Rex	8dd\L	Rex	0r	0r
.	.	.	.	8g/	8ee\)	.	.	.	.	.	8g\J	.	8ee\J	.	.	.
.	.	.	.	8e/	8cc'>\	.	4C/	Ce-	4G/	Ce-	4e\	Ce-	4cc\	Ce-	.	.
.	.	.	.	8e/J	8cc'>\J	.	.	.	.	.	.	.	.	.	.	.
.	.	.	.	8f/L	(>8dd\L	.	4C/	-les-	4G/	-les-	8f\L	-les-	8dd\L	-les-	.	.
.	.	.	.	8g/	8ee\)	.	.	.	.	.	8g\J	.	8ee\J	.	.	.
.	.	.	.	8e/	8cc'>\	.	4C/	-tis	4G/	-tis	4e\	-tis	4cc\	-tis	.	.
.	.	.	.	8e/J	8cc'>\J	.	.	.	.	.	.	.	.	.	.	.
=21	=21	=21	=21	=21	=21	=21	=21	=21	=21	=21	=21	=21	=21	=21	=21	=21
1CC_>	.	1ryy	.	8f/L	(>8dd\L	.	4C/	De-	4G/	De-	8f\L	De-	8cc\L	DE-	.	.
.	.	.	.	8g/	8ee\)	.	.	.	.	.	8g\J	.	8ee\J	.	.	.
.	.	.	.	8e/	8cc'>\	.	4C/	-us	4G/	-us	4e\	-us	4cc\	-US	.	.
.	.	.	.	8e/J	8cc'>\J	.	.	.	.	.	.	.	.	.	.	.
.	.	.	.	8f/L	(>8dd\L	.	4C/	Pa-	4G/	Pa-	8f\L	Pa-	8dd\L	Pa-	.	.
.	.	.	.	8g/	8ee\)	.	.	.	.	.	8g\J	.	8ee\	.	.	.
.	.	.	.	8e/	8cc'>\	.	8C/L	-ter	8G/	-ter	8e\	-ter	8cc\	-ter	.	.
.	.	.	.	8e/J	8cc'>\J	.	8C/J	om-	8G/	.	8e\	o-	8cc\J	o-	.	.
=22	=22	=22	=22	=22	=22	=22	=22	=22	=22	=22	=22	=22	=22	=22	=22	=22
1CC_>	.	1ryy	.	8f/L	(>8dd\L	.	8C/L	-ni-	8G/	om-	8f\L	-mni	8dd\	-mni	2r	2r
.	.	.	.	8g/	8ee\)	.	8C/J	-po-	8G/	.	8g\J	.	8ee\	.	.	.
.	.	.	.	8e/	8cc'>\	.	4C/	-tens	4G/	-ni	4e\	po-	4cc\	po-	.	.
.	.	.	.	8e/J	8cc'>\J	.	.	.	.	.	.	.	.	.	.	.
!	!	!	!	!	!LO:LB:g=original	!	!	!	!	!	!	!	!	!	!	!
.	.	.	.	8ee\L	(>8gg\L	.	4c\	Do-	4c\	po-	4g\	.	4ee\	-tens	8ee\L	8gg\L
.	.	.	.	8cc\	8ee\)	.	.	.	.	.	.	.	.	.	8cc\	8ee\
.	.	.	.	8ee\	(>8gg\	.	8c\L	-mi-	8c\	-tens	8g\	-tens	8ee\	-Do-	8ee\	8gg\
.	.	.	.	8cc\J	8ee\J)	.	8c\J	ne-	8c\	Do-	8g\	.	8ee\	-mi	8cc\J	8ee\J
=23	=23	=23	=23	=23	=23	=23	=23	=23	=23	=23	=23	=23	=23	=23	=23	=23
1CC_>	.	1ryy	.	8dd\L	(>8ff\L	.	4c\	Fi-	8d\L	-mi-	4g\	Do-	8ff\L	Fi-	8dd\L	8ff\L
.	.	.	.	8ee\	8gg\)	.	.	.	8e\J	-ne	.	.	8gg\J	.	8ee\J	8gg\J
.	.	.	.	8cc\	8ee'>\	.	4c\	-li	4c\	Fi-	4g\	-mi-	4ee\	-li	4cc\	4ee\
.	.	.	.	8cc\J	8ee'>\J	.	.	.	.	.	.	.	.	.	.	.
.	.	.	.	8dd\L	(>8ff\L	.	4c\	U-	8d\L	-li-	4g\	-ne	8ff\L	u-	8dd\L	8ff\L
.	.	.	.	8ee\	8gg\)	.	.	.	8e\J	.	.	.	8gg\J	.	8ee\J	8gg\J
.	.	.	.	8cc\	8ee'>\	.	4c\	-ni-	4c\	-um	4g\	Fi-	4ee\	-ni	4cc\	4ee\
.	.	.	.	8cc\J	8ee'>\J	.	.	.	.	.	.	.	.	.	.	.
=24	=24	=24	=24	=24	=24	=24	=24	=24	=24	=24	=24	=24	=24	=24	=24	=24
2CC/]	.	1ryy	.	8dd\L	(>8ff\L	.	8c\L	-ge-	8d\	ge-	8g\	-li-	8ff\	ge-	8dd\L	8ff\L
*X8ba	*	*	*	*	*	*	*	*	*	*	*	*	*	*	*	*
.	.	.	.	8ee\	8gg\)	.	8c\J	-ni-	8e\	-ni-	8g\	-um	8gg\	-ni-	8ee\J	8gg\J
!	!	!	!	!	!	!	!	!	!LO:SIC:s=4c\	!	!	!	!	!	!	!
.	.	.	.	8cc\	8ee'>\	.	4c\	-te	4d\	.	4g\	ge-	4ee\	te	4cc\	4ee\
.	.	.	.	8cc\J	8ee'>\J	.	.	.	.	.	.	.	.	.	.	.
!	!	!	!	!	!	!LO:DY:b	!	!	!	!	!	!	!	!	!	!
!	!	!	!	!	!	!LO:HP:b:i:t=for.	!	!	!	!	!	!	!	!	!	!
*	*	*	*	*tremolo	*	*	*	*	*	*	*	*	*	*	*	*
8c\L	X 3	.	.	16ee\LL	16ccc\LL	f	8c\L	Je-	2c\	-te	2g\	-ni-	2ee\	Je-	2r	2r
.	.	.	.	16ee\	16ccc\	.	.	.	.	.	.	.	.	.	.	.
8B\	.	.	.	16ee\	16ccc\	.	8B\	.	.	.	.	.	.	.	.	.
.	.	.	.	16ee\JJ	16ccc\JJ	.	.	.	.	.	.	.	.	.	.	.
8A\	.	.	.	16ee\LL	16ccc\LL	.	8A\	-su	.	.	.	.	.	.	.	.
.	.	.	.	16ee\	16ccc\	.	.	.	.	.	.	.	.	.	.	.
8G\J	.	.	.	16ee\	16ccc\	.	8G\J	.	.	.	.	.	.	.	.	.
.	.	.	.	16ee\JJ	16ccc\JJ	.	.	.	.	.	.	.	.	.	.	.
=25	=25	=25	=25	=25	=25	=25	=25	=25	=25	=25	=25	=25	=25	=25	=25	=25
*	*	*	*	*	*tremolo	*	*	*	*	*	*	*	*	*	*	*
!	!	!	!	!	!	!	!	!	!	!	!	!	!	!	!LO:TX:a:t=3	!LO:TX:a:t=3
!	!	!	!	!	!	!	!	!	!	!	!	!	!	!	!LO:N:vis=0	!LO:N:vis=0
8F#\L	7 3	1ryy	.	16ee\LL	16ccc\LL	.	8F#X\L	Chri-	2c\	Je-	2a\	-te	2ee\	-su	0r	0r
.	.	.	.	16ee\	16ccc\	.	.	.	.	.	.	.	.	.	.	.
8G\	.	.	.	16ee\	16ccc\	.	8G\	.	.	.	.	.	.	.	.	.
.	.	.	.	16ee\JJ	16ccc\JJ	.	.	.	.	.	.	.	.	.	.	.
8A\	.	.	.	16ee\LL	16ccc\LL	.	8A\	.	.	.	.	.	.	.	.	.
.	.	.	.	16ee\	16ccc\	.	.	.	.	.	.	.	.	.	.	.
8F#\J	.	.	.	16ee\	16ccc\	.	8F#\J	.	.	.	.	.	.	.	.	.
.	.	.	.	16ee\JJ	16ccc\JJ	.	.	.	.	.	.	.	.	.	.	.
!	!	!	!	!	!	!	!LO:LB:g=original	!	!	!	!	!	!	!	!	!
8B\L	X 3	.	.	16dd\LL	16bb\LL	.	8B\L	-ste	2d\	-su	4a\	Je-	2dd\	.	.	.
.	.	.	.	16dd\	16bb\	.	.	.	.	.	.	.	.	.	.	.
8A\	.	.	.	16dd\	16bb\	.	8A\	.	.	.	.	.	.	.	.	.
.	.	.	.	16dd\JJ	16bb\JJ	.	.	.	.	.	.	.	.	.	.	.
8G\	.	.	.	16dd\LL	16bb\LL	.	8G\	.	.	.	4b\	-su	.	.	.	.
.	.	.	.	16dd\	16bb\	.	.	.	.	.	.	.	.	.	.	.
8F#\J	.	.	.	16dd\	16bb\	.	8F#\J	.	.	.	.	.	.	.	.	.
.	.	.	.	16dd\JJ	16bb\JJ	.	.	.	.	.	.	.	.	.	.	.
!	!	!	!	!	!	!	!	!	!	!	!	!	!LO:LB:g=original	!	!	!
=26	=26	=26	=26	=26	=26	=26	=26	=26	=26	=26	=26	=26	=26	=26	=26	=26
8E\L	7 3	1ryy	.	16dd\LL	16bb\LL	.	8E\L	Je-	2d\	Je-	2g\	Chris-	2dd\	Chris-	.	.
.	.	.	.	16dd\	16bb\	.	.	.	.	.	.	.	.	.	.	.
!LO:SIC:s=8F#\	!	!	!	!	!	!	!	!	!	!	!	!	!	!	!	!
8F\	.	.	.	16dd\	16bb\	.	8F#X\	.	.	.	.	.	.	.	.	.
.	.	.	.	16dd\JJ	16bb\JJ	.	.	.	.	.	.	.	.	.	.	.
8G\	.	.	.	16dd\LL	16bb\LL	.	8G\	-su	.	.	.	.	.	.	.	.
.	.	.	.	16dd\	16bb\	.	.	.	.	.	.	.	.	.	.	.
8E\J	.	.	.	16dd\	16bb\	.	8E\J	.	.	.	.	.	.	.	.	.
.	.	.	.	16dd\JJ	16bb\JJ	.	.	.	.	.	.	.	.	.	.	.
*	*	*	*	*	*	*	*	*ij	*	*	*	*	*	*	*	*
!	!	!	!	!LO:LB:g=original	!	!	!	!	!	!	!	!	!	!	!	!
8A\L	X 3	.	.	16cc\LL	16aa\LL	.	8A\L	Je-	2c\	-su	4g\	.	2cc\	-te	.	.
.	.	.	.	16cc\	16aa\	.	.	.	.	.	.	.	.	.	.	.
8G\	.	.	.	16cc\	16aa\	.	8G\	.	.	.	.	.	.	.	.	.
.	.	.	.	16cc\JJ	16aa\JJ	.	.	.	.	.	.	.	.	.	.	.
!LO:SIC:s=8F#\	!	!	!	!	!	!	!	!	!	!	!	!	!	!	!	!
8F\	.	.	.	16cc\LL	16aa\LL	.	8F#\	-su	.	.	4a\	-te	.	.	.	.
.	.	.	.	16cc\	16aa\	.	.	.	.	.	.	.	.	.	.	.
*	*	*	*	*	*	*	*	*Xij	*	*	*	*	*	*	*	*
8E\J	.	.	.	16cc\	16aa\	.	8E\J	.	.	.	.	.	.	.	.	.
.	.	.	.	16cc\JJ	16aa\JJ	.	.	.	.	.	.	.	.	.	.	.
!	!	!	!	!	!	!	!	!	!LO:LB:g=original	!	!	!	!	!	!	!
=27	=27	=27	=27	=27	=27	=27	=27	=27	=27	=27	=27	=27	=27	=27	=27	=27
8D\L	7 3	1ryy	.	16cc\LL	16aa\LL	.	8D\L	Je-	2c\	Je-	4f#X\	Je-	2cc\	Je-	1r	1r
.	.	.	.	16cc\	16aa\	.	.	.	.	.	.	.	.	.	.	.
8E\	.	.	.	16cc\	16aa\	.	8E\	.	.	.	.	.	.	.	.	.
.	.	.	.	16cc\JJ	16aa\JJ	.	.	.	.	.	.	.	.	.	.	.
8F#X\	.	.	.	16cc\LL	16aa\LL	.	8F#X\	.	.	.	4a\	.	.	.	.	.
.	.	.	.	16cc\	16aa\	.	.	.	.	.	.	.	.	.	.	.
8D\J	.	.	.	16cc\	16aa\	.	8D\J	.	.	.	.	.	.	.	.	.
.	.	.	.	16cc\JJ	16aa\JJ	.	.	.	.	.	.	.	.	.	.	.
8G\L	.	.	.	16b\LL	16gg\LL	.	8G\L	-so	4d\	.	2g\	-su	2b\	-su	.	.
.	.	.	.	16b\	16gg\	.	.	.	.	.	.	.	.	.	.	.
8F#\	.	.	.	16b\	16gg\	.	8F#\	.	.	.	.	.	.	.	.	.
.	.	.	.	16b\JJ	16gg\JJ	.	.	.	.	.	.	.	.	.	.	.
8G\	.	.	.	16b\LL	16gg\LL	.	8G\	.	8d\L	-su	.	.	.	.	.	.
.	.	.	.	16b\	16gg\	.	.	.	.	.	.	.	.	.	.	.
8C#X\J	.	.	.	16b\	16gg\	.	8C#X\J	.	8e\J	.	.	.	.	.	.	.
.	.	.	.	16b\JJ	16gg\JJ	.	.	.	.	.	.	.	.	.	.	.
*	*	*	*	*Xtremolo	*Xtremolo	*	*	*	*	*	*	*	*	*	*	*
!LO:LB:g=original	!	!	!	!	!	!	!	!	!	!	!LO:LB:g=original	!	!	!	!	!
=28	=28	=28	=28	=28	=28	=28	=28	=28	=28	=28	=28	=28	=28	=28	=28	=28
4D\	X 4	1ryy	.	4b\	4gg\	.	4D\	Chris-	4d\	Chris-	4g\	Chris-	4b\	Chris-	4dd\	4dd\
4D\	X #	.	.	4a\	4ff#X\	.	4D\	-te	4d\	-te	4f#X\	-te	4a\	-te	4dd\	4dd\
8d\L	.	.	.	2r	2r	.	2r	.	2r	.	2r	.	2r	.	2r	2r
8c\	.	.	.	.	.	.	.	.	.	.	.	.	.	.	.	.
8B\	.	.	.	.	.	.	.	.	.	.	.	.	.	.	.	.
8A\J	.	.	.	.	.	.	.	.	.	.	.	.	.	.	.	.
=29	=29	=29	=29	=29	=29	=29	=29	=29	=29	=29	=29	=29	=29	=29	=29	=29
*Xtuplet	*	*	*	*	*	*	*	*	*	*	*	*	*	*	*	*
!	!	!LO:TX:b:i:t=Solo.	!	!LO:TX:a:t=1	!LO:TX:a:t=1	!	!LO:TX:a:t=8	!	!LO:TX:a:t=8	!	!LO:TX:a:t=8.	!	!LO:TX:a:t=8	!	!LO:TX:a:t=8	!LO:TX:a:t=8
!	!	!LO:TX:a:t=P:problem:wszystkie caudy z prawej strony	!	!	!	!	!LO:N:vis=00	!	!LO:N:vis=00	!	!LO:N:vis=00	!	!LO:N:vis=00	!	!LO:N:vis=00	!LO:N:vis=00
12G\L	.	4g\	.	1r	1r	.	00r	.	00r	.	00r	.	00r	.	00r	00r
12B\	.	.	.	.	.	.	.	.	.	.	.	.	.	.	.	.
12d\J	.	.	.	.	.	.	.	.	.	.	.	.	.	.	.	.
*	*	*2\right	*	*	*	*	*	*	*	*	*	*	*	*	*	*
12G\L	.	2g\	.	.	.	.	.	.	.	.	.	.	.	.	.	.
12B\	.	.	.	.	.	.	.	.	.	.	.	.	.	.	.	.
12d\J	.	.	.	.	.	.	.	.	.	.	.	.	.	.	.	.
12G\L	.	.	.	.	.	.	.	.	.	.	.	.	.	.	.	.
12B\	.	.	.	.	.	.	.	.	.	.	.	.	.	.	.	.
12d\J	.	.	.	.	.	.	.	.	.	.	.	.	.	.	.	.
12G\L	.	4a\	.	.	.	.	.	.	.	.	.	.	.	.	.	.
12B\	.	.	.	.	.	.	.	.	.	.	.	.	.	.	.	.
12d\J	.	.	.	.	.	.	.	.	.	.	.	.	.	.	.	.
=30	=30	=30	=30	=30	=30	=30	=30	=30	=30	=30	=30	=30	=30	=30	=30	=30
12G\L	.	8b\L	.	4r	4r	.	.	.	.	.	.	.	.	.	.	.
12B\	.	.	.	.	.	.	.	.	.	.	.	.	.	.	.	.
.	.	8g\J	.	.	.	.	.	.	.	.	.	.	.	.	.	.
12d\J	.	.	.	.	.	.	.	.	.	.	.	.	.	.	.	.
12F#X\L	.	8cc\L	.	4a/	4cc\	.	.	.	.	.	.	.	.	.	.	.
12A\	.	.	.	.	.	.	.	.	.	.	.	.	.	.	.	.
.	.	8a\J	.	.	.	.	.	.	.	.	.	.	.	.	.	.
12d\J	.	.	.	.	.	.	.	.	.	.	.	.	.	.	.	.
12G\L	.	8b\L	.	4d/	4b\	.	.	.	.	.	.	.	.	.	.	.
12B\	.	.	.	.	.	.	.	.	.	.	.	.	.	.	.	.
.	.	8g\J	.	.	.	.	.	.	.	.	.	.	.	.	.	.
12d\J	.	.	.	.	.	.	.	.	.	.	.	.	.	.	.	.
12D\L	.	8a\L	.	4c/	4a\	.	.	.	.	.	.	.	.	.	.	.
12A\	.	.	.	.	.	.	.	.	.	.	.	.	.	.	.	.
.	.	8f#X\J	.	.	.	.	.	.	.	.	.	.	.	.	.	.
12d\J	.	.	.	.	.	.	.	.	.	.	.	.	.	.	.	.
!	!	!	!	!	!LO:LB:g=original	!	!	!	!	!	!	!	!	!	!	!
=31	=31	=31	=31	=31	=31	=31	=31	=31	=31	=31	=31	=31	=31	=31	=31	=31
12G\L	.	4g\	.	4B/	4g/	.	.	.	.	.	.	.	.	.	.	.
12B\	.	.	.	.	.	.	.	.	.	.	.	.	.	.	.	.
12d\J	.	.	.	.	.	.	.	.	.	.	.	.	.	.	.	.
12G\L	.	2g\	.	4r	4r	.	.	.	.	.	.	.	.	.	.	.
12B\	.	.	.	.	.	.	.	.	.	.	.	.	.	.	.	.
12d\J	.	.	.	.	.	.	.	.	.	.	.	.	.	.	.	.
12G\L	.	.	.	2r	2r	.	.	.	.	.	.	.	.	.	.	.
12B\	.	.	.	.	.	.	.	.	.	.	.	.	.	.	.	.
12d\J	.	.	.	.	.	.	.	.	.	.	.	.	.	.	.	.
12G\L	.	4a\	.	.	.	.	.	.	.	.	.	.	.	.	.	.
12B\	.	.	.	.	.	.	.	.	.	.	.	.	.	.	.	.
12d\J	.	.	.	.	.	.	.	.	.	.	.	.	.	.	.	.
=32	=32	=32	=32	=32	=32	=32	=32	=32	=32	=32	=32	=32	=32	=32	=32	=32
!	!	!	!	!LO:TX:a:t=1	!LO:TX:a:t=1	!	!	!	!	!	!	!	!	!	!	!
12G\L	.	8b\L	.	1r	1r	.	.	.	.	.	.	.	.	.	.	.
12B\	.	.	.	.	.	.	.	.	.	.	.	.	.	.	.	.
.	.	8g\J	.	.	.	.	.	.	.	.	.	.	.	.	.	.
12d\J	.	.	.	.	.	.	.	.	.	.	.	.	.	.	.	.
12F#\L	.	8cc\L	.	.	.	.	.	.	.	.	.	.	.	.	.	.
12A\	.	.	.	.	.	.	.	.	.	.	.	.	.	.	.	.
.	.	8a\J	.	.	.	.	.	.	.	.	.	.	.	.	.	.
12d\J	.	.	.	.	.	.	.	.	.	.	.	.	.	.	.	.
12G\L	.	8dd\L	.	.	.	.	.	.	.	.	.	.	.	.	.	.
12B\	.	.	.	.	.	.	.	.	.	.	.	.	.	.	.	.
.	.	8b\J	.	.	.	.	.	.	.	.	.	.	.	.	.	.
12d\J	.	.	.	.	.	.	.	.	.	.	.	.	.	.	.	.
12F#X\L	.	8ee\L	.	.	.	.	.	.	.	.	.	.	.	.	.	.
12A\	.	.	.	.	.	.	.	.	.	.	.	.	.	.	.	.
.	.	8cc\J	.	.	.	.	.	.	.	.	.	.	.	.	.	.
12d\J	.	.	.	.	.	.	.	.	.	.	.	.	.	.	.	.
!LO:LB:g=original	!	!LO:LB:g=original	!	!LO:PB:g=original	!	!	!	!	!	!	!	!	!	!	!	!
=33	=33	=33	=33	=33	=||	=33	=33	=33	=33	=33	=33	=33	=33	=33	=33	=33
!	!	!	!	!	!	!	!LO:N:vis=00	!	!LO:N:vis=00	!	!LO:N:vis=00	!	!LO:N:vis=00	!	!LO:N:vis=00	!LO:N:vis=00
12G\L	.	8dd\L	.	4r	4r	.	00r	.	00r	.	00r	.	00r	.	00r	00r
12B\	.	.	.	.	.	.	.	.	.	.	.	.	.	.	.	.
.	.	8b\J	.	.	.	.	.	.	.	.	.	.	.	.	.	.
12d\J	.	.	.	.	.	.	.	.	.	.	.	.	.	.	.	.
12F#X\L	.	8cc\L	.	4a/	4cc\	.	.	.	.	.	.	.	.	.	.	.
12A\	.	.	.	.	.	.	.	.	.	.	.	.	.	.	.	.
.	.	8a\J	.	.	.	.	.	.	.	.	.	.	.	.	.	.
12d\J	.	.	.	.	.	.	.	.	.	.	.	.	.	.	.	.
12G\L	.	8b\L	.	4d/	4b\	.	.	.	.	.	.	.	.	.	.	.
12B\	.	.	.	.	.	.	.	.	.	.	.	.	.	.	.	.
.	.	8g\J	.	.	.	.	.	.	.	.	.	.	.	.	.	.
12d\J	.	.	.	.	.	.	.	.	.	.	.	.	.	.	.	.
12D\L	.	8a\L	.	4c/	4a\	.	.	.	.	.	.	.	.	.	.	.
12A\	.	.	.	.	.	.	.	.	.	.	.	.	.	.	.	.
.	.	8f#X\J	.	.	.	.	.	.	.	.	.	.	.	.	.	.
12d\J	.	.	.	.	.	.	.	.	.	.	.	.	.	.	.	.
=34	=34	=34	=34	=34	=34	=34	=34	=34	=34	=34	=34	=34	=34	=34	=34	=34
12G\L	.	4g\	.	1B	1g	.	.	.	.	.	.	.	.	.	.	.
12B\	.	.	.	.	.	.	.	.	.	.	.	.	.	.	.	.
12d\J	.	.	.	.	.	.	.	.	.	.	.	.	.	.	.	.
12G\L	.	2g\	.	.	.	.	.	.	.	.	.	.	.	.	.	.
12B\	.	.	.	.	.	.	.	.	.	.	.	.	.	.	.	.
12d\J	.	.	.	.	.	.	.	.	.	.	.	.	.	.	.	.
12G\L	.	.	.	.	.	.	.	.	.	.	.	.	.	.	.	.
12B\	.	.	.	.	.	.	.	.	.	.	.	.	.	.	.	.
12d\J	.	.	.	.	.	.	.	.	.	.	.	.	.	.	.	.
12G\L	.	8a\L	.	.	.	.	.	.	.	.	.	.	.	.	.	.
12B\	.	.	.	.	.	.	.	.	.	.	.	.	.	.	.	.
.	.	8b\J	.	.	.	.	.	.	.	.	.	.	.	.	.	.
12d\J	.	.	.	.	.	.	.	.	.	.	.	.	.	.	.	.
=35	=35	=35	=35	=35	=35	=35	=35	=35	=35	=35	=35	=35	=35	=35	=35	=35
12G\L	.	4g\	.	2.B/	2.g/	.	.	.	.	.	.	.	.	.	.	.
12B\	.	.	.	.	.	.	.	.	.	.	.	.	.	.	.	.
12d\J	.	.	.	.	.	.	.	.	.	.	.	.	.	.	.	.
12G\L	.	8b\L	.	.	.	.	.	.	.	.	.	.	.	.	.	.
12B\	.	.	.	.	.	.	.	.	.	.	.	.	.	.	.	.
.	.	8dd\J	.	.	.	.	.	.	.	.	.	.	.	.	.	.
12d\J	.	.	.	.	.	.	.	.	.	.	.	.	.	.	.	.
12G\L	.	4g\	.	.	.	.	.	.	.	.	.	.	.	.	.	.
12B\	.	.	.	.	.	.	.	.	.	.	.	.	.	.	.	.
12d\J	.	.	.	.	.	.	.	.	.	.	.	.	.	.	.	.
12D\L	.	8a\L	.	4c/	4a/	.	.	.	.	.	.	.	.	.	.	.
12A\	.	.	.	.	.	.	.	.	.	.	.	.	.	.	.	.
.	.	8f#X\J	.	.	.	.	.	.	.	.	.	.	.	.	.	.
12d\J	.	.	.	.	.	.	.	.	.	.	.	.	.	.	.	.
=36	=36	=36	=36	=36	=36	=36	=36	=36	=36	=36	=36	=36	=36	=36	=36	=36
12G\L	.	4g\	.	4B/	4g/	.	.	.	.	.	.	.	.	.	.	.
12B\	.	.	.	.	.	.	.	.	.	.	.	.	.	.	.	.
12d\J	.	.	.	.	.	.	.	.	.	.	.	.	.	.	.	.
12G\L	.	8b\L	.	4r	4r	.	.	.	.	.	.	.	.	.	.	.
12B\	.	.	.	.	.	.	.	.	.	.	.	.	.	.	.	.
.	.	8dd\J	.	.	.	.	.	.	.	.	.	.	.	.	.	.
12d\J	.	.	.	.	.	.	.	.	.	.	.	.	.	.	.	.
!	!	!	!	!	!	!LO:DY:b	!	!	!	!	!	!	!	!	!	!
!	!	!	!	!	!	!LO:HP:a:i:t=for	!	!	!	!	!	!	!	!	!	!
4G\	.	4gg\	.	8b\L	8gg\L	f	.	.	.	.	.	.	.	.	.	.
.	.	.	.	8dd\	8bb\	.	.	.	.	.	.	.	.	.	.	.
4r	.	4r	.	8b\	8gg\	.	.	.	.	.	.	.	.	.	.	.
.	.	.	.	8dd\J	8bb\J	.	.	.	.	.	.	.	.	.	.	.
!	!	!	!	!	!	!	!	!	!	!	!	!	!	!	!LO:LB:g=original	!LO:LB:g=original
=37	=37	=37	=37	=37	=37	=37	=37	=37	=37	=37	=37	=37	=37	=37	=37	=37
*tremolo	*	*	*	*tremolo	*	*	*	*	*	*	*	*	*	*	*	*
!LO:TX:a:i:t=Tutti.	!	!	!	!	!	!	!	!	!	!	!	!	!	!	!	!
8C/L	#4r 2	1ryy	.	16a/LL	16ff#X\LL	.	4c\	Do-	4d\	Do-	4a\	Do-	4ff#X\	Do-	4dd\	4dd\
.	.	.	.	16a/	16ee\	.	.	.	.	.	.	.	.	.	.	.
8C/	.	.	.	16a/	16ff#\	.	.	.	.	.	.	.	.	.	.	.
.	.	.	.	16a/JJ	16gg\JJ	.	.	.	.	.	.	.	.	.	.	.
8C/	.	.	.	16a/LL	8aa\L	.	8c\	-mi-	8d\	-mi-	8a\	-mi-	8ff#\	-mi-	4r	4r
.	.	.	.	16a/	.	.	.	.	.	.	.	.	.	.	.	.
8C/J	.	.	.	16a/	8ff#\	.	8c\	-ne	8d\	-ne	8a\	-ne	8ff#\	-ne	.	.
.	.	.	.	16a/JJ	.	.	.	.	.	.	.	.	.	.	.	.
8BB/L	X 6	.	.	16dd\LL	8gg\	.	4B\	DE-	4d\	De-	4g\	De-	8gg\L	DE-	4g/	4dd\
.	.	.	.	16dd\	.	.	.	.	.	.	.	.	.	.	.	.
8BB/	.	.	.	16dd\	8bb\J	.	.	.	.	.	.	.	8dd\J	.	.	.
.	.	.	.	16dd\JJ	.	.	.	.	.	.	.	.	.	.	.	.
8BB/	.	.	.	16dd\LL	4dd\	.	4B\	-US	4d\	-us	4g\	-us	4dd\	-US	4g/	4dd\
.	.	.	.	16dd\	.	.	.	.	.	.	.	.	.	.	.	.
8BB/J	.	.	.	16dd\	.	.	.	.	.	.	.	.	.	.	.	.
.	.	.	.	16dd\JJ	.	.	.	.	.	.	.	.	.	.	.	.
=38	=38	=38	=38	=38	=38	=38	=38	=38	=38	=38	=38	=38	=38	=38	=38	=38
8C/L	#4r 2	1ryy	.	16a/LL	16ff#X\LL	.	4c\	a-	4d\	A-	4a\	A-	4ff#X\	A-	4dd\	4dd\
.	.	.	.	16a/	16ee\	.	.	.	.	.	.	.	.	.	.	.
8C/	.	.	.	16a/	16ff#\	.	.	.	.	.	.	.	.	.	.	.
.	.	.	.	16a/JJ	16gg\JJ	.	.	.	.	.	.	.	.	.	.	.
8C/	.	.	.	16a/LL	8aa\L	.	4c\	-gnus	4d\	-gnus	4a\	-gnus	4ff#\	-gnus	4r	4r
.	.	.	.	16a/	.	.	.	.	.	.	.	.	.	.	.	.
8C/J	.	.	.	16a/	8ff#\	.	.	.	.	.	.	.	.	.	.	.
.	.	.	.	16a/JJ	.	.	.	.	.	.	.	.	.	.	.	.
8BB/L	X 6	.	.	16dd\LL	8gg\	.	4B\	De-	4d\	De-	4g\	De-	8gg\L	De-	4g/	4dd\
.	.	.	.	16dd\	.	.	.	.	.	.	.	.	.	.	.	.
8BB/	.	.	.	16dd\	8bb\J	.	.	.	.	.	.	.	8dd\J	.	.	.
.	.	.	.	16dd\JJ	.	.	.	.	.	.	.	.	.	.	.	.
8BB/	.	.	.	16dd\LL	4dd\	.	4B\	-i	4d\	-i	4g\	-i	4dd\	-i	4g/	4dd\
.	.	.	.	16dd\	.	.	.	.	.	.	.	.	.	.	.	.
8BB/J	.	.	.	16dd\	.	.	.	.	.	.	.	.	.	.	.	.
.	.	.	.	16dd\JJ	.	.	.	.	.	.	.	.	.	.	.	.
*	*	*	*	*Xtremolo	*	*	*	*	*	*	*	*	*	*	*	*
!LO:LB:g=original	!	!LO:LB:g=original	!	!	!	!	!	!	!	!	!	!	!	!	!	!
=39	=39	=39	=39	=39	=39	=39	=39	=39	=39	=39	=39	=39	=39	=39	=39	=39
!	!	!	!	!	!LO:TX:a:t=P:problem: mixed beam	!	!	!	!	!	!	!	!	!	!	!
8C/L	.	1ryy	.	4g/	(>8ee\L	.	4c\	Fi-	4e\	Fi-	4g\	Fi-	4ee\	Fi-	4cc\	4ee\
8C/	.	.	.	.	8gg\)	.	.	.	.	.	.	.	.	.	.	.
8C/	.	.	.	8e/L	(<8a/	.	8c\L	-li-	8c\	-li-	8e\	-li-	8a\	-li-	4r	4r
8C/J	.	.	.	8g/	8cc/J)	.	8c\J	-us	8c\	-us	8e\	-us	8a\	-us	.	.
!	!	!	!	!	!LO:TX:a:t=P:problem: mixed beam	!	!	!	!	!	!	!	!	!	!	!
8D/L	X #4r	.	.	8g/	(>8b\L	.	4d\	Pa-	4d\	Pa-	4g\	Pa-	4b\	Pa-	4dd\	4dd\
8D/	.	.	.	8b/J	8dd\)	.	.	.	.	.	.	.	.	.	.	.
8D/	.	.	.	8c/L	(<8f#X/	.	4D/	-tris	4c\	-tris	4d\	-tris	4f#X/	-tris	4dd\	4dd\
8D/J	.	.	.	8f#X/J	8a/J)	.	.	.	.	.	.	.	.	.	.	.
*Xtremolo	*	*	*	*	*	*	*	*	*	*	*	*	*	*	*	*
!	!	!	!	!	!	!	!LO:LB:g=original	!	!	!	!	!	!	!	!	!
=40	=40	=40	=40	=40	=40	=40	=40	=40	=40	=40	=40	=40	=40	=40	=40	=40
!	!	!	!	!	!	!LO:DY:b:rj	!	!	!	!	!	!	!	!	!	!
!	!	!	!	!	!	!LO:HP:b:t=p.	!	!	!	!	!	!	!	!	!	!
1GG 1D [>1G	.	1ryy	.	4B/ 4d	4g/	p	1G	Fi-	4.B\	Do-	2d\	Fi-	4.g\	A-	4g/	4dd\
.	.	.	.	4B/ 4d	4B/ 4d	.	.	.	.	.	.	.	.	.	4r	4r
.	.	.	.	.	.	.	.	.	8d\	-mi-	.	.	8b\	-gnus	.	.
.	.	.	.	4B/ 4d	4B/ 4d	.	.	.	4B\	-ne	2b\	.	4.g\	De-	2r	2r
.	.	.	.	4B/ 4d	4B/ 4d	.	.	.	4d\	.	.	.	.	.	.	.
.	.	.	.	.	.	.	.	.	.	.	.	.	8b\	-i	.	.
!	!	!	!	!	!LO:LB:g=original	!	!	!	!	!	!	!	!LO:LB:g=original	!	!	!
=41	=41	=41	=41	=41	=41	=41	=41	=41	=41	=41	=41	=41	=41	=41	=41	=41
!	!	!	!	!	!	!	!	!	!	!	!	!	!	!	!LO:TX:a:t=18	!LO:TX:a:t=18
!	!	!	!	!	!	!	!	!	!	!	!	!	!	!	!LO:N:vis=00	!LO:N:vis=00
1GG 1D 1G_>	.	1ryy	.	4B/ 4d	4B/ 4d	.	1G	-li-	4B\	DE-	1d	-li-	4g\	Fi-	00r	00r
.	.	.	.	4B/ 4d	4B/ 4d	.	.	.	4d\	.	.	.	4b\	-li-	.	.
.	.	.	.	4B/ 4d	4B/ 4d	.	.	.	2d\	-US	.	.	2dd\	-us	.	.
.	.	.	.	4B/ 4d	4B/ 4d	.	.	.	.	.	.	.	.	.	.	.
!	!	!	!	!	!	!	!	!	!LO:LB:g=original	!	!	!	!	!	!	!
=42	=42	=42	=42	=42	=42	=42	=42	=42	=42	=42	=42	=42	=42	=42	=42	=42
1GG 1D 1G_>	.	1ryy	.	4B/ 4d	4B/ 4d	.	1G	-us	4.B\	A-	2d\	-us	4.g\	Fi-	.	.
.	.	.	.	4B/ 4d	4B/ 4d	.	.	.	.	.	.	.	.	.	.	.
.	.	.	.	.	.	.	.	.	8d\	-gnus	.	.	8b\	-lius	.	.
.	.	.	.	4B/ 4d	4B/ 4d	.	.	.	4B\	De-	2b\	.	4.g\	Pa-	.	.
.	.	.	.	4B/ 4d	4B/ 4d	.	.	.	4d\	-i	.	.	.	.	.	.
.	.	.	.	.	.	.	.	.	.	.	.	.	8b\	.	.	.
=43	=43	=43	=43	=43	=43	=43	=43	=43	=43	=43	=43	=43	=43	=43	=43	=43
[<1GG 1D 1G]	.	2r	.	4B/ 4d	4B/ 4d	.	2G\	Pa-	4B\	Fi-	2d\	Pa-	4g\	.	.	.
.	.	.	.	4B/ 4d	4B/ 4d	.	.	.	8d\L	-li-	.	.	8a/L	.	.	.
.	.	.	.	.	.	.	.	.	8A\J	-us	.	.	8f#X/J	.	.	.
.	.	4r	.	4B/ 4d	4B/ 4d	.	4G\	-tris	4B\	patris	4d\	-tris	4g\	-tris	.	.
!	!	!LO:TX:b:i:t=Solo	!	!	!	!	!	!	!	!	!	!	!	!	!	!
.	.	4dd\	.	4B/ 4d	4B/ 4d	.	4r	.	4r	.	4r	.	4r	.	.	.
=44	=44	=44	=44	=44	=44	=44	=44	=44	=44	=44	=44	=44	=44	=44	=44	=44
!	!	!	!	!	!	!	!LO:TX:a:t=15	!	!LO:TX:a:t=15.	!	!LO:TX:a:t=15.	!	!LO:TX:a:t=15	!	!	!
!	!	!	!	!	!	!	!LO:N:vis=00	!	!LO:N:vis=00	!	!LO:N:vis=00	!	!LO:N:vis=00	!	!	!
1GG_<	.	4gg\	.	4B/ 4d	4B/ 4d	.	00r	.	00r	.	00r	.	00r	.	.	.
.	.	8ff#X\L	.	4B/ 4d	4B/ 4d	.	.	.	.	.	.	.	.	.	.	.
.	.	8ee\J	.	.	.	.	.	.	.	.	.	.	.	.	.	.
.	.	4dd\	.	4B/ 4d	4B/ 4d	.	.	.	.	.	.	.	.	.	.	.
.	.	8cc\L	.	4B/ 4d	4B/ 4d	.	.	.	.	.	.	.	.	.	.	.
.	.	8b\J	.	.	.	.	.	.	.	.	.	.	.	.	.	.
=45	=45	=45	=45	=45	=45	=45	=45	=45	=45	=45	=45	=45	=45	=45	=45	=45
!	!	!	!	!	!	!	!	!	!	!	!	!	!	!	!LO:N:vis=00	!LO:N:vis=00
1GG_<	.	8cc\L	.	4B/ 4d	4B/ 4d	.	.	.	.	.	.	.	.	.	00r	00r
.	.	8dd\	.	.	.	.	.	.	.	.	.	.	.	.	.	.
.	.	8ee\	.	4B/ 4d	4B/ 4d	.	.	.	.	.	.	.	.	.	.	.
.	.	8cc\J	.	.	.	.	.	.	.	.	.	.	.	.	.	.
.	.	2dd\	.	4B/ 4d	4B/ 4d	.	.	.	.	.	.	.	.	.	.	.
.	.	.	.	4B/ 4d	4B/ 4d	.	.	.	.	.	.	.	.	.	.	.
!	!	!	!	!LO:LB:g=original	!	!	!	!	!	!	!	!	!	!	!	!
=46	=46	=46	=46	=46	=46	=46	=46	=46	=46	=46	=46	=46	=46	=46	=46	=46
1GG_<	.	8cc\L	.	4B/ 4d	4B/ 4d	.	.	.	.	.	.	.	.	.	.	.
.	.	8ee\	.	.	.	.	.	.	.	.	.	.	.	.	.	.
.	.	8a\	.	4B/ 4d	4B/ 4d	.	.	.	.	.	.	.	.	.	.	.
.	.	8cc\J	.	.	.	.	.	.	.	.	.	.	.	.	.	.
.	.	8b\L	.	4B/ 4d	4B/ 4d	.	.	.	.	.	.	.	.	.	.	.
.	.	8dd\	.	.	.	.	.	.	.	.	.	.	.	.	.	.
.	.	8g\	.	4B/ 4d	4B/ 4d	.	.	.	.	.	.	.	.	.	.	.
.	.	8b\J	.	.	.	.	.	.	.	.	.	.	.	.	.	.
=47	=47	=47	=47	=47	=47	=47	=47	=47	=47	=47	=47	=47	=47	=47	=47	=47
1GG_<	.	8a\L	.	4B/ 4d	4B/ 4d	.	.	.	.	.	.	.	.	.	.	.
.	.	8cc\	.	.	.	.	.	.	.	.	.	.	.	.	.	.
.	.	8f#X\	.	4B/ 4d	4B/ 4d	.	.	.	.	.	.	.	.	.	.	.
.	.	8a\J	.	.	.	.	.	.	.	.	.	.	.	.	.	.
.	.	2g\	.	4B/ 4d	4B/ 4d	.	.	.	.	.	.	.	.	.	.	.
.	.	.	.	4B/ 4d	4B/ 4d	.	.	.	.	.	.	.	.	.	.	.
!LO:LB:g=original	!	!LO:LB:g=original	!	!	!	!	!	!	!	!	!	!	!	!	!	!
=48	=48	=48	=48	=48	=48	=48	=48	=48	=48	=48	=48	=48	=48	=48	=48	=48
!	!	!	!	!	!	!	!LO:N:vis=00	!	!LO:N:vis=00	!	!LO:N:vis=00	!	!LO:N:vis=00	!	!	!
1GG_<	.	8a\L	.	4B/ 4d	4B/ 4d	.	00r	.	00r	.	00r	.	00r	.	.	.
.	.	8b\	.	.	.	.	.	.	.	.	.	.	.	.	.	.
.	.	8cc\	.	4B/ 4d	4B/ 4d	.	.	.	.	.	.	.	.	.	.	.
.	.	8a\J	.	.	.	.	.	.	.	.	.	.	.	.	.	.
.	.	8b\L	.	4B/ 4d	4B/ 4d	.	.	.	.	.	.	.	.	.	.	.
.	.	8a\	.	.	.	.	.	.	.	.	.	.	.	.	.	.
.	.	8b\	.	4B/ 4d	4B/ 4d	.	.	.	.	.	.	.	.	.	.	.
.	.	8g\J	.	.	.	.	.	.	.	.	.	.	.	.	.	.
=49	=49	=49	=49	=49	=49	=49	=49	=49	=49	=49	=49	=49	=49	=49	=49	=49
!	!	!	!	!	!	!	!	!	!	!	!	!	!	!	!LO:N:vis=00	!LO:N:vis=00
1GG_<	.	8a\L	.	4B/ 4d	4B/ 4d	.	.	.	.	.	.	.	.	.	00r	00r
.	.	8b\	.	.	.	.	.	.	.	.	.	.	.	.	.	.
.	.	8cc\	.	4B/ 4d	4B/ 4d	.	.	.	.	.	.	.	.	.	.	.
.	.	8a\J	.	.	.	.	.	.	.	.	.	.	.	.	.	.
.	.	4.dd\	.	4B/ 4d	4B/ 4d	.	.	.	.	.	.	.	.	.	.	.
.	.	.	.	4B/ 4d	4B/ 4d	.	.	.	.	.	.	.	.	.	.	.
.	.	8b\	.	.	.	.	.	.	.	.	.	.	.	.	.	.
=50	=50	=50	=50	=50	=50	=50	=50	=50	=50	=50	=50	=50	=50	=50	=50	=50
1GG_<	.	8cc\L	.	4B/ 4d	4B/ 4d	.	.	.	.	.	.	.	.	.	.	.
.	.	8ee\	.	.	.	.	.	.	.	.	.	.	.	.	.	.
.	.	8a\	.	4B/ 4d	4B/ 4d	.	.	.	.	.	.	.	.	.	.	.
.	.	8cc\J	.	.	.	.	.	.	.	.	.	.	.	.	.	.
.	.	8b\L	.	4B/ 4d	4B/ 4d	.	.	.	.	.	.	.	.	.	.	.
.	.	8dd\	.	.	.	.	.	.	.	.	.	.	.	.	.	.
.	.	8g\	.	4B/ 4d	4B/ 4d	.	.	.	.	.	.	.	.	.	.	.
.	.	8b\J	.	.	.	.	.	.	.	.	.	.	.	.	.	.
=51	=51	=51	=51	=51	=||	=51	=51	=51	=51	=51	=51	=51	=51	=51	=51	=51
1GG_<	.	8a\L	.	4B/ 4d	4B/ 4d	.	.	.	.	.	.	.	.	.	.	.
.	.	8b\	.	.	.	.	.	.	.	.	.	.	.	.	.	.
.	.	8cc\	.	4B/ 4d	4B/ 4d	.	.	.	.	.	.	.	.	.	.	.
.	.	8a\J	.	.	.	.	.	.	.	.	.	.	.	.	.	.
.	.	4.dd\	.	4B/ 4d	4B/ 4d	.	.	.	.	.	.	.	.	.	.	.
.	.	.	.	4B/ 4d	4B/ 4d	.	.	.	.	.	.	.	.	.	.	.
.	.	8b\	.	.	.	.	.	.	.	.	.	.	.	.	.	.
=52	=52	=52	=52	=52	=52	=52	=52	=52	=52	=52	=52	=52	=52	=52	=52	=52
!	!	!	!	!	!	!	!LO:N:vis=00	!	!LO:N:vis=00	!	!LO:N:vis=00	!	!LO:N:vis=00	!	!	!
1GG_<	.	8ee\L	.	4B/ 4d	4B/ 4d	.	00r	.	00r	.	00r	.	00r	.	.	.
.	.	8ff#X\	.	.	.	.	.	.	.	.	.	.	.	.	.	.
.	.	8gg\	.	4B/ 4d	4B/ 4d	.	.	.	.	.	.	.	.	.	.	.
.	.	8ee\J	.	.	.	.	.	.	.	.	.	.	.	.	.	.
.	.	4.dd\	.	4B/ 4d	4B/ 4d	.	.	.	.	.	.	.	.	.	.	.
.	.	.	.	4B/ 4d	4B/ 4d	.	.	.	.	.	.	.	.	.	.	.
.	.	8b\	.	.	.	.	.	.	.	.	.	.	.	.	.	.
!	!	!	!	!	!LO:LB:g=original	!	!	!	!	!	!	!	!	!	!	!
=53	=53	=53	=53	=53	=53	=53	=53	=53	=53	=53	=53	=53	=53	=53	=53	=53
!	!	!	!	!	!	!	!	!	!	!	!	!	!	!	!LO:N:vis=00	!LO:N:vis=00
1GG_<	.	8cc\L	.	4B/ 4d	4B/ 4d	.	.	.	.	.	.	.	.	.	00r	00r
.	.	8ee\	.	.	.	.	.	.	.	.	.	.	.	.	.	.
.	.	8a\	.	4B/ 4d	4B/ 4d	.	.	.	.	.	.	.	.	.	.	.
.	.	8cc\J	.	.	.	.	.	.	.	.	.	.	.	.	.	.
.	.	8b\L	.	4B/ 4d	4B/ 4d	.	.	.	.	.	.	.	.	.	.	.
.	.	8dd\	.	.	.	.	.	.	.	.	.	.	.	.	.	.
.	.	8g\	.	4B/ 4d	4B/ 4d	.	.	.	.	.	.	.	.	.	.	.
.	.	8b\J	.	.	.	.	.	.	.	.	.	.	.	.	.	.
!LO:LB:g=original	!	!LO:LB:g=original	!	!	!	!	!	!	!	!	!	!	!	!	!	!
=54	=54	=54	=54	=54	=54	=54	=54	=54	=54	=54	=54	=54	=54	=54	=54	=54
1GG_<	.	8a\L	.	4B/ 4d	4B/ 4d	.	.	.	.	.	.	.	.	.	.	.
.	.	8cc\	.	.	.	.	.	.	.	.	.	.	.	.	.	.
.	.	8f#X\	.	4B/ 4d	4B/ 4d	.	.	.	.	.	.	.	.	.	.	.
.	.	8a\J	.	.	.	.	.	.	.	.	.	.	.	.	.	.
.	.	2g\	.	4B/ 4d	4B/ 4d	.	.	.	.	.	.	.	.	.	.	.
.	.	.	.	4B/ 4d	4B/ 4d	.	.	.	.	.	.	.	.	.	.	.
=55	=55	=55	=55	=55	=||	=55	=55	=55	=55	=55	=55	=55	=55	=55	=55	=55
1GG_<	.	8g/L	.	4B/ 4d	4B/ 4d	.	.	.	.	.	.	.	.	.	.	.
.	.	8d/	.	.	.	.	.	.	.	.	.	.	.	.	.	.
.	.	8b/	.	4B/ 4d	4B/ 4d	.	.	.	.	.	.	.	.	.	.	.
.	.	8d/J	.	.	.	.	.	.	.	.	.	.	.	.	.	.
.	.	8g/L	.	4B/ 4d	4B/ 4d	.	.	.	.	.	.	.	.	.	.	.
.	.	8d/	.	.	.	.	.	.	.	.	.	.	.	.	.	.
.	.	8b/	.	4B/ 4d	4B/ 4d	.	.	.	.	.	.	.	.	.	.	.
.	.	8d/J	.	.	.	.	.	.	.	.	.	.	.	.	.	.
=56	=56	=56	=56	=56	=56	=56	=56	=56	=56	=56	=56	=56	=56	=56	=56	=56
!	!	!	!	!	!	!	!LO:N:vis=0	!	!LO:N:vis=0	!	!LO:N:vis=0	!	!LO:N:vis=0	!	!	!
1GG_<	.	8g/L	.	4B/ 4d	4B/ 4d	.	0r	.	0r	.	0r	.	0r	.	.	.
.	.	8d/	.	.	.	.	.	.	.	.	.	.	.	.	.	.
.	.	8b/	.	4B/ 4d	4B/ 4d	.	.	.	.	.	.	.	.	.	.	.
.	.	8d/J	.	.	.	.	.	.	.	.	.	.	.	.	.	.
.	.	2dd\	.	4B/ 4d	4B/ 4d	.	.	.	.	.	.	.	.	.	.	.
.	.	.	.	4B/ 4d	4B/ 4d	.	.	.	.	.	.	.	.	.	.	.
=57	=57	=57	=57	=57	=57	=57	=57	=57	=57	=57	=57	=57	=57	=57	=57	=57
!	!	!	!	!	!	!	!	!	!	!	!	!	!	!	!LO:N:vis=0	!LO:N:vis=0
1GG_<	.	8g/L	.	4B/ 4d	4B/ 4d	.	.	.	.	.	.	.	.	.	0r	0r
.	.	8d/	.	.	.	.	.	.	.	.	.	.	.	.	.	.
.	.	8b/	.	4B/ 4d	4B/ 4d	.	.	.	.	.	.	.	.	.	.	.
.	.	8d/J	.	.	.	.	.	.	.	.	.	.	.	.	.	.
.	.	8g/L	.	4B/ 4d	4B/ 4d	.	.	.	.	.	.	.	.	.	.	.
.	.	8d/	.	.	.	.	.	.	.	.	.	.	.	.	.	.
.	.	8b/	.	4B/ 4d	4B/ 4d	.	.	.	.	.	.	.	.	.	.	.
.	.	8d/J	.	.	.	.	.	.	.	.	.	.	.	.	.	.
=58	=58	=58	=58	=58	=58	=58	=58	=58	=58	=58	=58	=58	=58	=58	=58	=58
1GG]	.	8g/L	.	4B/ 4d	4B/ 4d	.	1r	.	1r	.	1r	.	1r	.	.	.
.	.	8d/	.	.	.	.	.	.	.	.	.	.	.	.	.	.
.	.	8b/	.	4B/ 4d	4B/ 4d	.	.	.	.	.	.	.	.	.	.	.
.	.	8d/J	.	.	.	.	.	.	.	.	.	.	.	.	.	.
.	.	2g\	.	4B/ 4d	4B/ 4d	.	.	.	.	.	.	.	.	.	.	.
.	.	.	.	4B/ 4d	4B/ 4d	.	.	.	.	.	.	.	.	.	.	.
=59	=59	=59	=59	=59	=59	=59	=59	=59	=59	=59	=59	=59	=59	=59	=59	=59
*	*	*	*	*tremolo	*	*	*	*	*	*	*	*	*	*	*	*
!	!	!	!	!	!	!LO:DY:b	!	!	!	!	!	!	!	!	!	!
!	!	!	!	!	!	!LO:HP:b:i:t=for.	!	!	!	!	!	!	!	!	!	!
8G\L	.	1ryy	.	16b\LL	8b\L	f	4G\	Do-	4d\	Do-	4g\	Do-	4b\	Do-	4g/	4ee\
.	.	.	.	16b\	.	.	.	.	.	.	.	.	.	.	.	.
!LO:TX:a:i:t=Tutti.	!	!	!	!	!	!	!	!	!	!	!	!	!	!	!	!
8D\	.	.	.	16b\	8gg\J	.	.	.	.	.	.	.	.	.	.	.
.	.	.	.	16b\	.	.	.	.	.	.	.	.	.	.	.	.
8G\	.	.	.	16b\	8.gg\L	.	8G\L	-mi-	8d\	-mi-	8g\	-mi-	8b\	-mi-	4r	4r
.	.	.	.	16b\	.	.	.	.	.	.	.	.	.	.	.	.
8D\J	.	.	.	16b\	.	.	8G\J	-ne	8d\	-ne	8g\	-ne	8b\	-ne	.	.
.	.	.	.	16b\JJ	32ff#X\LL	.	.	.	.	.	.	.	.	.	.	.
.	.	.	.	.	32gg\JJJ	.	.	.	.	.	.	.	.	.	.	.
8F#\L	5 3	.	.	16cc\LL	8aa\L	.	4F#X\	DE-	4d\	De-	4a\	De-	4cc\	De-	4r	2r
.	.	.	.	16cc\	.	.	.	.	.	.	.	.	.	.	.	.
8D\	.	.	.	16cc\	8cc\J	.	.	.	.	.	.	.	.	.	.	.
.	.	.	.	16cc\	.	.	.	.	.	.	.	.	.	.	.	.
8F#\	.	.	.	16cc\	8.ccT>\L	.	4F#\	-US	4d\	-us	4a\	-us	4cc\	-us	4dd\	.
.	.	.	.	16cc\	.	.	.	.	.	.	.	.	.	.	.	.
8D\J	.	.	.	16cc\	.	.	.	.	.	.	.	.	.	.	.	.
.	.	.	.	16cc\JJ	32b\LL	.	.	.	.	.	.	.	.	.	.	.
.	.	.	.	.	32cc\JJJ	.	.	.	.	.	.	.	.	.	.	.
=60	=60	=60	=60	=60	=60	=60	=60	=60	=60	=60	=60	=60	=60	=60	=60	=60
8G\L	.	1ryy	.	16b\LL	16b\LL	.	4G\	A-	4d\	a-	4g\	a-	4b\	A-	4g/	4dd\
.	.	.	.	16b\	16gg\	.	.	.	.	.	.	.	.	.	.	.
8D\	.	.	.	16b\	16ff#X\	.	.	.	.	.	.	.	.	.	.	.
.	.	.	.	16b\	16gg\JJ	.	.	.	.	.	.	.	.	.	.	.
8G\	.	.	.	16b\	16aa\LL	.	4G\	.	4d\	-gnus	4g\	-gnus	4b\	-gnus	4r	4r
.	.	.	.	16b\	16gg\	.	.	.	.	.	.	.	.	.	.	.
8D\J	.	.	.	16b\	16ff#\	.	.	.	.	.	.	.	.	.	.	.
.	.	.	.	16b\JJ	16gg\JJ	.	.	.	.	.	.	.	.	.	.	.
!LO:TX:a:t=P:problem: mixed beam	!	!	!	!	!	!	!	!	!	!	!	!	!	!	!	!
8F#X\L	5 3	.	.	16cc\LL	8aa\L	.	4F#X\	-gnus	4d\	De-	4a\	De-	4cc\	De-	4r	4r
.	.	.	.	16cc\	.	.	.	.	.	.	.	.	.	.	.	.
8AA/	.	.	.	16cc\	8cc\J	.	.	.	.	.	.	.	.	.	.	.
.	.	.	.	16cc\	.	.	.	.	.	.	.	.	.	.	.	.
8F#\	.	.	.	16cc\	8.ccT>\L	.	4F#\	.	4d\	-i	4a\	-i	4cc\	-i	4dd\	4dd\
.	.	.	.	16cc\	.	.	.	.	.	.	.	.	.	.	.	.
8AA/J	.	.	.	16cc\	.	.	.	.	.	.	.	.	.	.	.	.
.	.	.	.	16cc\JJ	32b\LL	.	.	.	.	.	.	.	.	.	.	.
.	.	.	.	.	32cc\JJJ	.	.	.	.	.	.	.	.	.	.	.
!LO:PB:g=original	!	!LO:PB:g=original	!	!LO:LB:g=original	!	!	!	!	!	!	!LO:LB:g=original	!	!	!	!	!
=61	=61	=61	=61	=61	=61	=61	=61	=61	=61	=61	=61	=61	=61	=61	=61	=61
!	!	!LO:TX:a:t=P:problem: na przestrzeni taktów 61-104 brak górnej pięciolinii w źródle	!	!	!	!	!	!	!	!	!	!	!	!	!	!
8G\L	.	1ryy	.	16d/LL	16b\LL	.	4G\	De-	4d\	Fi-	4g\	Fi-	4b\	Fi-	4g/	4dd\
.	.	.	.	16d/	16b\	.	.	.	.	.	.	.	.	.	.	.
8G\	.	.	.	16d/	16b\	.	.	.	.	.	.	.	.	.	.	.
.	.	.	.	16d/	16b\JJ	.	.	.	.	.	.	.	.	.	.	.
*	*	*	*	*	*tremolo	*	*	*	*	*	*	*	*	*	*	*
8G\	.	.	.	16d/	16b\LL	.	8G\L	-i	8d\	-li-	8g\	-li-	8b\	-li-	4r	4r
.	.	.	.	16d/	16b\	.	.	.	.	.	.	.	.	.	.	.
8G\J	.	.	.	16d/	16b\	.	8G\J	Fi-	8d\	-us	8g\	-us	8b\	-us	.	.
.	.	.	.	16d/JJ	16b\JJ	.	.	.	.	.	.	.	.	.	.	.
!	!	!	!	!	!LO:LB:g=original	!	!	!	!	!	!	!	!	!	!	!
8E\L	.	.	.	16g/LL	16cc\LL	.	2E\	-lius	2c\	Pa-	2g\	Pa-	2cc\	Pa-	2r	2r
.	.	.	.	16g/	16cc\	.	.	.	.	.	.	.	.	.	.	.
8E\	.	.	.	16g/	16cc\	.	.	.	.	.	.	.	.	.	.	.
.	.	.	.	16g/	16cc\JJ	.	.	.	.	.	.	.	.	.	.	.
8E\	.	.	.	16g/	16cc\LL	.	.	.	.	.	.	.	.	.	.	.
.	.	.	.	16g/	16cc\	.	.	.	.	.	.	.	.	.	.	.
8E\J	.	.	.	16g/	16cc\	.	.	.	.	.	.	.	.	.	.	.
.	.	.	.	16g/JJ	16cc\JJ	.	.	.	.	.	.	.	.	.	.	.
!	!	!	!	!	!	!	!	!	!	!	!	!	!LO:LB:g=original	!	!	!
=62	=62	=62	=62	=62	=62	=62	=62	=62	=62	=62	=62	=62	=62	=62	=62	=62
!	!	!	!	!	!	!	!	!	!	!	!	!	!LO:SIC:s=2dd\	!	!	!
8BB/L	.	1ryy	.	16g/LL	16dd\LL	.	2BB/	Pa-	2d\	.	2g\	.	2ee\	-tris	2g/	2dd\
.	.	.	.	16g/	16dd\	.	.	.	.	.	.	.	.	.	.	.
8BB/	.	.	.	16g/	16dd\	.	.	.	.	.	.	.	.	.	.	.
.	.	.	.	16g/	16dd\JJ	.	.	.	.	.	.	.	.	.	.	.
8BB/	.	.	.	16g/	16dd\LL	.	.	.	.	.	.	.	.	.	.	.
.	.	.	.	16g/	16dd\	.	.	.	.	.	.	.	.	.	.	.
8BB/J	.	.	.	16g/	16dd\	.	.	.	.	.	.	.	.	.	.	.
.	.	.	.	16g/JJ	16dd\JJ	.	.	.	.	.	.	.	.	.	.	.
*tremolo	*	*	*	*Xtremolo	*Xtremolo	*	*	*	*	*	*	*	*	*	*	*
8C/L	X 6	.	.	16g\LL	16ee\LL	.	2C/	-tris	2e\	-tris	2g\	-tris	4ee\	Fi-	2cc\	2ee\
.	.	.	.	16ee\	16gg\	.	.	.	.	.	.	.	.	.	.	.
8C/	.	.	.	16ee\	16gg\	.	.	.	.	.	.	.	.	.	.	.
.	.	.	.	16ee\JJ	16gg\JJ	.	.	.	.	.	.	.	.	.	.	.
*	*	*	*	*	*tremolo	*	*	*	*	*	*	*	*	*	*	*
8C/	.	.	.	16ee\LL	16gg\LL	.	.	.	.	.	.	.	4gg\	-li-	.	.
.	.	.	.	16ee\	16gg\	.	.	.	.	.	.	.	.	.	.	.
8C/J	.	.	.	16ee\	16gg\	.	.	.	.	.	.	.	.	.	.	.
.	.	.	.	16ee\JJ	16gg\JJ	.	.	.	.	.	.	.	.	.	.	.
!	!	!	!	!	!	!	!	!	!LO:LB:g=original	!	!	!	!	!	!	!
=63	=63	=63	=63	=63	=63	=63	=63	=63	=63	=63	=63	=63	=63	=63	=63	=63
*2\right	*	*	*	*tremolo	*	*	*	*	*	*	*	*	*	*	*	*
8D\L	6 4	1ryy	.	16b\LL	16gg\LL	.	1D	Pa-	1d	Pa-	2b\	Pa-	2gg\	-us	2dd\	2dd\
.	.	.	.	16b\	16gg\	.	.	.	.	.	.	.	.	.	.	.
8D\	.	.	.	16b\	16gg\	.	.	.	.	.	.	.	.	.	.	.
.	.	.	.	16b\	16gg\JJ	.	.	.	.	.	.	.	.	.	.	.
8D\	.	.	.	16b\	16gg\LL	.	.	.	.	.	.	.	.	.	.	.
.	.	.	.	16b\	16gg\	.	.	.	.	.	.	.	.	.	.	.
8D\J	.	.	.	16b\	16gg\	.	.	.	.	.	.	.	.	.	.	.
.	.	.	.	16b\JJ	16gg\JJ	.	.	.	.	.	.	.	.	.	.	.
8D\L	5 #	.	.	16a\LL	16ff#\LL	.	.	.	.	.	2a\	.	2ff#X\	Pa-	4dd\	4dd\
.	.	.	.	16a\	16ff#\	.	.	.	.	.	.	.	.	.	.	.
8D\	.	.	.	16a\	16ff#\	.	.	.	.	.	.	.	.	.	.	.
.	.	.	.	16a\	16ff#\JJ	.	.	.	.	.	.	.	.	.	.	.
8D\	.	.	.	16a\	16ff#\LL	.	.	.	.	.	.	.	.	.	4dd\	4dd\
.	.	.	.	16a\	16ff#\	.	.	.	.	.	.	.	.	.	.	.
8D\J	.	.	.	16a\	16ff#\	.	.	.	.	.	.	.	.	.	.	.
.	.	.	.	16a\JJ	16ff#\JJ	.	.	.	.	.	.	.	.	.	.	.
*Xtremolo	*	*	*	*Xtremolo	*Xtremolo	*	*	*	*	*	*	*	*	*	*	*
!	!	!	!	!	!	!	!	!	!	!	!	!	!	!	!	!LO:LB:g=original
=64	=64	=64	=64	=64	=64	=64	=64	=64	=64	=64	=64	=64	=64	=64	=64	=64
!LO:TX:a:t=P:problem: mixed beam	!	!	!	!	!	!	!	!	!	!	!	!	!	!	!	!
8GG/L	.	1ryy	.	4G/ 4d 4b	4G/ 4d 4b 4gg	.	4G\	-tris	4d\	-tris	4b\	-tris	4gg\	-tris	4g/	4dd\
8G\	.	.	.	.	.	.	.	.	.	.	.	.	.	.	.	.
8D\	.	.	.	4G/ 4d 4b	4G/ 4d 4b 4gg	.	4r	.	4r	.	4r	.	4r	.	4g/	4dd\
8BB\J	.	.	.	.	.	.	.	.	.	.	.	.	.	.	.	.
4GG/	.	.	.	4G/ 4d 4b	4G/ 4d 4b 4gg	.	2r	.	2r	.	2r	.	2r	.	4g/	4dd\
4r	.	.	.	4r	4r	.	.	.	.	.	.	.	.	.	4r	4r
!	!	!	!	!	!	!	!LO:LB:g=original	!	!	!	!	!	!	!	!LO:LB:g=original	!
=65	=65	=65	=65	=65	=65	=65	=65	=65	=65	=65	=65	=65	=65	=65	=65	=65
!	!	!	!	!	!	!LO:DY:b	!	!	!	!	!LO:TX:a:t=1	!	!	!	!LO:TX:a:t=3	!LO:TX:a:t=3
!	!	!	!	!	!	!LO:HP:b:B:t=p.	!	!	!	!	!	!	!	!	!LO:N:vis=0	!LO:N:vis=0
8G\L	.	1ryy	.	4.B/	4.g/	p	4.G\	a-	4.B\	Pa-	1r	.	4.g\	A-	0r	0r
8G\	.	.	.	.	.	.	.	.	.	.	.	.	.	.	.	.
8G\	.	.	.	.	.	.	.	.	.	.	.	.	.	.	.	.
8G\J	.	.	.	8B/	8g/	.	8G\	-gnus	8B\	-tris	.	.	8g\	-gnus	.	.
*tremolo	*	*	*	*	*	*	*	*	*	*	*	*	*	*	*	*
8G\L	.	.	.	8c/L	8a/L	.	4G\	De-	8c\L	Pa-	.	.	8a\L	De-	.	.
8G\	.	.	.	8B/J	8g/J	.	.	.	8B\J	.	.	.	8g\J	.	.	.
8G\	.	.	.	4B/	4g/	.	4G\	.	4B\	-tris	.	.	4g\	-i	.	.
8G\J	.	.	.	.	.	.	.	.	.	.	.	.	.	.	.	.
=66	=66	=66	=66	=66	=66	=66	=66	=66	=66	=66	=66	=66	=66	=66	=66	=66
8GG/L	.	1ryy	.	4.g/	4.b\	.	4.G\	-i	4.d\	A-	4.g\	a-	4.b\	A-	.	.
8GG/	.	.	.	.	.	.	.	.	.	.	.	.	.	.	.	.
8GG/	.	.	.	.	.	.	.	.	.	.	.	.	.	.	.	.
8GG/J	.	.	.	8g/	8b\	.	8G\	.	8d\	-gnus	8g\	-gnus	8b\	-gnus	.	.
8GG/L	.	.	.	8a/L	8cc\L	.	4G\	Fi-	4d\	De-	8a\L	De-	8cc\L	De-	.	.
8GG/	.	.	.	8g/J	8b\J	.	.	.	.	.	8g\J	.	8b\J	.	.	.
8GG/	.	.	.	4g/	4b\	.	4G\	-li-	4d\	-i	4g\	-i	4b\	-i	.	.
8GG/J	.	.	.	.	.	.	.	.	.	.	.	.	.	.	.	.
=67	=67	=67	=67	=67	=67	=67	=67	=67	=67	=67	=67	=67	=67	=67	=67	=67
8GG/L	5 #	1ryy	.	4.b\	4.dd\	.	4.G\	-us	4.d\	A-	4.b\	a-	4.dd\	A-	1r	1r
8GG/	.	.	.	.	.	.	.	.	.	.	.	.	.	.	.	.
8GG/	.	.	.	.	.	.	.	.	.	.	.	.	.	.	.	.
8GG/J	.	.	.	8b\	8dd\	.	8G\	Pa-	8d\	-gnus	8b\	-gnus	8dd\	-gnus	.	.
*Xtremolo	*	*	*	*	*	*	*	*	*	*	*	*	*	*	*	*
8GG/L	6 4	.	.	8cc\L	8ee\L	.	4G\	-tris	4d\	De-	8cc\L	De-	8ee\L	De-	.	.
8GG/	.	.	.	8b\J	8dd\J	.	.	.	.	.	8b\J	.	8dd\J	.	.	.
8GG/	5 3	.	.	4b\	4dd\	.	4G\	Fi-	4d\	-i	4b\	-i	4dd\	-i	.	.
8GG/J	.	.	.	.	.	.	.	.	.	.	.	.	.	.	.	.
=68	=68	=68	=68	=68	=68	=68	=68	=68	=68	=68	=68	=68	=68	=68	=68	=68
*tremolo	*	*	*	*	*	*	*	*	*	*	*	*	*	*	*	*
8GG/L	.	1ryy	.	4b\	8dd\L	.	4G\	-li-	4d\	Fi-	4b\	Fi-	4dd\	Fi-	4r	4r
8GG/	.	.	.	.	8gg\	.	.	.	.	.	.	.	.	.	.	.
8GG/	.	.	.	8g/L	8b\	.	8G\L	-us	8d\L	-li-	8g\	-li-	8b\	-li-	4g/	4dd\
8GG/J	.	.	.	8b/J	8dd\J	.	8G\J	.	8d\J	-us	8b\	-us	8dd\	-us	.	.
*Xtremolo	*	*	*	*	*	*	*	*	*	*	*	*	*	*	*	*
8D\L	8 6	.	.	4b/	4dd\	.	2D/	pa-	2d\	Pa-	4b\	Pa-	4dd\	Pa-	2dd\	2dd\
8D\	.	.	.	.	.	.	.	.	.	.	.	.	.	.	.	.
8D\	7 5	.	.	8.a/L	8.ccT>\L	.	.	.	.	.	4a\	.	4cc\	.	.	.
8D\J	.	.	.	.	.	.	.	.	.	.	.	.	.	.	.	.
.	.	.	.	32g/LL	32b\LL	.	.	.	.	.	.	.	.	.	.	.
.	.	.	.	32a/JJJ	32cc\JJJ	.	.	.	.	.	.	.	.	.	.	.
!LO:LB:g=original	!	!	!	!	!LO:LB:g=original	!	!	!	!	!	!	!	!LO:LB:g=original	!	!	!
=69	=69	=69	=69	=69	=69	=69	=69	=69	=69	=69	=69	=69	=69	=69	=69	=69
4GG/	.	1ryy	.	8g/L	8b/L	.	4G\	-tris	4d\	-tris	4g\	-tris	4b\	-tris	4g/	4dd\
.	.	.	.	8d/	8b/	.	.	.	.	.	.	.	.	.	.	.
4r	.	.	.	8c/	8a/	.	4r	.	4r	.	4r	.	4r	.	4r	4r
.	.	.	.	8B/J	8g/J	.	.	.	.	.	.	.	.	.	.	.
2r	.	.	.	8A/L	8f#X/L	.	2r	.	2r	.	2r	.	2r	.	2r	2r
.	.	.	.	8B/	8g/	.	.	.	.	.	.	.	.	.	.	.
.	.	.	.	8c/	8a/	.	.	.	.	.	.	.	.	.	.	.
.	.	.	.	8B/J	8g/J	.	.	.	.	.	.	.	.	.	.	.
=70	=70	=70	=70	=70	=70	=70	=70	=70	=70	=70	=70	=70	=70	=70	=70	=70
*tremolo	*	*	*	*	*	*	*	*	*	*	*	*	*	*	*	*
!	!	!	!	!	!	!	!	!	!	!	!	!	!	!	!	!LO:TX:a:t=P:problem:brakujący takt w źródle
!	!	!	!	!	!	!	!	!	!	!	!	!	!	!	!	!LO:SIC:s=brakujący takt w źródle
8G\L	.	1ryy	.	4.d/	4.b\	.	4.G\	a-	4.d\	A-	4.g\	A-	4.b\	A-	1r	1r
8G\	.	.	.	.	.	.	.	.	.	.	.	.	.	.	.	.
8G\	.	.	.	.	.	.	.	.	.	.	.	.	.	.	.	.
8G\J	.	.	.	8d/	8b\	.	8G\	-gnus	8d\	-gnus	8g\	-gnus	8b\	-gnus	.	.
!	!	!	!	!LO:LB:g=original	!	!	!	!	!	!	!	!	!	!	!	!
8G\L	.	.	.	8e/L	8cc\L	.	4G\	De-	8e\L	De-	4g\	De-	8cc\L	De-	.	.
8G\	.	.	.	8d/J	8b\J	.	.	.	8d\J	.	.	.	8b\J	.	.	.
8G\	.	.	.	4d/	4b\	.	4G\	-i	4d\	-i	4g\	-i	4b\	-i	.	.
8G\J	.	.	.	.	.	.	.	.	.	.	.	.	.	.	.	.
!	!	!	!	!	!	!	!	!	!LO:LB:g=original	!	!	!	!	!	!	!
=71	=71	=71	=71	=71	=71	=71	=71	=71	=71	=71	=71	=71	=71	=71	=71	=71
!	!	!	!	!	!	!	!	!	!	!	!	!	!	!	!LO:TX:a:t=13.	!LO:TX:a:t=13
!	!	!	!	!	!	!	!	!	!	!	!	!	!	!	!LO:N:vis=00	!LO:N:vis=00
8G\L	.	1ryy	.	4d/	4b\	.	4G\	Fi-	4d\	Fi-	4g\	Fi-	4b\	Fi-	00r	00r
8G\	.	.	.	.	.	.	.	.	.	.	.	.	.	.	.	.
8G\	.	.	.	8B/L	8g\L	.	8G\L	-li-	8B\	-li-	8g\	-li-	8g\L	-li-	.	.
8G\J	.	.	.	8d/J	8b\J	.	8G\J	-us	8d\	-us	8g\	-us	8b\J	.	.	.
*Xtremolo	*	*	*	*	*	*	*	*	*	*	*	*	*	*	*	*
!LO:TX:a:t=P:problem: mixed beam	!	!	!	!	!	!	!	!	!	!	!	!	!	!	!	!
8d\L	X 4	.	.	4d/	4b\	.	4d\	Pa-	4d\	Pa-	2d\	Pa-	4b\	-us	.	.
8d\	.	.	.	.	.	.	.	.	.	.	.	.	.	.	.	.
8D/	7 #	.	.	8.c/L	8.a/L	.	4D/	.	4c\	.	.	.	4a\	Pa-	.	.
8D/J	.	.	.	.	.	.	.	.	.	.	.	.	.	.	.	.
.	.	.	.	32B/LL	32g/LL	.	.	.	.	.	.	.	.	.	.	.
.	.	.	.	32c/JJJ	32a/JJJ	.	.	.	.	.	.	.	.	.	.	.
!	!	!	!	!	!	!	!	!	!	!	!LO:LB:g=original	!	!	!	!	!
=72	=72	=72	=72	=72	=72	=72	=72	=72	=72	=72	=72	=72	=72	=72	=72	=72
!	!	!	!	!	!	!LO:DY:b	!	!	!	!	!	!	!	!	!	!
4G\	.	1ryy	.	4B/	4g/	f	4G\	-tris	4B\	-tris	4d\	-tris	4g\	-tris	.	.
!LO:TX:b:i:t=Tutti.	!	!	!	!	!	!	!	!	!	!	!	!	!	!	!	!
8G'>\L	.	.	.	8g/L	8g/L	.	4r	.	4r	.	4r	.	4r	.	.	.
8A'>\J	.	.	.	8a/J	8a/J	.	.	.	.	.	.	.	.	.	.	.
8B-X'>\L	.	.	.	8b-X/L	8b-X/L	.	2r	.	2r	.	2r	.	2r	.	.	.
8A'>\	.	.	.	8a/	8a/	.	.	.	.	.	.	.	.	.	.	.
8G'>\	.	.	.	8g/	8g/	.	.	.	.	.	.	.	.	.	.	.
8F'>\J	.	.	.	8f/J	8f/J	.	.	.	.	.	.	.	.	.	.	.
!	!	!	!	!	!	!	!LO:LB:g=original	!	!	!	!	!	!	!	!	!
=73	=73	=73	=73	=73	=73	=73	=73	=73	=73	=73	=73	=73	=73	=73	=73	=73
!	!	!	!	!	!	!	!LO:TX:a:t=11	!	!LO:TX:a:t=1	!	!LO:TX:a:t=1	!	!LO:TX:a:t=11	!	!	!
!	!	!	!	!	!	!	!LO:N:vis=00	!	!	!	!	!	!LO:N:vis=00	!	!	!
4E'>\	.	1ryy	.	4e/	4e/	.	00r	.	1r	.	1r	.	00r	.	.	.
8E'>\L	.	.	.	8e/L	8e/L	.	.	.	.	.	.	.	.	.	.	.
8F'>\J	.	.	.	8f/J	8f/J	.	.	.	.	.	.	.	.	.	.	.
8G'>\L	.	.	.	8g/L	8g/L	.	.	.	.	.	.	.	.	.	.	.
8F'>\	.	.	.	8f/	8f/	.	.	.	.	.	.	.	.	.	.	.
8E'>\	.	.	.	8e/	8e/	.	.	.	.	.	.	.	.	.	.	.
8D'>\J	.	.	.	8d/J	8d/J	.	.	.	.	.	.	.	.	.	.	.
=74	=74	=74	=74	=74	=74	=74	=74	=74	=74	=74	=74	=74	=74	=74	=74	=74
!	!	!	!LO:DY:b=2	!	!	!	!	!	!	!	!	!	!	!	!	!
!	!	!	!LO:HP:a:i:t=p.	!	!	!	!	!	!	!	!	!	!	!	!	!
4C#/	.	1ryy	p	4c#X/	4c#X/	.	.	.	4r	.	4r	.	.	.	.	.
!	!	!	!	!	!	!LO:DY:b	!	!	!	!	!	!	!	!	!	!
!	!	!	!	!	!	!LO:HP:b:i:t=p.	!	!	!	!	!	!	!	!	!	!
4r	.	.	.	2d/	2a/	p	.	.	4e\	Qui	4a\	qui	.	.	.	.
4C#/	.	.	.	.	.	.	.	.	4e\	tol-	4a\	tol-	.	.	.	.
4r	.	.	.	4e/	4g/	.	.	.	8e\	-lis	8g\L	-lis	.	.	.	.
.	.	.	.	.	.	.	.	.	8e\	pe(c-	8a\J	.	.	.	.	.
=75	=75	=75	=75	=75	=75	=75	=75	=75	=75	=75	=75	=75	=75	=75	=75	=75
!	!	!	!	!	!	!	!	!	!	!	!	!	!	!	!LO:N:vis=00	!LO:N:vis=00
4D\	X n	1ryy	.	4e/	4g/	.	.	.	4e\	-c)a-	4g\	pec-	.	.	00r	00r
!	!	!	!	!	!	!	!	!	!	!	!LO:SIC:s=4f\	!	!	!	!	!
4r	.	.	.	4d/	4f/	.	.	.	4d\	.	4f#\	-ca-	.	.	.	.
!	!	!	!	!	!	!	!	!	!	!	!LO:SIC:s=4f\	!	!	!	!	!
4D\	X 4	.	.	8A/L	8f/L	.	.	.	2d\	-ta	4f#\	-ta	.	.	.	.
.	X 3	.	.	8f/	8dd/	.	.	.	.	.	.	.	.	.	.	.
!	!	!	!	!	!	!LO:DY:b	!	!	!	!	!	!	!	!	!	!
!	!	!	!	!	!	!LO:HP:b:i:t=f.	!	!	!	!	!	!	!	!	!	!
4r	.	.	.	8e/	8cc#X/	f	.	.	.	.	4r	.	.	.	.	.
.	.	.	.	8f/J	8dd/J	.	.	.	.	.	.	.	.	.	.	.
!	!	!	!	!	!LO:LB:g=original	!	!	!	!	!	!	!	!	!	!	!
=76	=76	=76	=76	=76	=76	=76	=76	=76	=76	=76	=76	=76	=76	=76	=76	=76
4BB/	X 6	1ryy	.	4G/	4d/	.	.	.	4r	.	4r	.	.	.	.	.
!	!	!	!	!	!	!LO:DY:b	!	!	!	!	!	!	!	!	!	!
4r	.	.	.	2d/	2g/	p	.	.	4d\	pec-	4g\	pec-	.	.	.	.
4BB/	.	.	.	.	.	.	.	.	4d\	-ca-	4g\	-ca-	.	.	.	.
4r	.	.	.	4d/	4f/	.	.	.	4d\	-ta	8fn\L	-ta	.	.	.	.
.	.	.	.	.	.	.	.	.	.	.	8g\J	.	.	.	.	.
=77	=77	=77	=77	=77	=77	=77	=77	=77	=77	=77	=77	=77	=77	=77	=77	=77
!	!	!	!	!	!	!	!LO:N:vis=00	!	!	!	!	!	!LO:N:vis=00	!	!	!
4C/	X 4	1ryy	.	4d/	4f/	.	00r	.	4d\	mun-	4f\	mun-	00r	.	.	.
.	X 3	.	.	.	.	.	.	.	.	.	.	.	.	.	.	.
4r	.	.	.	4c/	4e/	.	.	.	4c\	.	4e\	.	.	.	.	.
!	!	!	!	!	!	!LO:DY:b:rj	!	!	!	!	!	!	!	!	!	!
4C/	.	.	.	8c/L	8e/L	f	.	.	2c\	-di	4e\	-di	.	.	.	.
.	.	.	.	8e/	8ccnX/	.	.	.	.	.	.	.	.	.	.	.
4r	.	.	.	8d/	8b/	.	.	.	.	.	4r	.	.	.	.	.
.	.	.	.	8e/J	8cc/J	.	.	.	.	.	.	.	.	.	.	.
!LO:LB:g=original	!	!	!	!	!	!	!	!	!LO:PB:g=original	!	!	!	!	!	!	!
=78	=78	=78	=78	=78	=78	=78	=78	=78	=78	=78	=78	=78	=78	=78	=78	=78
!	!	!	!	!	!	!LO:DY:b	!	!	!	!	!	!	!	!	!	!
!	!	!	!	!	!	!LO:HP:b:t=p.	!	!	!	!	!	!	!	!	!	!
4GG/	6 4	1ryy	.	4e/	4cc\	p	.	.	4c\	mi-	4e\	mi-	.	.	.	.
.	5 3	.	.	.	.	.	.	.	.	.	.	.	.	.	.	.
4r	.	.	.	4d/	4b\	.	.	.	4B\	.	4d\	.	.	.	.	.
4r	.	.	.	4e/	4cc\	.	.	.	4c\	-se-	4e\	-se-	.	.	.	.
4GG/	6 4	.	.	4f/	4dd\	.	.	.	4d\	.	4f\	.	.	.	.	.
.	7 5	.	.	.	.	.	.	.	.	.	.	.	.	.	.	.
=79	=79	=79	=79	=79	=79	=79	=79	=79	=79	=79	=79	=79	=79	=79	=79	=79
!	!	!	!	!	!	!	!	!	!	!	!	!	!	!	!LO:N:vis=00	!LO:N:vis=00
4C/	.	1ryy	.	4e/	4cc\	.	.	.	4c\	-re-	4e\	-re-	.	.	00r	00r
4r	.	.	.	4f/	4dd\	.	.	.	4d\	.	4f\	-re	.	.	.	.
4r	.	.	.	2g/	2ee\	.	.	.	2e\	-re	2g\	.	.	.	.	.
4C/	5 3	.	.	.	.	.	.	.	.	.	.	.	.	.	.	.
!	!	!	!	!LO:LB:g=original	!	!	!	!	!	!	!	!	!	!	!	!
=80	=80	=80	=80	=80	=80	=80	=80	=80	=80	=80	=80	=80	=80	=80	=80	=80
2C/	5 3	1ryy	.	4g/	4ee\	.	.	.	4e\	no-	4g\	mi-	.	.	.	.
.	.	.	.	8a/L	8ff\L	.	.	.	8f\L	.	8a\L	-se-	.	.	.	.
.	.	.	.	8g/J	8ee\J	.	.	.	8e\J	.	8g\J	.	.	.	.	.
4BB/	.	.	.	4f/	4dd\	.	.	.	4d\	.	4f\	-re-	.	.	.	.
4C/	.	.	.	4e/	4cc\	.	.	.	4c\	-bis	4e\	-re	.	.	.	.
=81	=81	=81	=81	=81	=81	=81	=81	=81	=81	=81	=81	=81	=81	=81	=81	=81
!	!	!	!	!	!	!	!LO:N:vis=0	!	!	!	!	!	!LO:N:vis=0	!	!	!
4GG/	X 4	1ryy	.	4e/	4cc\	.	0r	.	4c\	qui	4e\	no-	0r	.	.	.
.	X 3	.	.	.	.	.	.	.	.	.	.	.	.	.	.	.
4r	.	.	.	4d/	4b\	.	.	.	4B\	tol-	4d\	.	.	.	.	.
4r	.	.	.	2g/	2ee\	.	.	.	2e\	-lis	2g\	-bis	.	.	.	.
4C/	.	.	.	.	.	.	.	.	.	.	.	.	.	.	.	.
!	!	!	!	!	!	!	!	!	!	!	!LO:PB:g=original	!	!	!	!	!
=82	=82	=82	=82	=82	=82	=82	=82	=82	=82	=82	=82	=82	=82	=82	=82	=82
2C/	.	1ryy	.	4g/	4ee\	.	.	.	4e\	pec-	4g\	qui-	.	.	.	.
.	.	.	.	8a/L	8ff\L	.	.	.	8f\L	-ca-	8a\	-tol-	.	.	.	.
.	.	.	.	8g/J	8ee\J	.	.	.	8e\J	.	8g\	-lis-	.	.	.	.
4BB/	6 5	.	.	4f/	4dd\	.	.	.	4d\	-ta	4f\	-pec-	.	.	.	.
4C/	.	.	.	4e/	4cc\	.	.	.	4c\	.	4e\	-ca-	.	.	.	.
=83	=83	=83	=83	=83	=83	=83	=83	=83	=83	=83	=83	=83	=83	=83	=83	=83
4G\	X 4	1ryy	.	4e/	4cc\	.	1r	.	4c\	mun-	4e\	-ta-	1r	.	1r	1r
.	X 3	.	.	.	.	.	.	.	.	.	.	.	.	.	.	.
8G'>\L	.	.	.	4d/	4b\	.	.	.	4B\	-di	4d\	-mundi	.	.	.	.
8A'>\J	.	.	.	.	.	.	.	.	.	.	.	.	.	.	.	.
8G'>\L	.	.	.	2r	2r	.	.	.	2r	.	4r	.	.	.	.	.
8F'>\	.	.	.	.	.	.	.	.	.	.	.	.	.	.	.	.
8E'>\	.	.	.	.	.	.	.	.	.	.	4r	.	.	.	.	.
8D'>\J	.	.	.	.	.	.	.	.	.	.	.	.	.	.	.	.
=84	=84	=84	=84	=84	=84	=84	=84	=84	=84	=84	=84	=84	=84	=84	=84	=84
!LO:TX:b:i:t=Tutti.	!	!	!	!	!	!	!	!	!	!	!	!	!	!	!	!
8C/L	.	1ryy	.	4.e/	4.cc\	.	2C/	Sus-	2G/	sus-	2e\	Sus-	2cc\	Sus-	4e/	4cc\
8C/	.	.	.	.	.	.	.	.	.	.	.	.	.	.	.	.
8C/	.	.	.	.	.	.	.	.	.	.	.	.	.	.	4r	4r
8C/J	.	.	.	8e/	8cc\	.	.	.	.	.	.	.	.	.	.	.
8C/L	.	.	.	8f/L	(>8dd\L	.	8C/L	-ci-	8G/	-ci-	8f\	-ci-	8dd\	-ci-	2r	2r
8C/	.	.	.	8e/J	8cc\J)	.	8C/J	-pe	8G/	-pe	8e\	-pe	8cc\	-pe	.	.
8C/	.	.	.	4e/	4cc\	.	4C/	de-	4G/	de-	4e\	de-	4cc\	de-	.	.
8C/J	.	.	.	.	.	.	.	.	.	.	.	.	.	.	.	.
=85	=85	=85	=85	=85	=85	=85	=85	=85	=85	=85	=85	=85	=85	=85	=85	=85
*tremolo	*	*	*	*	*	*	*	*	*	*	*	*	*	*	*	*
8C/L	.	1ryy	.	4.cc\	4.ee\	.	2C/	-pre-	2c\	-pre-	2g\	-pre-	2ee\	-pre-	4cc\	4ee\
8C/	.	.	.	.	.	.	.	.	.	.	.	.	.	.	.	.
8C/	.	.	.	.	.	.	.	.	.	.	.	.	.	.	4r	4r
8C/J	.	.	.	8cc\	8ee\	.	.	.	.	.	.	.	.	.	.	.
8C/L	.	.	.	8dd\L	(>8ff\L	.	8C/L	-ca-	8d\	-ca-	8g\	-ca-	8ff\	-ca-	2r	2r
8C/	.	.	.	8cc\J	8ee\J)	.	8C/J	-ti-	8c\	-ti-	8g\	-ti-	8ee\	-ti-	.	.
8C/	.	.	.	4cc\	4ee\	.	4C/	-o-	4c\	-o-	4g\	-o-	4ee\	-o-	.	.
8C/J	.	.	.	.	.	.	.	.	.	.	.	.	.	.	.	.
!	!	!	!	!	!LO:LB:g=original	!	!	!	!LO:LB:g=original	!	!	!	!	!	!	!
=86	=86	=86	=86	=86	=86	=86	=86	=86	=86	=86	=86	=86	=86	=86	=86	=86
8C/L	.	1ryy	.	4.ee\	4.gg\	.	2c\	-nem	2c\	-nem	2e\	-nem	2gg\	-nem	4ee\	4gg\
8C/	.	.	.	.	.	.	.	.	.	.	.	.	.	.	.	.
8C/	.	.	.	.	.	.	.	.	.	.	.	.	.	.	4r	4r
8C/J	.	.	.	8ee\	8gg\	.	.	.	.	.	.	.	.	.	.	.
!	!	!	!	!	!	!	!	!	!	!	!	!	!LO:LB:g=original	!	!	!
8C/L	.	.	.	8ff\L	8aa\L	.	8c\L	no-	8c\	no-	8f\	nos-	8aa\	sus-	2r	2r
!	!	!	!	!	!	!	!	!	!LO:SIC:s=8c/	!	!	!	!	!	!	!
8C/	.	.	.	8ee\J	8gg\J	.	8c\J	.	8F/	.	8e\	.	8gg\	-ci-	.	.
8C/	.	.	.	4ee\	4gg\	.	4c\	-stram	4c\	-stram	4e\	-tram	4gg\	-pe	.	.
8C/J	.	.	.	.	.	.	.	.	.	.	.	.	.	.	.	.
!LO:LB:g=original	!	!	!	!	!	!	!	!	!	!	!	!	!	!	!	!
=87	=87	=87	=87	=87	=87	=87	=87	=87	=87	=87	=87	=87	=87	=87	=87	=87
8C/L	.	1ryy	.	4ee\	8gg\L	.	8c\	de-	8e\	de-	8g\	de-	8gg\	de-	2r	2r
8C/	.	.	.	.	8ccc\	.	8c\	-pre-	8e\	-pre-	8g\	-pre-	8gg\	-pre-	.	.
8C/	.	.	.	8cc\L	8ee\	.	8c\	-ca-	8e\	-ca-	8g\	-ca-	8ee\	-ca-	.	.
8C/J	.	.	.	8ee\J	8gg\J	.	8c\	-ti-	8e\	-ti-	8g\	-ti-	8gg\	-ti-	.	.
*Xtremolo	*	*	*	*	*	*	*	*	*	*	*	*	*	*	*	*
!LO:TX:a:t=P:problem: mixed beam	!	!	!	!	!	!	!	!	!LO:SIC:s=2H\	!	!	!	!	!	!	!
8G\L	8 6	.	.	4ee\	4gg\	.	2G\	-o-	2A\	-o-	2g\	-o-	4gg\	-o-	4ee\	4gg\
8G\	.	.	.	.	.	.	.	.	.	.	.	.	.	.	.	.
8GG/	7 5	.	.	8.dd\L	8.ff\L	.	.	.	.	.	.	.	4ff\	.	4dd\	4ff\
8GG/J	.	.	.	.	.	.	.	.	.	.	.	.	.	.	.	.
.	.	.	.	32cc\LL	32ee\LL	.	.	.	.	.	.	.	.	.	.	.
.	.	.	.	32dd\JJJ	32ff\JJJ	.	.	.	.	.	.	.	.	.	.	.
=88	=88	=88	=88	=88	=88	=88	=88	=88	=88	=88	=88	=88	=88	=88	=88	=88
4C/	.	1ryy	.	8cc/L	8ee\L	.	4C/	-nem	4c\	-nem	4g\	-nem	4ee\	-nem	4cc\	4ee\
.	.	.	.	8g/	8ee\	.	.	.	.	.	.	.	.	.	.	.
4r	.	.	.	8f/	8dd\	.	4r	.	4r	.	4r	.	4r	.	4r	4r
.	.	.	.	8e/J	8cc\J	.	.	.	.	.	.	.	.	.	.	.
2r	.	.	.	8d/L	8b\L	.	2r	.	2r	.	2r	.	2r	.	2r	2r
.	.	.	.	8e/	8cc\	.	.	.	.	.	.	.	.	.	.	.
.	.	.	.	8f/	8dd\	.	.	.	.	.	.	.	.	.	.	.
.	.	.	.	8e/J	8cc\J	.	.	.	.	.	.	.	.	.	.	.
=89	=89	=89	=89	=89	=89	=89	=89	=89	=89	=89	=89	=89	=89	=89	=89	=89
*tremolo	*	*	*	*	*	*	*	*	*	*	*	*	*	*	*	*
!	!	!	!LO:HP:b:i:t=piano.	!	!	!	!	!	!LO:TX:a:t=2	!	!	!	!	!	!LO:TX:a:t=2	!LO:TX:a:t=2
!	!	!	!LO:DY:b=2:rj	!	!	!	!	!	!LO:N:vis=0	!	!	!	!	!	!LO:N:vis=0	!LO:N:vis=0
8C/L	.	1ryy	p	4.e/	4.g/	.	2C/	sus-	0r	.	2e\	sus-	2g\	sus-	0r	0r
8C/	.	.	.	.	.	.	.	.	.	.	.	.	.	.	.	.
8C/	.	.	.	.	.	.	.	.	.	.	.	.	.	.	.	.
8C/J	.	.	.	8e/	8g/	.	.	.	.	.	.	.	.	.	.	.
*Xtremolo	*	*	*	*	*	*	*	*	*	*	*	*	*	*	*	*
!	!	!	!	!LO:LB:g=original	!	!	!	!	!	!	!	!	!	!	!	!
8C/L	6 4	.	.	8f/L	8a/L	.	8C/L	-ci-	.	.	8f\	-ci-	8a\L	-ci-	.	.
8C/	.	.	.	8e/J	8g/J	.	8C/J	-pe	.	.	8e\	-pe	8g\J	.	.	.
8C/	5 3	.	.	4e/	4g/	.	4C/	de-	.	.	4e\	.	4g\	-pe	.	.
8C/J	.	.	.	.	.	.	.	.	.	.	.	.	.	.	.	.
=90	=90	=90	=90	=90	=90	=90	=90	=90	=90	=90	=90	=90	=90	=90	=90	=90
*tremolo	*	*	*	*	*	*	*	*	*	*	*	*	*	*	*	*
8C/L	.	1ryy	.	4e/	8g/L	.	8C/L	-pre-	.	.	8e\L	de-	8g\L	de-	.	.
8C/	.	.	.	.	8cc/	.	8C/	-ca-	.	.	8e\	-pre-	8g\J	-pre-	.	.
8C/	.	.	.	8c/L	8e/	.	8C/	-ti-	.	.	8c\	-ca-	8e/L	-ca-	.	.
8C/J	.	.	.	8e/J	8g/J	.	8C/J	-o-	.	.	8e\J	-ti-	8g/J	-ti-	.	.
*Xtremolo	*	*	*	*	*	*	*	*	*	*	*	*	*	*	*	*
!LO:TX:a:t=P:problem: mixed beam	!	!	!	!	!	!	!	!	!	!	!	!	!	!	!	!
8G\L	8 6	.	.	4e/	4g/	.	2G\	-nem	.	.	4e\	-o-	4g/	-o-	.	.
8G\	.	.	.	.	.	.	.	.	.	.	.	.	.	.	.	.
8GG/	7 5	.	.	8.d/L	8.f/L	.	.	.	.	.	4d\	-nem	4f/	-nem	.	.
8GG/J	.	.	.	.	.	.	.	.	.	.	.	.	.	.	.	.
.	.	.	.	32c/LL	32e/LL	.	.	.	.	.	.	.	.	.	.	.
.	.	.	.	32d/JJJ	32f/JJJ	.	.	.	.	.	.	.	.	.	.	.
!	!	!	!	!	!	!	!LO:LB:g=original	!	!	!	!LO:LB:g=original	!	!	!	!	!
=91	=91	=91	=91	=91	=91	=91	=91	=91	=91	=91	=91	=91	=91	=91	=91	=91
!	!	!	!	!	!	!LO:DY:b:rj	!	!	!	!	!	!	!	!	!	!
8C/L	.	1ryy	.	4c/	4e/	f	4c\	no-	4r	.	4c\	nos-	4e/	no-	4r	4r
8GG/	.	.	.	.	.	.	.	.	.	.	.	.	.	.	.	.
8C/	.	.	.	16e/LL	16cc\LL	.	4c\	-stram	2G/	no-	2e\	.	16cc\LL	.	4e/	4cc\
.	.	.	.	16d/	16b\	.	.	.	.	.	.	.	16b\	.	.	.
8GG/J	.	.	.	16e/	16cc\	.	.	.	.	.	.	.	16cc\	.	.	.
.	.	.	.	16f/JJ	16dd\JJ	.	.	.	.	.	.	.	16dd\JJ	.	.	.
*	*	*	*	*tremolo	*tremolo	*	*	*	*	*	*	*	*	*	*	*
8C/L	.	.	.	16e/LL	16cc\LL	.	8c\L	.	.	.	.	.	4cc\	-stram	4e/	4cc\
.	.	.	.	16e/	16cc\	.	.	.	.	.	.	.	.	.	.	.
8GG/	.	.	.	16e/	16cc\	.	8G\	qui	.	.	.	.	.	.	.	.
.	.	.	.	16e/JJ	16cc\JJ	.	.	.	.	.	.	.	.	.	.	.
8BB/	X 6	.	.	16g/LL	16dd\LL	.	8B\	.	4B\	-stram	4g\	-tram	4dd\	.	4g/	4dd\
.	.	.	.	16g/	16dd\	.	.	.	.	.	.	.	.	.	.	.
8GG/J	.	.	.	16g/	16dd\	.	8G\J	.	.	.	.	.	.	.	.	.
.	.	.	.	16g/JJ	16dd\JJ	.	.	.	.	.	.	.	.	.	.	.
*	*	*	*	*Xtremolo	*Xtremolo	*	*	*	*	*	*	*	*	*	*	*
!	!	!	!	!	!	!	!	!	!	!	!	!	!	!	!	!LO:LB:g=original
=92	=92	=92	=92	=92	=92	=92	=92	=92	=92	=92	=92	=92	=92	=92	=92	=92
8C/L	.	1ryy	.	4e/ 4cc	4cc\ 4ee	.	4c\	se-	4c\	qui	4g\	qui	4ee\	no-	4cc\	4ee\
8GG/	.	.	.	.	.	.	.	.	.	.	.	.	.	.	.	.
8C/	.	.	.	16cc\LL	16ee\LL	.	4c\	-des	2c\	se-	2g\	se-	16ee\LL	.	2cc\	2ee\
.	.	.	.	16b\	16dd\	.	.	.	.	.	.	.	16dd\	.	.	.
8GG/J	.	.	.	16cc\	16ee\	.	.	.	.	.	.	.	16ee\	.	.	.
.	.	.	.	16dd\JJ	16ff\JJ	.	.	.	.	.	.	.	16ff\JJ	-stram	.	.
*	*	*	*	*tremolo	*tremolo	*	*	*	*	*	*	*	*	*	*	*
!	!	!	!	!	!	!	!	!	!	!	!	!	!LO:LB:g=original	!	!	!
8C/L	.	.	.	16cc\LL	16ee\LL	.	8c\L	ad	.	.	.	.	4ee\	no-	.	.
.	.	.	.	16cc\	16ee\	.	.	.	.	.	.	.	.	.	.	.
8GG/	.	.	.	16cc\	16ee\	.	8G\	.	.	.	.	.	.	.	.	.
.	.	.	.	16cc\JJ	16ee\JJ	.	.	.	.	.	.	.	.	.	.	.
8BB/	X 6	.	.	16dd\LL	16ff\LL	.	8B\	.	4d\	-des	4g\	-des	4ff\	-stram	4dd\	4ff\
.	.	.	.	16dd\	16ff\	.	.	.	.	.	.	.	.	.	.	.
8GG/J	.	.	.	16dd\	16ff\	.	8G\J	.	.	.	.	.	.	.	.	.
.	.	.	.	16dd\JJ	16ff\JJ	.	.	.	.	.	.	.	.	.	.	.
*	*	*	*	*Xtremolo	*Xtremolo	*	*	*	*	*	*	*	*	*	*	*
!	!	!	!	!	!LO:LB:g=original	!	!	!	!	!	!	!	!	!	!	!
=93	=93	=93	=93	=93	=93	=93	=93	=93	=93	=93	=93	=93	=93	=93	=93	=93
*tremolo	*	*	*	*	*	*	*	*	*	*	*	*	*	*	*	*
8C/L	.	1ryy	.	4ee\	4gg\	.	4c\	dex-	4e\	ad	4cc\	ad	4gg\	qui	2ee\	2gg\
8C/	.	.	.	.	.	.	.	.	.	.	.	.	.	.	.	.
8C/	.	.	.	4ee\	8ccc\L	.	4c\	-ter-	4e\	dex-	4cc\	dex-	4gg\	se-	.	.
8C/J	.	.	.	.	8gg\J	.	.	.	.	.	.	.	.	.	.	.
*Xtremolo	*	*	*	*tremolo	*tremolo	*	*	*	*	*	*	*	*	*	*	*
8BB/L	.	.	.	16dd\LL	16ff\LL	.	4B\	-ram	4d\	-te-	2g\	-te-	4ff\	-des	4dd\	4ff\
.	.	.	.	16dd\	16ff\	.	.	.	.	.	.	.	.	.	.	.
8BB/	.	.	.	16dd\	16ff\	.	.	.	.	.	.	.	.	.	.	.
.	.	.	.	16dd\JJ	16ff\JJ	.	.	.	.	.	.	.	.	.	.	.
8C/	.	.	.	16cc\LL	16ee\LL	.	4c\	.	4c\	-ram	.	.	4ee\	ad	4cc\	4ee\
.	.	.	.	16cc\	16ee\	.	.	.	.	.	.	.	.	.	.	.
8C/J	.	.	.	16cc\	16ee\	.	.	.	.	.	.	.	.	.	.	.
.	.	.	.	16cc\JJ	16ee\JJ	.	.	.	.	.	.	.	.	.	.	.
*	*	*	*	*Xtremolo	*Xtremolo	*	*	*	*	*	*	*	*	*	*	*
!	!	!	!	!	!	!	!	!	!	!	!	!	!	!	!LO:LB:g=original	!
=94	=94	=94	=94	=94	=94	=94	=94	=94	=94	=94	=94	=94	=94	=94	=94	=94
!LO:TX:a:t=P:problem: mixed beam	!	!	!	!	!	!	!	!	!	!	!	!	!	!	!	!
8G\L	.	1ryy	.	4b/	4dd\	.	4G\	Pa-	4B\	Pa-	4g\	-ram	4dd\	dex-	4g/	4dd\
8G\	.	.	.	.	.	.	.	.	.	.	.	.	.	.	.	.
8C/	.	.	.	8.g/L	8.ee\L	.	4C/	.	4c\	.	4g\	Pa-	4ee\	-te-	4r	4r
8C/J	.	.	.	.	.	.	.	.	.	.	.	.	.	.	.	.
.	.	.	.	32f/LL	32dd\LL	.	.	.	.	.	.	.	.	.	.	.
.	.	.	.	32g/JJJ	32ee\JJJ	.	.	.	.	.	.	.	.	.	.	.
*	*	*	*	*tremolo	*tremolo	*	*	*	*	*	*	*	*	*	*	*
8BB/L	X 6	.	.	16f/LL	16dd\LL	.	4BB/	.	2G/	.	4f\	.	4dd\	-ram	2r	2r
.	.	.	.	16f/	16dd\	.	.	.	.	.	.	.	.	.	.	.
8BB/	.	.	.	16f/	16dd\	.	.	.	.	.	.	.	.	.	.	.
.	.	.	.	16f/JJ	16dd\JJ	.	.	.	.	.	.	.	.	.	.	.
8C/	.	.	.	16e/LL	16cc\LL	.	4C/	.	.	.	4e\	.	4cc\	Pa-	.	.
.	.	.	.	16e/	16cc\	.	.	.	.	.	.	.	.	.	.	.
8C/J	.	.	.	16e/	16cc\	.	.	.	.	.	.	.	.	.	.	.
.	.	.	.	16e/JJ	16cc\JJ	.	.	.	.	.	.	.	.	.	.	.
*	*	*	*	*Xtremolo	*Xtremolo	*	*	*	*	*	*	*	*	*	*	*
!LO:LB:g=original	!	!	!	!	!	!	!	!	!	!	!	!	!	!	!	!
=95	=95	=95	=95	=95	=95	=95	=95	=95	=95	=95	=95	=95	=95	=95	=95	=95
!LO:TX:a:t=P:problem: mixed beam	!	!	!	!	!	!	!	!	!	!	!	!	!	!	!	!
8GG/L	.	1ryy	.	4G/ 4d	4G/ 4d 4b 4gg	.	4G\	-tris	4d\	-tris	4g\	-tris	4b\	-tris	4g/	4dd\
8G\	.	.	.	.	.	.	.	.	.	.	.	.	.	.	.	.
8D\	.	.	.	4G/ 4d 4b	4G/ 4d 4b 4gg	.	4r	.	4r	.	4r	.	4r	.	4g/	4dd\
8BB\J	.	.	.	.	.	.	.	.	.	.	.	.	.	.	.	.
4GG/	.	.	.	4G/ 4d 4b	4G/ 4d 4b 4gg	.	2r	.	2r	.	2r	.	2r	.	4g/	4dd\
4r	.	.	.	4r	4r	.	.	.	.	.	.	.	.	.	4r	4r
!	!	!	!	!	!	!	!	!	!LO:LB:g=original	!	!	!	!	!	!	!
=96	=96	=96	=96	=96	=96	=96	=96	=96	=96	=96	=96	=96	=96	=96	=96	=96
!	!	!	!	!	!	!LO:HP:b:t=p.	!LO:TX:a:t=4.	!	!LO:TX:a:t=P:problem: brak zaznaczonej wielopauzy	!	!	!	!	!	!LO:TX:a:t=4	!LO:TX:a:t=4
!	!	!	!	!	!	!LO:DY:b:rj	!LO:N:vis=00	!	!LO:SIC:s=00r	!	!	!	!	!	!LO:N:vis=00	!LO:N:vis=00
1GG 1G	.	1ryy	.	2b\	2gg\	p	00r	.	00ryy	.	1b	ad	2gg\	ad	00r	00r
.	.	.	.	4b\	4dd'>\	.	.	.	.	.	.	.	2dd\	.	.	.
.	.	.	.	4b\	4dd'>\	.	.	.	.	.	.	.	.	.	.	.
=97	=97	=97	=97	=97	=97	=97	=97	=97	=97	=97	=97	=97	=97	=97	=97	=97
!	!	!	!	!	!	!	!	!	!	!	!LO:TX:a:t=P:problem: takt niepełny, brak kropki przedłużającej nutę	!	!	!	!	!
!	!	!	!	!	!	!	!	!	!	!	!LO:N:vis=2	!	!	!	!	!
1GG 1G	.	1ryy	.	2d/	2b\	.	.	.	.	.	2.d\	dex-	2b\	dex-	.	.
.	.	.	.	4c/	4a'>\	.	.	.	.	.	.	.	4a\	-te-	.	.
.	.	.	.	4B/	4g'>\	.	.	.	.	.	8c\L	-te-	4g\	-ram	.	.
.	.	.	.	.	.	.	.	.	.	.	8B\J	-ram	.	.	.	.
=98	=98	=98	=98	=98	=98	=98	=98	=98	=98	=98	=98	=98	=98	=98	=98	=98
1GG 1G	.	1ryy	.	8c/L	(<8a/L	.	.	.	.	.	8c/L	Pa-	8a\L	Pa-	.	.
.	.	.	.	8d/	8b/)	.	.	.	.	.	8d/J	.	8b\J	.	.	.
.	.	.	.	8B/	8g'</	.	.	.	.	.	4B/	-tris	4g\	-tris	.	.
.	.	.	.	8B/J	8g'</J	.	.	.	.	.	.	.	.	.	.	.
!	!	!	!	!LO:LB:g=original	!	!	!	!	!	!	!	!	!	!	!	!
.	.	.	.	8c/L	(<8a/L	.	.	.	.	.	8c/L	Pa-	8a\L	Pa-	.	.
.	.	.	.	8d/	8b/)	.	.	.	.	.	8d/J	.	8b\J	.	.	.
.	.	.	.	8B/	8g'</	.	.	.	.	.	4B/	-tris	4g\	-tris	.	.
.	.	.	.	8B/J	8g'</J	.	.	.	.	.	.	.	.	.	.	.
=99	=99	=99	=99	=99	=99	=99	=99	=99	=99	=99	=99	=99	=99	=99	=99	=99
*	*	*	*	*	*	*	*	*	*	*	*	*ij	*	*	*	*
4GG/	.	1ryy	.	8c/L	8a/L	.	.	.	.	.	8c/L	Pa-	8a\L	Pa-	.	.
.	.	.	.	8d/J	8b/J	.	.	.	.	.	8d/J	.	8b\J	.	.	.
8G\L|	.	.	.	4B/	4g/	.	.	.	.	.	4B/	-tris	4g\	-tris	.	.
*	*	*	*	*	*	*	*	*	*	*	*	*Xij	*	*	*	*
8A\J|	.	.	.	.	.	.	.	.	.	.	.	.	.	.	.	.
8G\L|	.	.	.	2r	2r	.	.	.	.	.	2r	.	2r	.	.	.
8F\|	.	.	.	.	.	.	.	.	.	.	.	.	.	.	.	.
8E\|	.	.	.	.	.	.	.	.	.	.	.	.	.	.	.	.
8D\J|	.	.	.	.	.	.	.	.	.	.	.	.	.	.	.	.
!	!	!	!	!	!	!	!LO:PB:g=original	!	!	!	!	!	!	!	!	!
=100	=100	=100	=100	=100	=100	=100	=100	=100	=100	=100	=100	=100	=100	=100	=100	=100
*8ba	*	*	*	*	*	*	*	*	*	*	*	*	*	*	*	*
1CC	.	1ryy	.	2ee\	2ccc\	.	2c\	Mi-	2e\	Mi-	2cc\	qui-	2gg\	mi-	1ee	1gg
.	.	.	.	4ee\	4gg'\	.	2c\	-se-	2e\	-se-	2cc\	-se-	2gg\	-se-	.	.
.	.	.	.	4ee\	4gg'\	.	.	.	.	.	.	.	.	.	.	.
!	!	!	!	!	!	!	!	!	!	!	!	!	!LO:LB:g=original	!	!	!
=101	=101	=101	=101	=101	=101	=101	=101	=101	=101	=101	=101	=101	=101	=101	=101	=101
[>1CC	.	1ryy	.	2g/	2ee\	.	2C/	-re-	2e\	-re-	2g\	-des	2ee\	-re-	2cc\	2ee\
.	.	.	.	4f/	4dd'\	.	2C/	-re	2c\	-re	4f\	ad	4dd\	-re	2r	2r
.	.	.	.	4e/	4cc'\	.	.	.	.	.	4e\	dex-	4cc\	.	.	.
!	!	!	!	!	!LO:LB:g=original	!	!	!	!	!	!	!	!	!	!	!
=102	=102	=102	=102	=102	=102	=102	=102	=102	=102	=102	=102	=102	=102	=102	=102	=102
!	!	!	!	!	!	!	!	!	!	!	!	!	!	!	!LO:TX:a:t=6	!LO:TX:a:t=6
!	!	!	!	!	!	!	!	!	!	!	!	!	!	!	!LO:N:vis=00	!LO:N:vis=00
1CC]	.	1ryy	.	8f/L	(>8dd\L	.	1C	no-	1G	no-	8f\L	-te-	8dd\L	-no-	00r	00r
.	.	.	.	8g/	8ee\)	.	.	.	.	.	8g\J	.	8ee\J	.	.	.
.	.	.	.	8e/	8cc'\	.	.	.	.	.	4e\	-ram	4cc\	-bis	.	.
.	.	.	.	8e/J	8cc'\J	.	.	.	.	.	.	.	.	.	.	.
!	!	!	!	!	!	!	!	!	!	!	!LO:LB:g=original	!	!	!	!	!
.	.	.	.	8f/L	(>8dd\L	.	.	.	.	.	8f\L	Pa-	8dd\L	no-	.	.
.	.	.	.	8g/	8ee\)	.	.	.	.	.	8g\J	.	8ee\J	.	.	.
.	.	.	.	8e/	8cc'\	.	.	.	.	.	4e\	-tris	4cc\	-bis	.	.
.	.	.	.	8e/J	8cc'\J	.	.	.	.	.	.	.	.	.	.	.
=103	=103	=103	=103	=103	=103	=103	=103	=103	=103	=103	=103	=103	=103	=103	=103	=103
2CC/	.	1ryy	.	8f/L	(>8dd\L	.	4C/	-bis	4G/	-bis	8f\L	mi-	8dd\L	Quo-	.	.
.	.	.	.	8g/J	8ee\J)	.	.	.	.	.	8g\J	.	8ee\J	.	.	.
.	.	.	.	4e/	4cc\	.	4C/	Quo-	4G/	qui	4e\	-se-	4cc\	-ni-	.	.
*X8ba	*	*	*	*	*	*	*	*	*	*	*	*	*	*	*	*
*	*	*	*	*tremolo	*	*	*	*	*	*	*	*	*	*	*	*
!	!	!	!	!	!	!LO:DY:b:rj	!	!	!	!	!	!	!	!	!	!
8C/L	.	.	.	16ee\LL	16gg\LL	f	8C/L	-ni-	4G/	se-	4e\	-re-	4gg\	.	.	.
.	.	.	.	16ee\	16gg\	.	.	.	.	.	.	.	.	.	.	.
8D/	.	.	.	16ee\	16gg\	.	8D/	.	.	.	.	.	.	.	.	.
.	.	.	.	16ee\	16gg\JJ	.	.	.	.	.	.	.	.	.	.	.
8E/	X 6	.	.	16ee\	16gg\LL	.	8E/	-am	4c\	-des	4g\	-re	4gg\	-am	.	.
.	.	.	.	16ee\	16gg\	.	.	.	.	.	.	.	.	.	.	.
8C/J	.	.	.	16ee\	16gg\	.	8F/J	.	.	.	.	.	.	.	.	.
.	.	.	.	16ee\JJ	16gg\JJ	.	.	.	.	.	.	.	.	.	.	.
=104	=104	=104	=104	=104	=104	=104	=104	=104	=104	=104	=104	=104	=104	=104	=104	=104
*	*	*	*	*	*tremolo	*	*	*	*	*	*	*	*	*	*	*
8F\L	9 3	1ryy	.	16a/LL	16gg\LL	.	8F\L	Tu	4c\	ad	4a\	no-	4gg\	Tu	.	.
.	.	.	.	16a/	16gg\	.	.	.	.	.	.	.	.	.	.	.
8G\	.	.	.	16a/	16gg\	.	8G\	.	.	.	.	.	.	.	.	.
.	.	.	.	16a/	16gg\JJ	.	.	.	.	.	.	.	.	.	.	.
8A\	.	.	.	16a/	16gg\LL	.	8A\	so-	4c\	dex-	4a\	.	4gg\	so-	.	.
.	.	.	.	16a/	16gg\	.	.	.	.	.	.	.	.	.	.	.
8F\J	.	.	.	16a/	16gg\	.	8F\J	.	.	.	.	.	.	.	.	.
.	.	.	.	16a/JJ	16gg\JJ	.	.	.	.	.	.	.	.	.	.	.
8BB/L	7 5	.	.	16a/LL	16ff\LL	.	8BB/L	-lus	4d\	-te-	4a\	-bis	4ff\	.	.	.
.	.	.	.	16a/	16ff\	.	.	.	.	.	.	.	.	.	.	.
8C/	.	.	.	16a/	16ff\	.	8C/	.	.	.	.	.	.	.	.	.
.	.	.	.	16a/	16ff\JJ	.	.	.	.	.	.	.	.	.	.	.
8D/	.	.	.	16a/	16ff\LL	.	8D/	San-	4d\	-ram	4a\	.	4ff\	-lus	.	.
.	.	.	.	16a/	16ff\	.	.	.	.	.	.	.	.	.	.	.
8BB/J	.	.	.	16a/	16ff\	.	8BB/J	.	.	.	.	.	.	.	.	.
.	.	.	.	16a/JJ	16ff\JJ	.	.	.	.	.	.	.	.	.	.	.
!LO:LB:g=original	!	!	!	!	!	!	!	!	!	!	!	!	!	!	!	!
=105	=105	=105	=105	=105	=105	=105	=105	=105	=105	=105	=105	=105	=105	=105	=105	=105
8E\L	9 3	1ryy	.	16g/LL	16ff\LL	.	8E\L	-ctus	4B\	.	4g\	Quo-	4ff\	San-	.	.
.	.	.	.	16g/	16ff\	.	.	.	.	.	.	.	.	.	.	.
8F\	.	.	.	16g/	16ff\	.	8F\	.	.	.	.	.	.	.	.	.
.	.	.	.	16g/	16ff\JJ	.	.	.	.	.	.	.	.	.	.	.
8G\	.	.	.	16g/	16ff\LL	.	8G\	.	8B\	Pa-	8g\	-ni-	8ff\	.	.	.
.	.	.	.	16g/	16ff\	.	.	.	.	.	.	.	.	.	.	.
8E\J	.	.	.	16g/	16ff\	.	8E\J	.	8B\	.	8g\	-am	8ff\	-ctus	.	.
.	.	.	.	16g/JJ	16ff\JJ	.	.	.	.	.	.	.	.	.	.	.
8AA/L	7 5	.	.	16g/LL	16ee\LL	.	8AA/L	Do-	4c\	-tris	4g\	Tu	4ee\	San-	.	.
.	.	.	.	16g/	16ee\	.	.	.	.	.	.	.	.	.	.	.
8BB/	.	.	.	16g/	16ee\	.	8BB/	-mi-	.	.	.	.	.	.	.	.
.	.	.	.	16g/	16ee\JJ	.	.	.	.	.	.	.	.	.	.	.
8C/	.	.	.	16g/	16ee\LL	.	8C/	-nus	4c\	quo-	4g\	so-	4ee\	-ctus	.	.
.	.	.	.	16g/	16ee\	.	.	.	.	.	.	.	.	.	.	.
8AA/J	.	.	.	16g/	16ee\	.	8AA/J	.	.	.	.	.	.	.	.	.
.	.	.	.	16g/JJ	16ee\JJ	.	.	.	.	.	.	.	.	.	.	.
=106	=106	=106	=106	=106	=106	=106	=106	=106	=106	=106	=106	=106	=106	=106	=106	=106
!	!	!	!	!	!	!	!	!	!	!	!	!	!	!	!LO:N:vis=0	!LO:N:vis=0
8D\L	9 3	1ryy	.	16f/LL	16ee\LL	.	8D\L	Tu	8A\	-ni-	8f\L	-lus	8ee\	Do-	0r	0r
.	.	.	.	16f/	16ee\	.	.	.	.	.	.	.	.	.	.	.
8E\	.	.	.	16f/	16ee\	.	8E\	so-	8A\	-am	8f\	al-	8ee\	-mi-	.	.
.	.	.	.	16f/	16ee\JJ	.	.	.	.	.	.	.	.	.	.	.
8F\	.	.	.	16f/	16ee\LL	.	8F\	.	8A\	tu	8f\	-tis-	8ee\	.	.	.
.	.	.	.	16f/	16ee\	.	.	.	.	.	.	.	.	.	.	.
8D\J	.	.	.	16f/	16ee\	.	8D\J	-lus	8A\	so-	8f\J	.	8ee\	-nus	.	.
.	.	.	.	16f/JJ	16ee\JJ	.	.	.	.	.	.	.	.	.	.	.
8GG/L	7 5	.	.	16f/LL	16dd\LL	.	8GG/L	San-	4B\	-lus	4f\	.	4dd\	tu	.	.
.	.	.	.	16f/	16dd\	.	.	.	.	.	.	.	.	.	.	.
8AA/	.	.	.	16f/	16dd\	.	8AA/	.	.	.	.	.	.	.	.	.
.	.	.	.	16f/	16dd\JJ	.	.	.	.	.	.	.	.	.	.	.
8BB/	.	.	.	16f/	16dd\LL	.	8BB/	-ctus	8B\	San-	8f\L	-si-	8dd\	so-	.	.
.	.	.	.	16f/	16dd\	.	.	.	.	.	.	.	.	.	.	.
8GG/J	.	.	.	16f/	16dd\	.	8GG/J	.	8B\	-ctus	8f\J	-mus	8dd\	-lus	.	.
.	.	.	.	16f/JJ	16dd\JJ	.	.	.	.	.	.	.	.	.	.	.
!	!	!	!	!	!	!	!LO:LB:g=original	!	!	!	!	!	!	!	!	!
=107	=107	=107	=107	=107	=107	=107	=107	=107	=107	=107	=107	=107	=107	=107	=107	=107
8C/L	9 3	1ryy	.	16e/LL	16dd\LL	.	8C/L	Do-	8G/	tu-	8e\	Tu	8dd\	al-	.	.
.	.	.	.	16e/	16dd\	.	.	.	.	.	.	.	.	.	.	.
8BB/	.	.	.	16e/	16dd\	.	8BB/	.	8G/	-so	8e\	so-	8dd\	-tis-	.	.
.	.	.	.	16e/	16dd\JJ	.	.	.	.	.	.	.	.	.	.	.
8C/	.	.	.	16e/	16dd\LL	.	8C/	-mi-	4G/	-lus	4e\	-lus	4dd\	-si-	.	.
.	.	.	.	16e/	16dd\	.	.	.	.	.	.	.	.	.	.	.
8D/J	.	.	.	16e/	16dd\	.	8D/J	.	.	.	.	.	.	.	.	.
.	.	.	.	16e/JJ	16dd\JJ	.	.	.	.	.	.	.	.	.	.	.
!	!	!	!	!	!	!	!	!	!LO:LB:g=original	!	!	!	!LO:LB:g=original	!	!	!
8E\L	X 6	.	.	16e/LL	16cc\LL	.	8E\L	-nus	4G/	San-	4e\	Do-	4cc\	.	.	.
.	.	.	.	16e/	16cc\	.	.	.	.	.	.	.	.	.	.	.
8D\	.	.	.	16e/	16cc\	.	8D\	al-	.	.	.	.	.	.	.	.
.	.	.	.	16e/	16cc\JJ	.	.	.	.	.	.	.	.	.	.	.
8E\	.	.	.	16e/	16cc\LL	.	8E\	-tis-	4c\	-ctus	4e\	-mi-	4cc\	-mus	.	.
.	.	.	.	16e/	16cc\	.	.	.	.	.	.	.	.	.	.	.
8F\J	.	.	.	16e/	16cc\	.	8F\J	.	.	.	.	.	.	.	.	.
.	.	.	.	16e/JJ	16cc\JJ	.	.	.	.	.	.	.	.	.	.	.
*	*	*	*	*Xtremolo	*Xtremolo	*	*	*	*	*	*	*	*	*	*	*
=108	=108	=108	=108	=108	=108	=108	=108	=108	=108	=108	=108	=108	=108	=108	=108	=108
4E\	X 4	1ryy	.	4e/	4e/ 4cc	.	4G\	-si-	4c\	San-	4e\	-nus	4cc\	Je-	4cc\	4ee\
.	X 3	.	.	.	.	.	.	.	.	.	.	.	.	.	.	.
4GG/	.	.	.	4d/	4d/ 4b	.	4G\	-mus	4d\	-ctus	4g\	.	4b\	-su	4g\	4dd\
2r	.	.	.	2r	2r	.	2r	.	2r	.	2r	.	2r	.	2r	2r
*clefC1	*	*	*	*	*	*	*	*	*	*	*	*	*	*	*	*
=109	=109	=109	=109	=109	=109	=109	=109	=109	=109	=109	=109	=109	=109	=109	=109	=109
!	!	!	!	!LO:TX:a:t=1	!LO:TX:a:t=1	!	!LO:TX:a:t=8	!	!LO:TX:a:t=8	!	!LO:TX:a:t=8	!	!LO:TX:a:t=8	!	!LO:TX:a:t=8	!LO:TX:a:t=8
!	!	!	!	!	!	!	!LO:N:vis=00	!	!LO:N:vis=00	!	!LO:N:vis=00	!	!LO:N:vis=00	!	!LO:N:vis=00	!LO:N:vis=00
12c/L	.	4cc\	.	1r	1r	.	00r	.	00r	.	00r	.	00r	.	00r	00r
12e/	.	.	.	.	.	.	.	.	.	.	.	.	.	.	.	.
12g/J	.	.	.	.	.	.	.	.	.	.	.	.	.	.	.	.
!	!	!LO:TX:b:i:t=Solo.	!	!	!	!	!	!	!	!	!	!	!	!	!	!
12c/L	.	2cc\	.	.	.	.	.	.	.	.	.	.	.	.	.	.
12e/	.	.	.	.	.	.	.	.	.	.	.	.	.	.	.	.
12g/J	.	.	.	.	.	.	.	.	.	.	.	.	.	.	.	.
*rep	*	*	*	*	*	*	*	*	*	*	*	*	*	*	*	*
12c/L	.	.	.	.	.	.	.	.	.	.	.	.	.	.	.	.
12e/	.	.	.	.	.	.	.	.	.	.	.	.	.	.	.	.
12g/J	.	.	.	.	.	.	.	.	.	.	.	.	.	.	.	.
*Xrep	*	*	*	*	*	*	*	*	*	*	*	*	*	*	*	*
*rep	*	*	*	*	*	*	*	*	*	*	*	*	*	*	*	*
12c/L	.	4dd\	.	.	.	.	.	.	.	.	.	.	.	.	.	.
12e/	.	.	.	.	.	.	.	.	.	.	.	.	.	.	.	.
12g/J	.	.	.	.	.	.	.	.	.	.	.	.	.	.	.	.
*Xrep	*	*	*	*	*	*	*	*	*	*	*	*	*	*	*	*
=110	=110	=110	=110	=110	=110	=110	=110	=110	=110	=110	=110	=110	=110	=110	=110	=110
12c/L	.	8ee\L|	.	4r	4r	.	.	.	.	.	.	.	.	.	.	.
12e/	.	.	.	.	.	.	.	.	.	.	.	.	.	.	.	.
.	.	8cc\J|	.	.	.	.	.	.	.	.	.	.	.	.	.	.
12g/J	.	.	.	.	.	.	.	.	.	.	.	.	.	.	.	.
12B/L	.	8ff\L|	.	4dd\	4ff\	.	.	.	.	.	.	.	.	.	.	.
12d/	.	.	.	.	.	.	.	.	.	.	.	.	.	.	.	.
.	.	8dd\J|	.	.	.	.	.	.	.	.	.	.	.	.	.	.
12f/J	.	.	.	.	.	.	.	.	.	.	.	.	.	.	.	.
12c/L	.	8ee\L|	.	4g/	4ee\	.	.	.	.	.	.	.	.	.	.	.
12e/	.	.	.	.	.	.	.	.	.	.	.	.	.	.	.	.
.	.	8cc\J|	.	.	.	.	.	.	.	.	.	.	.	.	.	.
12g/J	.	.	.	.	.	.	.	.	.	.	.	.	.	.	.	.
12G/L	.	8dd\L|	.	4f/	4dd\	.	.	.	.	.	.	.	.	.	.	.
12d/	.	.	.	.	.	.	.	.	.	.	.	.	.	.	.	.
.	.	8b\J|	.	.	.	.	.	.	.	.	.	.	.	.	.	.
12g/J	.	.	.	.	.	.	.	.	.	.	.	.	.	.	.	.
!	!	!	!	!LO:LB	!LO:LB:g=original	!	!	!	!	!	!	!	!	!	!	!
=111	=111	=111	=111	=111	=111	=111	=111	=111	=111	=111	=111	=111	=111	=111	=111	=111
12c/L	.	4cc\	.	4e/	4cc\	.	.	.	.	.	.	.	.	.	.	.
12e/	.	.	.	.	.	.	.	.	.	.	.	.	.	.	.	.
12g/J	.	.	.	.	.	.	.	.	.	.	.	.	.	.	.	.
*rep	*	*	*	*	*	*	*	*	*	*	*	*	*	*	*	*
12c/L	.	4cc\	.	4r	4r	.	.	.	.	.	.	.	.	.	.	.
12e/	.	.	.	.	.	.	.	.	.	.	.	.	.	.	.	.
12g/J	.	.	.	.	.	.	.	.	.	.	.	.	.	.	.	.
*Xrep	*	*	*	*	*	*	*	*	*	*	*	*	*	*	*	*
*rep	*	*	*	*	*	*	*	*	*	*	*	*	*	*	*	*
12c/L	.	4cc\	.	2r	2r	.	.	.	.	.	.	.	.	.	.	.
12e/	.	.	.	.	.	.	.	.	.	.	.	.	.	.	.	.
12g/J	.	.	.	.	.	.	.	.	.	.	.	.	.	.	.	.
*Xrep	*	*	*	*	*	*	*	*	*	*	*	*	*	*	*	*
12G/L	.	4dd\	.	.	.	.	.	.	.	.	.	.	.	.	.	.
12d/	.	.	.	.	.	.	.	.	.	.	.	.	.	.	.	.
12g/J	.	.	.	.	.	.	.	.	.	.	.	.	.	.	.	.
!LO:LB:g=original	!	!LO:LB:g=original	!	!	!	!	!	!	!	!	!	!	!	!	!	!
=112	=112	=112	=112	=112	=112	=112	=112	=112	=112	=112	=112	=112	=112	=112	=112	=112
!	!	!	!	!LO:TX:a:t=1	!LO:TX:a:t=1	!	!	!	!	!	!	!	!	!	!	!
12c/L	.	8ee\L	.	1r	1r	.	.	.	.	.	.	.	.	.	.	.
12e/	.	.	.	.	.	.	.	.	.	.	.	.	.	.	.	.
.	.	8cc\J	.	.	.	.	.	.	.	.	.	.	.	.	.	.
12g/J	.	.	.	.	.	.	.	.	.	.	.	.	.	.	.	.
12B/L	.	8ff\L	.	.	.	.	.	.	.	.	.	.	.	.	.	.
12d/	.	.	.	.	.	.	.	.	.	.	.	.	.	.	.	.
.	.	8dd\J	.	.	.	.	.	.	.	.	.	.	.	.	.	.
12f/J	.	.	.	.	.	.	.	.	.	.	.	.	.	.	.	.
12c/L	.	8gg\L	.	.	.	.	.	.	.	.	.	.	.	.	.	.
12e/	.	.	.	.	.	.	.	.	.	.	.	.	.	.	.	.
.	.	8ee\J	.	.	.	.	.	.	.	.	.	.	.	.	.	.
12g/J	.	.	.	.	.	.	.	.	.	.	.	.	.	.	.	.
12B/L	.	8aa\L	.	.	.	.	.	.	.	.	.	.	.	.	.	.
12d/	.	.	.	.	.	.	.	.	.	.	.	.	.	.	.	.
.	.	8ff\J	.	.	.	.	.	.	.	.	.	.	.	.	.	.
12g/J	.	.	.	.	.	.	.	.	.	.	.	.	.	.	.	.
=113	=113	=113	=113	=113	=113	=113	=113	=113	=113	=113	=113	=113	=113	=113	=113	=113
!	!	!	!	!	!	!	!LO:N:vis=00	!	!LO:N:vis=00	!	!LO:N:vis=00	!	!LO:N:vis=00	!	!LO:N:vis=00	!LO:N:vis=00
12c/L	.	8gg\L	.	4r	4r	.	00r	.	00r	.	00r	.	00r	.	00r	00r
12e/	.	.	.	.	.	.	.	.	.	.	.	.	.	.	.	.
.	.	8ee\J	.	.	.	.	.	.	.	.	.	.	.	.	.	.
12g/J	.	.	.	.	.	.	.	.	.	.	.	.	.	.	.	.
12B/L	.	8ff\L	.	4dd\	4ff\	.	.	.	.	.	.	.	.	.	.	.
12d/	.	.	.	.	.	.	.	.	.	.	.	.	.	.	.	.
.	.	8dd\J	.	.	.	.	.	.	.	.	.	.	.	.	.	.
12f/J	.	.	.	.	.	.	.	.	.	.	.	.	.	.	.	.
12c/L	.	8ee\L	.	4g/	4ee\	.	.	.	.	.	.	.	.	.	.	.
12e/	.	.	.	.	.	.	.	.	.	.	.	.	.	.	.	.
.	.	8cc\J	.	.	.	.	.	.	.	.	.	.	.	.	.	.
12g/J	.	.	.	.	.	.	.	.	.	.	.	.	.	.	.	.
12G/L	.	8dd\L	.	4f/	4dd\	.	.	.	.	.	.	.	.	.	.	.
12d/	.	.	.	.	.	.	.	.	.	.	.	.	.	.	.	.
.	.	8b\J	.	.	.	.	.	.	.	.	.	.	.	.	.	.
12g/J	.	.	.	.	.	.	.	.	.	.	.	.	.	.	.	.
=114	=114	=114	=114	=114	=114	=114	=114	=114	=114	=114	=114	=114	=114	=114	=114	=114
12c/L	.	4cc\	.	1G 1e	1e 1cc	.	.	.	.	.	.	.	.	.	.	.
12e/	.	.	.	.	.	.	.	.	.	.	.	.	.	.	.	.
12g/J	.	.	.	.	.	.	.	.	.	.	.	.	.	.	.	.
*rep	*	*	*	*	*	*	*	*	*	*	*	*	*	*	*	*
12c/L	.	2cc\	.	.	.	.	.	.	.	.	.	.	.	.	.	.
12e/	.	.	.	.	.	.	.	.	.	.	.	.	.	.	.	.
12g/J	.	.	.	.	.	.	.	.	.	.	.	.	.	.	.	.
*Xrep	*	*	*	*	*	*	*	*	*	*	*	*	*	*	*	*
*rep	*	*	*	*	*	*	*	*	*	*	*	*	*	*	*	*
12c/L	.	.	.	.	.	.	.	.	.	.	.	.	.	.	.	.
12e/	.	.	.	.	.	.	.	.	.	.	.	.	.	.	.	.
12g/J	.	.	.	.	.	.	.	.	.	.	.	.	.	.	.	.
*Xrep	*	*	*	*	*	*	*	*	*	*	*	*	*	*	*	*
*rep	*	*	*	*	*	*	*	*	*	*	*	*	*	*	*	*
12c/L	.	8ee\L	.	.	.	.	.	.	.	.	.	.	.	.	.	.
12e/	.	.	.	.	.	.	.	.	.	.	.	.	.	.	.	.
.	.	8gg\J	.	.	.	.	.	.	.	.	.	.	.	.	.	.
12g/J	.	.	.	.	.	.	.	.	.	.	.	.	.	.	.	.
*Xrep	*	*	*	*	*	*	*	*	*	*	*	*	*	*	*	*
=115	=115	=115	=115	=115	=115	=115	=115	=115	=115	=115	=115	=115	=115	=115	=115	=115
12c/L	.	4cc\	.	2.G/ 2.e	2.e/ 2.cc	.	.	.	.	.	.	.	.	.	.	.
12e/	.	.	.	.	.	.	.	.	.	.	.	.	.	.	.	.
12g/J	.	.	.	.	.	.	.	.	.	.	.	.	.	.	.	.
*rep	*	*	*	*	*	*	*	*	*	*	*	*	*	*	*	*
12c/L	.	8.ee\L	.	.	.	.	.	.	.	.	.	.	.	.	.	.
12e/	.	.	.	.	.	.	.	.	.	.	.	.	.	.	.	.
12g/J	.	.	.	.	.	.	.	.	.	.	.	.	.	.	.	.
*Xrep	*	*	*	*	*	*	*	*	*	*	*	*	*	*	*	*
.	.	16gg\Jk	.	.	.	.	.	.	.	.	.	.	.	.	.	.
*rep	*	*	*	*	*	*	*	*	*	*	*	*	*	*	*	*
12c/L	.	4cc\	.	.	.	.	.	.	.	.	.	.	.	.	.	.
12e/	.	.	.	.	.	.	.	.	.	.	.	.	.	.	.	.
12g/J	.	.	.	.	.	.	.	.	.	.	.	.	.	.	.	.
*Xrep	*	*	*	*	*	*	*	*	*	*	*	*	*	*	*	*
12G/L	.	8dd\L	.	4f/	4dd\	.	.	.	.	.	.	.	.	.	.	.
12d/	.	.	.	.	.	.	.	.	.	.	.	.	.	.	.	.
.	.	8b\J	.	.	.	.	.	.	.	.	.	.	.	.	.	.
12f/J	.	.	.	.	.	.	.	.	.	.	.	.	.	.	.	.
=116	=116	=116	=116	=116	=116	=116	=116	=116	=116	=116	=116	=116	=116	=116	=116	=116
12c/L	.	4cc\	.	4e/	4e/ 4cc	.	.	.	.	.	.	.	.	.	.	.
12e/	.	.	.	.	.	.	.	.	.	.	.	.	.	.	.	.
12g/J	.	.	.	.	.	.	.	.	.	.	.	.	.	.	.	.
*rep	*	*	*	*	*	*	*	*	*	*	*	*	*	*	*	*
12c/L	.	8ee\L	.	4r	4r	.	.	.	.	.	.	.	.	.	.	.
12e/	.	.	.	.	.	.	.	.	.	.	.	.	.	.	.	.
.	.	8gg\J	.	.	.	.	.	.	.	.	.	.	.	.	.	.
12g/J	.	.	.	.	.	.	.	.	.	.	.	.	.	.	.	.
*Xrep	*	*	*	*	*	*	*	*	*	*	*	*	*	*	*	*
4c/	.	4ccc\	.	(>16ee\LL	16ccc\LL	.	.	.	.	.	.	.	.	.	.	.
.	.	.	.	16dd\	16bb\	.	.	.	.	.	.	.	.	.	.	.
.	.	.	.	16ee\	16ccc\	.	.	.	.	.	.	.	.	.	.	.
.	.	.	.	16ff\JJ)	16ddd\JJ	.	.	.	.	.	.	.	.	.	.	.
4r	.	4r	.	4ee\	8ccc\L	.	.	.	.	.	.	.	.	.	.	.
.	.	.	.	.	8gg\J	.	.	.	.	.	.	.	.	.	.	.
*clefF4	*	*	*	*	*	*	*	*	*	*	*	*	*	*	*	*
=117	=117	=117	=117	=117	=117	=117	=117	=117	=117	=117	=117	=117	=117	=117	=117	=117
*tremolo	*	*	*	*tremolo	*	*	*	*	*	*	*	*	*	*	*	*
!LO:TX:a:i:t=Tutti.	!	!	!	!	!	!	!	!	!	!	!	!	!	!	!	!
8F\L	4 2	1ryy	.	16dd\LL	4bb\	.	2F\	Cum	2B\	Cum	2g\	Cum	2dd\	Cum	4g/	4dd\
.	.	.	.	16dd\	.	.	.	.	.	.	.	.	.	.	.	.
8F\	.	.	.	16dd\	.	.	.	.	.	.	.	.	.	.	.	.
.	.	.	.	16dd\	.	.	.	.	.	.	.	.	.	.	.	.
8F\	.	.	.	16dd\	8ddd\L	.	.	.	.	.	.	.	.	.	4r	4r
.	.	.	.	16dd\	.	.	.	.	.	.	.	.	.	.	.	.
8F\J	.	.	.	16dd\	8bb\J	.	.	.	.	.	.	.	.	.	.	.
.	.	.	.	16dd\JJ	.	.	.	.	.	.	.	.	.	.	.	.
!LO:SIC:s=8E\L	!	!	!	!	!	!	!	!	!	!	!	!	!	!	!	!
8F\L	X 6	.	.	16gg\LL	8ccc\L	.	4E\	Sanc-	4c\	Sanc-	4g\	Sanc-	4cc\	sanc-	4cc\	4ee\
.	.	.	.	16gg\	.	.	.	.	.	.	.	.	.	.	.	.
!LO:SIC:s=8E\	!	!	!	!	!	!	!	!	!	!	!	!	!	!	!	!
8F\	.	.	.	16gg\	8gg\J	.	.	.	.	.	.	.	.	.	.	.
.	.	.	.	16gg\	.	.	.	.	.	.	.	.	.	.	.	.
!LO:SIC:s=8E	!	!	!	!	!	!	!	!	!	!	!	!	!	!	!	!
8F\	.	.	.	16gg\	4gg\	.	4E\	-to	4c\	-to	4g\	-to	4cc\	-to	4r	4r
.	.	.	.	16gg\	.	.	.	.	.	.	.	.	.	.	.	.
!LO:SIC:s=8E\J	!	!	!	!	!	!	!	!	!	!	!	!	!	!	!	!
8F\J	.	.	.	16gg\	.	.	.	.	.	.	.	.	.	.	.	.
.	.	.	.	16gg\JJ	.	.	.	.	.	.	.	.	.	.	.	.
!LO:LB:g=original	!	!LO:LB:g=original	!	!	!	!	!	!	!	!	!	!	!	!	!	!
=118	=118	=118	=118	=118	=118	=118	=118	=118	=118	=118	=118	=118	=118	=118	=118	=118
8F\L	4 2	1ryy	.	16dd\LL	4bb\	.	4F\	spi-	4B\	spi-	4g\	spi-	4dd\	spi-	4g/	4dd\
.	.	.	.	16dd\	.	.	.	.	.	.	.	.	.	.	.	.
8F\	.	.	.	16dd\	.	.	.	.	.	.	.	.	.	.	.	.
.	.	.	.	16dd\	.	.	.	.	.	.	.	.	.	.	.	.
8F\	.	.	.	16dd\	8ddd\L	.	4F\	-ri-	4B\	-ri-	4g\	-ri-	4dd\	-ri-	4r	4r
.	.	.	.	16dd\	.	.	.	.	.	.	.	.	.	.	.	.
8F\J	.	.	.	16dd\	8bb\J	.	.	.	.	.	.	.	.	.	.	.
.	.	.	.	16dd\JJ	.	.	.	.	.	.	.	.	.	.	.	.
!LO:SIC:s=8E\L	!	!	!	!	!	!	!	!	!	!	!	!	!	!	!	!
8F\L	X 6	.	.	16gg\LL	8ccc\L	.	8E\L	-tu	8c\	-tu	8g\L	-tu	8cc\L	-tu	4cc\	4ee\
.	.	.	.	16gg\	.	.	.	.	.	.	.	.	.	.	.	.
!LO:SIC:s=8E\	!	!	!	!	!	!	!	!	!	!	!	!	!	!	!	!
8F\	.	.	.	16gg\	8gg\J	.	8E\	in	8c\	in	8g\	.	8cc\	in	.	.
.	.	.	.	16gg\	.	.	.	.	.	.	.	.	.	.	.	.
!LO:SIC:s=8E\	!	!	!	!	!	!	!	!	!	!	!	!	!	!	!	!
8F\	.	.	.	16gg\	4gg\	.	8E\	glo-	8c\	glo-	8g\	.	8cc\	glo-	4r	4r
.	.	.	.	16gg\	.	.	.	.	.	.	.	.	.	.	.	.
!LO:SIC:s=8E\J	!	!	!	!	!	!	!	!	!	!	!	!	!	!	!	!
8F\J	.	.	.	16gg\	.	.	8E\J	-ri-	8c\	-ri-	8g\J	.	8cc\J	-ri	.	.
.	.	.	.	16gg\JJ	.	.	.	.	.	.	.	.	.	.	.	.
*	*	*	*	*Xtremolo	*	*	*	*	*	*	*	*	*	*	*	*
!	!	!	!	!	!	!	!	!	!	!	!LO:LB:g=original	!	!	!	!	!
=119	=119	=119	=119	=119	=119	=119	=119	=119	=119	=119	=119	=119	=119	=119	=119	=119
!	!	!	!	!	!	!	!	!	!	!	!	!	!	!	!LO:TX:a:t=1	!LO:TX:a:t=1
8F\L	.	1ryy	.	4cc\	8aa\L	.	4F\	-a	4d\	-a	4a\	in	4dd\	-a	1r	1r
8F\	.	.	.	.	8ccc\	.	.	.	.	.	.	.	.	.	.	.
8F\	.	.	.	8b\L	8dd\	.	8F\L	De-	8d\	De-	8a\L	glo-	8dd\	De-	.	.
8F\J	.	.	.	8dd\J	8ff\J	.	8F\J	-i	8d\	-i	8a\J	-ri-	8dd\	-i	.	.
*Xtremolo	*	*	*	*	*	*	*	*	*	*	*	*	*	*	*	*
!LO:TX:a:t=P:problem: mixed beam	!	!	!	!LO:TX:a:t=P:problem:mixed beam	!	!	!	!	!	!	!	!	!	!	!	!
8G\L	X 4	.	.	8cc\L	8ee\L	.	4G\	Pa-	4c\	Pa-	4g\	-a-	4ee\	Pa-	.	.
8G\	.	.	.	8ee\	8gg\	.	.	.	.	.	.	.	.	.	.	.
8GG/	X 3	.	.	8d/	8b\	.	4G\	-tris	4d\	-tris	4f\	-De-	4b\	-tris	.	.
8GG/J	.	.	.	8f/J	8dd\J	.	.	.	.	.	.	.	.	.	.	.
!	!	!	!	!	!LO:PB:g=original	!	!	!	!	!	!	!	!	!	!	!LO:LB:g=original
=120	=120	=120	=120	=120	=120	=120	=120	=120	=120	=120	=120	=120	=120	=120	=120	=120
!	!	!	!	!	!	!LO:DY:b	!	!	!	!	!	!	!	!	!	!LO:TX:a:i:t=Solo.
!	!	!	!	!	!	!LO:HP:b:t=p.	!	!	!	!	!	!	!	!	!	!
1CC 1GG [>1C	.	1ryy	.	4c/ 4e	4e/ 4cc	p	1C	a-	1e	A-	1g	-i-	4.cc\	De-	4c/	4.cc\
.	.	.	.	4c/ 4e	4e/ 4cc	.	.	.	.	.	.	.	.	.	4r	.
.	.	.	.	.	.	.	.	.	.	.	.	.	8ee\	-i	.	8ee\
.	.	.	.	4c/ 4e	4e/ 4cc	.	.	.	.	.	.	.	4cc\	pa-	2r	4cc\
.	.	.	.	4c/ 4e	4e/ 4cc	.	.	.	.	.	.	.	4ee\	-tris	.	4ee\
=121	=121	=121	=121	=121	=121	=121	=121	=121	=121	=121	=121	=121	=121	=121	=121	=121
1CC 1GG 1C_>	.	1ryy	.	4c/ 4e	4e/ 4cc	.	1C	-men	1e	-men	1g	-Pa-	4cc\	A-	4c/	4cc\
.	.	.	.	4c/ 4e	4e/ 4cc	.	.	.	.	.	.	.	4ee\	.	4r	4ee\
.	.	.	.	4c/ 4e	4e/ 4cc	.	.	.	.	.	.	.	2gg\	-men	2r	2gg\
.	.	.	.	4c/ 4e	4e/ 4cc	.	.	.	.	.	.	.	.	.	.	.
=122	=122	=122	=122	=122	=122	=122	=122	=122	=122	=122	=122	=122	=122	=122	=122	=122
*	*	*	*	*	*^	*	*	*	*	*	*	*	*	*	*	*
!	!	!	!	!	!	!LO:TX:a:t=P:problem:całe nuty zapisane pośrodku taktu	!	!	!	!	!	!	!	!	!	!	!
1CC 1GG 1C_>	.	1ryy	.	4c/ 4e	4cc/	1e	.	1C	a-	1e	a-	1g	-tris	4.cc\	De-	4c/	4.cc\
.	.	.	.	4c/ 4e	4cc/	.	.	.	.	.	.	.	.	.	.	4r	.
.	.	.	.	.	.	.	.	.	.	.	.	.	.	8ee\	-i	.	8ee\
.	.	.	.	4c/ 4e	4cc/	.	.	.	.	.	.	.	.	4cc\	pa-	2r	4cc\
.	.	.	.	4c/ 4e	4cc/	.	.	.	.	.	.	.	.	4ee\	.	.	4ee\
!	!	!	!	!	!	!	!LO:LB:g=original	!	!	!	!	!	!	!LO:LB:g=original	!	!	!
=123	=123	=123	=123	=123	=123	=123	=123	=123	=123	=123	=123	=123	=123	=123	=123	=123	=123
1CC 1GG 1C]	.	1ryy	.	4c/ 4e	4cc/	1e	.	2C/	-men	2e\	-men	2g\	a-	4cc\	tris	4c/	4cc\
.	.	.	.	4c/ 4e	4cc/	.	.	.	.	.	.	.	.	8dd\L	a-	4r	4dd\
.	.	.	.	.	.	.	.	.	.	.	.	.	.	8b\J	.	.	.
.	.	.	.	4c/ 4e	4cc/	.	.	4C/	.	4e\	.	4g\	-men	4cc\	-men	2r	4cc\
.	.	.	.	4c/ 4e	4cc/	.	.	4r	.	4r	.	4r	.	4r	.	.	4r
!	!	!	!	!LO:LB:g=original	!	!	!	!	!	!LO:LB:g=original	!	!	!	!	!	!LO:LB:g=original	!
=124	=124	=124	=124	=124	=124	=124	=124	=124	=124	=124	=124	=124	=124	=124	=124	=124	=124
!LO:TX:b:i:t=pedale.	!	!LO:TX:b:i:t=Solo.	!	!	!	!	!	!LO:TX:a:t=15	!	!LO:TX:a:t=15	!	!LO:TX:a:t=15.	!	!LO:TX:a:t=15	!	!LO:TX:a:t=15	!LO:TX:a:t=15
!	!	!	!	!	!	!	!	!LO:N:vis=00	!	!LO:N:vis=00	!	!LO:N:vis=00	!	!LO:N:vis=00	!	!LO:N:vis=00	!LO:N:vis=00
[>1C	.	4ccc\	.	4c/ 4e	4cc/	1e	.	00r	.	00r	.	00r	.	00r	.	00r	00r
.	.	8bb\L	.	4c/ 4e	4cc/	.	.	.	.	.	.	.	.	.	.	.	.
.	.	8aa\J	.	.	.	.	.	.	.	.	.	.	.	.	.	.	.
.	.	4gg\	.	4c/ 4e	4cc/	.	.	.	.	.	.	.	.	.	.	.	.
.	.	8ff\L	.	4c/ 4e	4cc/	.	.	.	.	.	.	.	.	.	.	.	.
.	.	8ee\J	.	.	.	.	.	.	.	.	.	.	.	.	.	.	.
=125	=125	=125	=125	=125	=125	=125	=125	=125	=125	=125	=125	=125	=125	=125	=125	=125	=125
1C_>	.	8ff\L	.	4c/ 4e	4cc/	1e	.	.	.	.	.	.	.	.	.	.	.
.	.	8gg\	.	.	.	.	.	.	.	.	.	.	.	.	.	.	.
.	.	8aa\	.	4c/ 4e	4cc/	.	.	.	.	.	.	.	.	.	.	.	.
.	.	8ff\J	.	.	.	.	.	.	.	.	.	.	.	.	.	.	.
.	.	2gg\	.	4c/ 4e	4cc/	.	.	.	.	.	.	.	.	.	.	.	.
.	.	.	.	4c/ 4e	4cc/	.	.	.	.	.	.	.	.	.	.	.	.
=126	=126	=126	=126	=126	=126	=126	=126	=126	=126	=126	=126	=126	=126	=126	=126	=126	=126
1C_>	.	8ff\L	.	4c/ 4e	4cc/	1e	.	.	.	.	.	.	.	.	.	.	.
.	.	8aa\	.	.	.	.	.	.	.	.	.	.	.	.	.	.	.
.	.	8dd\	.	4c/ 4e	4cc/	.	.	.	.	.	.	.	.	.	.	.	.
.	.	8ff\J	.	.	.	.	.	.	.	.	.	.	.	.	.	.	.
.	.	8ee\L	.	4c/ 4e	4cc/	.	.	.	.	.	.	.	.	.	.	.	.
.	.	8gg\	.	.	.	.	.	.	.	.	.	.	.	.	.	.	.
.	.	8cc\	.	4c/ 4e	4cc/	.	.	.	.	.	.	.	.	.	.	.	.
.	.	8ee\J	.	.	.	.	.	.	.	.	.	.	.	.	.	.	.
!LO:LB:g=original	!	!LO:LB:g=original	!	!	!	!	!	!	!	!	!	!	!	!	!	!	!
=127	=127	=127	=127	=127	=127	=127	=127	=127	=127	=127	=127	=127	=127	=127	=127	=127	=127
1C_>	.	8dd\L	.	4c/ 4e	4cc/	1e	.	.	.	.	.	.	.	.	.	.	.
.	.	8ff\	.	.	.	.	.	.	.	.	.	.	.	.	.	.	.
.	.	8b\	.	4c/ 4e	4cc/	.	.	.	.	.	.	.	.	.	.	.	.
.	.	8dd\J	.	.	.	.	.	.	.	.	.	.	.	.	.	.	.
.	.	2cc\	.	4c/ 4e	4cc/	.	.	.	.	.	.	.	.	.	.	.	.
.	.	.	.	4c/ 4e	4cc/	.	.	.	.	.	.	.	.	.	.	.	.
=128	=128	=128	=128	=128	=128	=128	=128	=128	=128	=128	=128	=128	=128	=128	=128	=128	=128
!	!	!	!	!	!	!	!	!LO:N:vis=00	!	!LO:N:vis=00	!	!LO:N:vis=00	!	!LO:N:vis=00	!	!LO:N:vis=00	!LO:N:vis=00
1C_>	.	8dd\L	.	4c/ 4e	4cc/	1e	.	00r	.	00r	.	00r	.	00r	.	00r	00r
.	.	8ee\	.	.	.	.	.	.	.	.	.	.	.	.	.	.	.
.	.	8ff\	.	4c/ 4e	4cc/	.	.	.	.	.	.	.	.	.	.	.	.
.	.	8dd\J	.	.	.	.	.	.	.	.	.	.	.	.	.	.	.
.	.	8ee\L	.	4c/ 4e	4cc/	.	.	.	.	.	.	.	.	.	.	.	.
.	.	8dd\	.	.	.	.	.	.	.	.	.	.	.	.	.	.	.
.	.	8ee\	.	4c/ 4e	4cc/	.	.	.	.	.	.	.	.	.	.	.	.
.	.	8cc\J	.	.	.	.	.	.	.	.	.	.	.	.	.	.	.
=129	=129	=129	=129	=129	=129	=129	=129	=129	=129	=129	=129	=129	=129	=129	=129	=129	=129
1C_>	.	8dd\L	.	4c/ 4e	4cc/	1e	.	.	.	.	.	.	.	.	.	.	.
.	.	8ee\	.	.	.	.	.	.	.	.	.	.	.	.	.	.	.
.	.	8ff\	.	4c/ 4e	4cc/	.	.	.	.	.	.	.	.	.	.	.	.
.	.	8dd\J	.	.	.	.	.	.	.	.	.	.	.	.	.	.	.
.	.	4.gg\	.	4c/ 4e	4cc/	.	.	.	.	.	.	.	.	.	.	.	.
.	.	.	.	4c/ 4e	4cc/	.	.	.	.	.	.	.	.	.	.	.	.
.	.	8ee\	.	.	.	.	.	.	.	.	.	.	.	.	.	.	.
=130	=130	=130	=130	=130	=130	=130	=130	=130	=130	=130	=130	=130	=130	=130	=130	=130	=130
1C_>	.	8ff\L	.	4c/ 4e	4cc/	1e	.	.	.	.	.	.	.	.	.	.	.
.	.	8aa\	.	.	.	.	.	.	.	.	.	.	.	.	.	.	.
.	.	8dd\	.	4c/ 4e	4cc/	.	.	.	.	.	.	.	.	.	.	.	.
.	.	8ff\J	.	.	.	.	.	.	.	.	.	.	.	.	.	.	.
.	.	8ee\L	.	4c/ 4e	4cc/	.	.	.	.	.	.	.	.	.	.	.	.
.	.	8gg\	.	.	.	.	.	.	.	.	.	.	.	.	.	.	.
.	.	8cc\	.	4c/ 4e	4cc/	.	.	.	.	.	.	.	.	.	.	.	.
.	.	8ee\J	.	.	.	.	.	.	.	.	.	.	.	.	.	.	.
=131	=131	=131	=131	=131	=131	=131	=131	=131	=131	=131	=131	=131	=131	=131	=131	=131	=131
1C_>	.	8dd\L	.	4c/ 4e	4cc/	1e	.	.	.	.	.	.	.	.	.	.	.
.	.	8ee\	.	.	.	.	.	.	.	.	.	.	.	.	.	.	.
.	.	8ff\	.	4c/ 4e	4cc/	.	.	.	.	.	.	.	.	.	.	.	.
.	.	8dd\J	.	.	.	.	.	.	.	.	.	.	.	.	.	.	.
.	.	4.gg\	.	4c/ 4e	4cc/	.	.	.	.	.	.	.	.	.	.	.	.
.	.	.	.	4c/ 4e	4cc/	.	.	.	.	.	.	.	.	.	.	.	.
.	.	8ee\	.	.	.	.	.	.	.	.	.	.	.	.	.	.	.
!	!	!	!	!	!LO:LB:g=original	!	!	!	!	!	!	!	!	!	!	!	!
=132	=132	=132	=132	=132	=132	=132	=132	=132	=132	=132	=132	=132	=132	=132	=132	=132	=132
!	!	!	!	!	!	!	!	!LO:N:vis=00	!	!LO:N:vis=00	!	!LO:N:vis=00	!	!LO:N:vis=00	!	!LO:N:vis=00	!LO:N:vis=00
1C_>	.	8aa\L	.	4c/ 4e	4cc/	1e	.	00r	.	00r	.	00r	.	00r	.	00r	00r
.	.	8bb\	.	.	.	.	.	.	.	.	.	.	.	.	.	.	.
.	.	8ccc\	.	4c/ 4e	4cc/	.	.	.	.	.	.	.	.	.	.	.	.
.	.	8aa\J	.	.	.	.	.	.	.	.	.	.	.	.	.	.	.
.	.	4.gg\	.	4c/ 4e	4cc/	.	.	.	.	.	.	.	.	.	.	.	.
.	.	.	.	4c/ 4e	4cc/	.	.	.	.	.	.	.	.	.	.	.	.
.	.	8ee\	.	.	.	.	.	.	.	.	.	.	.	.	.	.	.
!LO:PB:g=original	!	!LO:PB:g=original	!	!	!	!	!	!	!	!	!	!	!	!	!	!	!
=133	=133	=133	=133	=133	=133	=133	=133	=133	=133	=133	=133	=133	=133	=133	=133	=133	=133
1C_>	.	8ff\L	.	4c/ 4e	4cc/	1e	.	.	.	.	.	.	.	.	.	.	.
.	.	8aa\	.	.	.	.	.	.	.	.	.	.	.	.	.	.	.
.	.	8dd\	.	4c/ 4e	4cc/	.	.	.	.	.	.	.	.	.	.	.	.
.	.	8ff\J	.	.	.	.	.	.	.	.	.	.	.	.	.	.	.
.	.	8ee\L	.	4c/ 4e	4cc/	.	.	.	.	.	.	.	.	.	.	.	.
.	.	8gg\	.	.	.	.	.	.	.	.	.	.	.	.	.	.	.
.	.	8cc\	.	4c/ 4e	4cc/	.	.	.	.	.	.	.	.	.	.	.	.
.	.	8ee\J	.	.	.	.	.	.	.	.	.	.	.	.	.	.	.
=134	=134	=134	=134	=134	=134	=134	=134	=134	=134	=134	=134	=134	=134	=134	=134	=134	=134
1C_>	.	8dd\L	.	4c/ 4e	4cc/	1e	.	.	.	.	.	.	.	.	.	.	.
.	.	8ff\	.	.	.	.	.	.	.	.	.	.	.	.	.	.	.
.	.	8b\	.	4c/ 4e	4cc/	.	.	.	.	.	.	.	.	.	.	.	.
.	.	8dd\J	.	.	.	.	.	.	.	.	.	.	.	.	.	.	.
.	.	2cc\	.	4c/ 4e	4cc/	.	.	.	.	.	.	.	.	.	.	.	.
.	.	.	.	4c/ 4e	4cc/	.	.	.	.	.	.	.	.	.	.	.	.
=135	=135	=135	=135	=135	=135	=135	=135	=135	=135	=135	=135	=135	=135	=135	=135	=135	=135
1C_>	.	8cc\L	.	4c/ 4e	4cc/	1e	.	.	.	.	.	.	.	.	.	.	.
.	.	8g\	.	.	.	.	.	.	.	.	.	.	.	.	.	.	.
.	.	8ee\	.	4c/ 4e	4cc/	.	.	.	.	.	.	.	.	.	.	.	.
.	.	8g\J	.	.	.	.	.	.	.	.	.	.	.	.	.	.	.
.	.	8cc\L	.	4c/ 4e	4cc/	.	.	.	.	.	.	.	.	.	.	.	.
.	.	8g\	.	.	.	.	.	.	.	.	.	.	.	.	.	.	.
.	.	8ee\	.	4c/ 4e	4cc/	.	.	.	.	.	.	.	.	.	.	.	.
.	.	8g\J	.	.	.	.	.	.	.	.	.	.	.	.	.	.	.
!	!	!	!	!LO:LB:g=original	!	!	!	!	!	!	!	!	!	!	!	!	!
=136	=136	=136	=136	=136	=136	=136	=136	=136	=136	=136	=136	=136	=136	=136	=136	=136	=136
!	!	!	!	!	!	!	!	!LO:N:vis=0	!	!LO:N:vis=0	!	!LO:N:vis=0	!	!LO:N:vis=0	!	!LO:N:vis=0	!LO:N:vis=0
1C_>	.	8cc\L	.	4c/ 4e	4cc/	1e	.	0r	.	0r	.	0r	.	0r	.	0r	0r
.	.	8g\	.	.	.	.	.	.	.	.	.	.	.	.	.	.	.
.	.	8ee\	.	4c/ 4e	4cc/	.	.	.	.	.	.	.	.	.	.	.	.
.	.	8g\J	.	.	.	.	.	.	.	.	.	.	.	.	.	.	.
.	.	2gg\	.	4c/ 4e	4cc/	.	.	.	.	.	.	.	.	.	.	.	.
.	.	.	.	4c/ 4e	4cc/	.	.	.	.	.	.	.	.	.	.	.	.
=137	=137	=137	=137	=137	=137	=137	=137	=137	=137	=137	=137	=137	=137	=137	=137	=137	=137
1C_>	.	8cc\L	.	4c/ 4e	4cc/	1e	.	.	.	.	.	.	.	.	.	.	.
.	.	8g\	.	.	.	.	.	.	.	.	.	.	.	.	.	.	.
.	.	8ee\	.	4c/ 4e	4cc/	.	.	.	.	.	.	.	.	.	.	.	.
.	.	8g\J	.	.	.	.	.	.	.	.	.	.	.	.	.	.	.
.	.	8cc\L	.	4c/ 4e	4cc/	.	.	.	.	.	.	.	.	.	.	.	.
.	.	8g\	.	.	.	.	.	.	.	.	.	.	.	.	.	.	.
.	.	8ee\	.	4c/ 4e	4cc/	.	.	.	.	.	.	.	.	.	.	.	.
.	.	8g\J	.	.	.	.	.	.	.	.	.	.	.	.	.	.	.
=138	=138	=138	=138	=138	=138	=138	=138	=138	=138	=138	=138	=138	=138	=138	=138	=138	=138
1C]	.	8cc\L	.	4c/ 4e	4cc/	1e	.	1r	.	1r	.	1r	.	1r	.	1r	1r
.	.	8g\	.	.	.	.	.	.	.	.	.	.	.	.	.	.	.
.	.	8ee\	.	4c/ 4e	4cc/	.	.	.	.	.	.	.	.	.	.	.	.
.	.	8g\J	.	.	.	.	.	.	.	.	.	.	.	.	.	.	.
.	.	2cc\	.	4c/ 4e	4cc/	.	.	.	.	.	.	.	.	.	.	.	.
.	.	.	.	4c/ 4e	4cc/	.	.	.	.	.	.	.	.	.	.	.	.
*	*	*	*	*	*v	*v	*	*	*	*	*	*	*	*	*	*	*
=139	=139	=139	=139	=139	=139	=139	=139	=139	=139	=139	=139	=139	=139	=139	=139	=139
*	*	*	*	*tremolo	*	*	*	*	*	*	*	*	*	*	*	*
8c\L	.	1ryy	.	16cc\LL	8ee\L	.	2c\	In	2c\	In	2g\	In	2ee\	In	4cc\	4ee\
.	.	.	.	16cc\	.	.	.	.	.	.	.	.	.	.	.	.
!LO:TX:a:i:t=Tutti	!	!	!	!	!	!	!	!	!	!	!	!	!	!	!	!
8G\	.	.	.	16cc\	8ccc\J	.	.	.	.	.	.	.	.	.	.	.
.	.	.	.	16cc\	.	.	.	.	.	.	.	.	.	.	.	.
8c\	.	.	.	16cc\	8.ccc\L	.	.	.	.	.	.	.	.	.	4r	4r
.	.	.	.	16cc\	.	.	.	.	.	.	.	.	.	.	.	.
8G\J	.	.	.	16cc\	.	.	.	.	.	.	.	.	.	.	.	.
.	.	.	.	16cc\JJ	32bb\LL	.	.	.	.	.	.	.	.	.	.	.
.	.	.	.	.	32ccc\JJJ	.	.	.	.	.	.	.	.	.	.	.
8B\L	6 3	.	.	16dd\LL	8ddd\L	.	8B\L	glo-	4d\	glo-	4g\	glo-	4ff\	glo-	4r	4r
.	.	.	.	16dd\	.	.	.	.	.	.	.	.	.	.	.	.
8G\	.	.	.	16dd\	8ff\J	.	8G\	.	.	.	.	.	.	.	.	.
.	.	.	.	16dd\	.	.	.	.	.	.	.	.	.	.	.	.
8B\	.	.	.	16dd\	8.ff\L	.	8B\	-ri-	8d\	-ri-	8g\L	-ri-	8ff\	-ri-	4dd\	4ff\
.	.	.	.	16dd\	.	.	.	.	.	.	.	.	.	.	.	.
8G\J	.	.	.	16dd\	.	.	8G\J	-a	8d\	-a	8g\J	-a	8ff\	-a	.	.
.	.	.	.	16dd\JJ	32ee\LL	.	.	.	.	.	.	.	.	.	.	.
.	.	.	.	.	32ff\JJJ	.	.	.	.	.	.	.	.	.	.	.
!LO:LB:g=original	!	!LO:LB:g=original	!	!	!	!	!	!	!	!	!	!	!	!	!	!
=140	=140	=140	=140	=140	=140	=140	=140	=140	=140	=140	=140	=140	=140	=140	=140	=140
!	!	!LO:TX:a:t=P:problem: na przestrzeni taktów 140-146 brak górnej pięciolinii w źródle	!	!	!	!	!	!	!	!	!	!	!	!	!	!
8c\L	.	1ryy	.	16cc\LL	8ee\L	.	4c\	De-	4c\	De-	4g\	De-	4ee\	De-	4cc\	4ee\
.	.	.	.	16cc\	.	.	.	.	.	.	.	.	.	.	.	.
8G\	.	.	.	16cc\	8ccc\J	.	.	.	.	.	.	.	.	.	.	.
.	.	.	.	16cc\	.	.	.	.	.	.	.	.	.	.	.	.
8c\	.	.	.	16cc\	8.ccc\L	.	4c\	-i	4c\	-i	4g\	-i	4ee\	-i	4r	4r
.	.	.	.	16cc\	.	.	.	.	.	.	.	.	.	.	.	.
8G\J	.	.	.	16cc\	.	.	.	.	.	.	.	.	.	.	.	.
.	.	.	.	16cc\JJ	32bb\LL	.	.	.	.	.	.	.	.	.	.	.
.	.	.	.	.	32ccc\JJJ	.	.	.	.	.	.	.	.	.	.	.
8B\L	6 5	.	.	16dd\LL	8ddd\L	.	8B\L	pa-	4c\	Pa-	4g\	Pa-	4ff\	pa-	4r	4r
.	.	.	.	16dd\	.	.	.	.	.	.	.	.	.	.	.	.
8G\	.	.	.	16dd\	8ff\J	.	8G\	.	.	.	.	.	.	.	.	.
.	.	.	.	16dd\	.	.	.	.	.	.	.	.	.	.	.	.
8B\	.	.	.	16dd\	8.ff\L	.	8B\	-tris	4c\	-tris	4g\	-tris	4ff\	-tris	4dd\	4ff\
.	.	.	.	16dd\	.	.	.	.	.	.	.	.	.	.	.	.
8G\J	.	.	.	16dd\	.	.	8G\J	.	.	.	.	.	.	.	.	.
.	.	.	.	16dd\JJ	32ee\LL	.	.	.	.	.	.	.	.	.	.	.
.	.	.	.	.	32ff\JJJ	.	.	.	.	.	.	.	.	.	.	.
!	!	!	!	!	!LO:LB:g=original	!	!	!	!	!	!	!	!	!	!	!
=141	=141	=141	=141	=141	=141	=141	=141	=141	=141	=141	=141	=141	=141	=141	=141	=141
*	*	*	*	*	*tremolo	*	*	*	*	*	*	*	*	*	*	*
8c\L	.	1ryy	.	16cc\LL	16ee\LL	.	2c\	A-	1c	In	2g\	a-	2ee\	A-	1cc	2ee\
.	.	.	.	16cc\	16ee\	.	.	.	.	.	.	.	.	.	.	.
8c\	.	.	.	16cc\	16ee\	.	.	.	.	.	.	.	.	.	.	.
.	.	.	.	16cc\	16ee\JJ	.	.	.	.	.	.	.	.	.	.	.
8c\	.	.	.	16cc\	16ee\LL	.	.	.	.	.	.	.	.	.	.	.
.	.	.	.	16cc\	16ee\	.	.	.	.	.	.	.	.	.	.	.
8c\J	.	.	.	16cc\	16ee\	.	.	.	.	.	.	.	.	.	.	.
.	.	.	.	16cc\JJ	16ee\JJ	.	.	.	.	.	.	.	.	.	.	.
*tremolo	*	*	*	*	*	*	*	*	*	*	*	*	*	*	*	*
8A\L	X 6	.	.	16cc\LL	16ff\LL	.	2A\	-men	.	.	2f\	-men	2ff\	-men	.	2ee\
.	.	.	.	16cc\	16ff\	.	.	.	.	.	.	.	.	.	.	.
8A\	.	.	.	16cc\	16ff\	.	.	.	.	.	.	.	.	.	.	.
.	.	.	.	16cc\	16ff\JJ	.	.	.	.	.	.	.	.	.	.	.
8A\	.	.	.	16cc\	16ff\LL	.	.	.	.	.	.	.	.	.	.	.
.	.	.	.	16cc\	16ff\	.	.	.	.	.	.	.	.	.	.	.
8A\J	.	.	.	16cc\	16ff\	.	.	.	.	.	.	.	.	.	.	.
.	.	.	.	16cc\JJ	16ff\JJ	.	.	.	.	.	.	.	.	.	.	.
=142	=142	=142	=142	=142	=142	=142	=142	=142	=142	=142	=142	=142	=142	=142	=142	=142
8E\L	X 6	1ryy	.	16cc\LL	16gg\LL	.	2E\	A-	1c	glo-	2g\	De-	2gg\	A-	4cc\	4gg\
.	.	.	.	16cc\	16gg\	.	.	.	.	.	.	.	.	.	.	.
8E\	.	.	.	16cc\	16gg\	.	.	.	.	.	.	.	.	.	.	.
.	.	.	.	16cc\	16gg\JJ	.	.	.	.	.	.	.	.	.	.	.
8E\	.	.	.	16cc\	16gg\LL	.	.	.	.	.	.	.	.	.	4r	4r
.	.	.	.	16cc\	16gg\	.	.	.	.	.	.	.	.	.	.	.
8E\J	.	.	.	16cc\	16gg\	.	.	.	.	.	.	.	.	.	.	.
.	.	.	.	16cc\JJ	16gg\JJ	.	.	.	.	.	.	.	.	.	.	.
*	*	*	*	*Xtremolo	*Xtremolo	*	*	*	*	*	*	*	*	*	*	*
8F\L	X 3	.	.	16cc\LL	16aa\LL	.	2F\	.	.	.	2cc\	-i	2aa\	-men	2r	2r
.	.	.	.	16aa\	16ccc\	.	.	.	.	.	.	.	.	.	.	.
8F\	.	.	.	16aa\	16ccc\	.	.	.	.	.	.	.	.	.	.	.
.	.	.	.	16aa\JJ	16ccc\JJ	.	.	.	.	.	.	.	.	.	.	.
*	*	*	*	*tremolo	*tremolo	*	*	*	*	*	*	*	*	*	*	*
8F\	.	.	.	16aa\LL	16ccc\LL	.	.	.	.	.	.	.	.	.	.	.
.	.	.	.	16aa\	16ccc\	.	.	.	.	.	.	.	.	.	.	.
8F\J	.	.	.	16aa\	16ccc\	.	.	.	.	.	.	.	.	.	.	.
.	.	.	.	16aa\JJ	16ccc\JJ	.	.	.	.	.	.	.	.	.	.	.
!	!	!	!	!	!	!	!	!	!	!	!	!	!	!	!	!LO:LB:g=original
=143	=143	=143	=143	=143	=143	=143	=143	=143	=143	=143	=143	=143	=143	=143	=143	=143
*	*	*	*	*	*	*	*	*	*	*	*	*	*	*ij	*	*
8G\L	.	1ryy	.	16ee\LL	16ccc\LL	.	1G	-men	2c\	-ri-	1g	Pa-	2ee\	A-	2cc\	2ee\
.	.	.	.	16ee\	16ccc\	.	.	.	.	.	.	.	.	.	.	.
8G\	.	.	.	16ee\	16ccc\	.	.	.	.	.	.	.	.	.	.	.
.	.	.	.	16ee\JJ	16ccc\JJ	.	.	.	.	.	.	.	.	.	.	.
8G\	.	.	.	16ee\LL	16ccc\LL	.	.	.	.	.	.	.	.	.	.	.
.	.	.	.	16ee\	16ccc\	.	.	.	.	.	.	.	.	.	.	.
8G\J	.	.	.	16ee\	16ccc\	.	.	.	.	.	.	.	.	.	.	.
.	.	.	.	16ee\JJ	16ccc\JJ	.	.	.	.	.	.	.	.	.	.	.
8GG/L	.	.	.	16dd\LL	16bb\LL	.	.	.	2B\	-a	.	.	2dd\	-men	2g\	2dd\
.	.	.	.	16dd\	16bb\	.	.	.	.	.	.	.	.	.	.	.
8GG/	.	.	.	16dd\	16bb\	.	.	.	.	.	.	.	.	.	.	.
.	.	.	.	16dd\JJ	16bb\JJ	.	.	.	.	.	.	.	.	.	.	.
8GG/	.	.	.	16dd\LL	16bb\LL	.	.	.	.	.	.	.	.	.	.	.
.	.	.	.	16dd\	16bb\	.	.	.	.	.	.	.	.	.	.	.
8GG/J	.	.	.	16dd\	16bb\	.	.	.	.	.	.	.	.	.	.	.
.	.	.	.	16dd\JJ	16bb\JJ	.	.	.	.	.	.	.	.	.	.	.
*Xtremolo	*	*	*	*Xtremolo	*Xtremolo	*	*	*	*	*	*	*	*	*Xij	*	*
=144	=144	=144	=144	=144	=144	=144	=144	=144	=144	=144	=144	=144	=144	=144	=144	=144
4c\	.	1ryy	.	4ee\	4ccc\	.	4c\	a-	4c\	De-	4g\	-tris	4ee\	A-	4cc\	4ee\
4r	.	.	.	4r	4r	.	4r	.	4r	.	4r	.	4r	.	4r	4r
4G\	.	.	.	4dd\	4bb\	.	4G\	-men	4B\	-i	4g\	a	4dd\	-men	4g/	4dd\
4r	.	.	.	4r	4r	.	4r	.	4r	.	4r	.	4r	.	4r	4r
!	!	!	!	!	!	!	!	!	!	!	!LO:LB:g=original	!	!	!	!	!
=145	=145	=145	=145	=145	=145	=145	=145	=145	=145	=145	=145	=145	=145	=145	=145	=145
4c\	.	1ryy	.	4ee\	4ccc\	.	4C/	a-	4c\	Pa-	4g\	men	4ee\	A-	4cc\	4ee\
4r	.	.	.	4r	4r	.	4r	.	4r	.	4r	.	4r	.	4r	4r
4G\	.	.	.	4d/ 4b	4d/ 4b	.	4G\	-men	4d\	.	4g\	a-	4b\	-men	2r	2r
4r	.	.	.	4r	4r	.	4r	.	4r	.	4r	.	4r	.	.	.
=146	=146	=146	=146	=146	=146	=146	=146	=146	=146	=146	=146	=146	=146	=146	=146	=146
4C/	.	1ryy	.	4e/ 4cc	4cc\	.	4c\	men	4e\	-tris	4g\	-men	4cc\	A-	4e/	4cc\
4C/	.	.	.	4e/ 4cc	8ee\L	.	4c\	a-	4e\	A-	4g\	A-	8ee\L	.	4e/	4cc\
.	.	.	.	.	8gg\J	.	.	.	.	.	.	.	8gg\J	.	.	.
2r	.	.	.	4e/ 4cc	4cc\	.	4C/	-men	4e\	-men	4g\	-men	4cc\	-men	4e/	4cc\
.	.	.	.	4r	4r	.	4r	.	4r	.	4r	.	4r	.	4r	4r
==	==	==	==	==	==	==	==	==	==	==	==	==	==	==	==	==
*-	*-	*-	*-	*-	*-	*-	*-	*-	*-	*-	*-	*-	*-	*-	*-	*-
!!!system-decoration: s1,s2[(s3,s4,s5,s6)][(s7,s8)]{(s9,s10)}
!!!RDF**kern: > = above
!!!RDF**kern: < = below
!!!EED: Mateusz Mrugas
!!!EST: 2020-12-02
!!!AIN: 1 alto 1 bass 2 empty 1 organ 1 tenor 2 violn 1 vox
!!!ENC: Tomasz Grochalski
!!!END: 2020-06-08
!!!RDF**kern: | = vertical stroke
